(Exported by FreeCAD)
(Post Processor: KineticNCBeamicon2_post)
(Output Time:2024-03-20 19:07:01.646612)
(begin preamble)
%
G17 G21 G40 G49 G80 G90
M08
G21
(begin operation: Fixture)
(machine: not set, mm/min)
G54
(finish operation: Fixture)
(begin operation: TC: Default Tool)
(machine: not set, mm/min)
(TC: Default Tool)
M05
M09M6 T1
M3 S10000
(finish operation: TC: Default Tool)
(begin operation: Pocket_Shape)
(machine: not set, mm/min)
(Pocket_Shape)
G0 Z23.000
G0 X84.012 Y14.187
G0 Z21.000
G1 X84.012 Y14.187 Z14.500 F150.000
G1 X84.012 Y14.637 Z14.500 F350.000
G1 X83.563 Y14.187 Z14.500 F350.000
G1 X83.114 Y14.187 Z14.500 F350.000
G1 X84.012 Y15.086 Z14.500 F350.000
G1 X84.012 Y15.535 Z14.500 F350.000
G1 X82.665 Y14.187 Z14.500 F350.000
G1 X82.216 Y14.187 Z14.500 F350.000
G1 X84.012 Y15.984 Z14.500 F350.000
G1 X84.012 Y16.433 Z14.500 F350.000
G1 X81.767 Y14.187 Z14.500 F350.000
G1 X81.318 Y14.187 Z14.500 F350.000
G1 X84.012 Y16.882 Z14.500 F350.000
G1 X84.012 Y17.331 Z14.500 F350.000
G1 X80.869 Y14.187 Z14.500 F350.000
G1 X80.420 Y14.187 Z14.500 F350.000
G1 X84.012 Y17.780 Z14.500 F350.000
G1 X84.012 Y18.229 Z14.500 F350.000
G1 X79.971 Y14.187 Z14.500 F350.000
G1 X79.522 Y14.187 Z14.500 F350.000
G1 X84.012 Y18.678 Z14.500 F350.000
G1 X84.012 Y19.127 Z14.500 F350.000
G1 X79.073 Y14.187 Z14.500 F350.000
G1 X78.624 Y14.187 Z14.500 F350.000
G1 X84.012 Y19.576 Z14.500 F350.000
G1 X84.012 Y20.025 Z14.500 F350.000
G1 X78.175 Y14.187 Z14.500 F350.000
G1 X77.726 Y14.187 Z14.500 F350.000
G1 X84.012 Y20.474 Z14.500 F350.000
G1 X84.012 Y20.923 Z14.500 F350.000
G1 X77.277 Y14.187 Z14.500 F350.000
G1 X76.828 Y14.187 Z14.500 F350.000
G1 X84.012 Y21.372 Z14.500 F350.000
G1 X84.012 Y21.821 Z14.500 F350.000
G1 X76.379 Y14.187 Z14.500 F350.000
G1 X75.930 Y14.187 Z14.500 F350.000
G1 X84.012 Y22.270 Z14.500 F350.000
G1 X84.012 Y22.719 Z14.500 F350.000
G1 X75.481 Y14.187 Z14.500 F350.000
G1 X75.032 Y14.187 Z14.500 F350.000
G1 X84.012 Y23.168 Z14.500 F350.000
G1 X84.012 Y23.617 Z14.500 F350.000
G1 X74.583 Y14.187 Z14.500 F350.000
G1 X74.134 Y14.187 Z14.500 F350.000
G1 X84.012 Y24.066 Z14.500 F350.000
G1 X84.012 Y24.515 Z14.500 F350.000
G1 X73.685 Y14.187 Z14.500 F350.000
G1 X73.236 Y14.187 Z14.500 F350.000
G1 X84.012 Y24.964 Z14.500 F350.000
G1 X84.012 Y25.413 Z14.500 F350.000
G1 X72.787 Y14.187 Z14.500 F350.000
G1 X72.338 Y14.187 Z14.500 F350.000
G1 X84.012 Y25.862 Z14.500 F350.000
G1 X84.012 Y26.311 Z14.500 F350.000
G1 X71.889 Y14.187 Z14.500 F350.000
G1 X71.440 Y14.187 Z14.500 F350.000
G1 X84.012 Y26.760 Z14.500 F350.000
G1 X84.012 Y27.209 Z14.500 F350.000
G1 X70.991 Y14.187 Z14.500 F350.000
G1 X70.542 Y14.187 Z14.500 F350.000
G1 X84.012 Y27.658 Z14.500 F350.000
G1 X84.012 Y28.107 Z14.500 F350.000
G1 X70.093 Y14.187 Z14.500 F350.000
G1 X69.644 Y14.187 Z14.500 F350.000
G1 X84.012 Y28.556 Z14.500 F350.000
G1 X84.012 Y29.005 Z14.500 F350.000
G1 X69.195 Y14.187 Z14.500 F350.000
G1 X68.746 Y14.187 Z14.500 F350.000
G1 X84.012 Y29.454 Z14.500 F350.000
G1 X84.012 Y29.903 Z14.500 F350.000
G1 X68.297 Y14.187 Z14.500 F350.000
G1 X67.848 Y14.187 Z14.500 F350.000
G1 X84.012 Y30.352 Z14.500 F350.000
G1 X84.012 Y30.801 Z14.500 F350.000
G1 X67.399 Y14.187 Z14.500 F350.000
G1 X66.950 Y14.187 Z14.500 F350.000
G1 X83.775 Y31.013 Z14.500 F350.000
G1 X83.326 Y31.013 Z14.500 F350.000
G1 X66.501 Y14.187 Z14.500 F350.000
G1 X66.052 Y14.187 Z14.500 F350.000
G1 X82.877 Y31.013 Z14.500 F350.000
G1 X82.428 Y31.013 Z14.500 F350.000
G1 X65.603 Y14.187 Z14.500 F350.000
G1 X65.154 Y14.187 Z14.500 F350.000
G1 X81.979 Y31.013 Z14.500 F350.000
G1 X81.530 Y31.013 Z14.500 F350.000
G1 X64.705 Y14.187 Z14.500 F350.000
G1 X64.256 Y14.187 Z14.500 F350.000
G1 X81.081 Y31.013 Z14.500 F350.000
G1 X80.632 Y31.013 Z14.500 F350.000
G1 X63.807 Y14.187 Z14.500 F350.000
G1 X63.358 Y14.187 Z14.500 F350.000
G1 X65.414 Y16.244 Z14.500 F350.000
G2 X64.838 Y16.117 Z14.500 I-0.565 J1.198 F350.000
G1 X62.909 Y14.187 Z14.500 F350.000
G1 X62.460 Y14.187 Z14.500 F350.000
G1 X64.385 Y16.113 Z14.500 F350.000
G1 X63.936 Y16.113 Z14.500 F350.000
G1 X62.011 Y14.187 Z14.500 F350.000
G1 X61.562 Y14.187 Z14.500 F350.000
G1 X63.487 Y16.113 Z14.500 F350.000
G1 X63.038 Y16.113 Z14.500 F350.000
G1 X61.113 Y14.187 Z14.500 F350.000
G1 X60.664 Y14.187 Z14.500 F350.000
G1 X62.589 Y16.113 Z14.500 F350.000
G1 X62.140 Y16.113 Z14.500 F350.000
G1 X60.215 Y14.187 Z14.500 F350.000
G1 X59.766 Y14.187 Z14.500 F350.000
G1 X61.691 Y16.113 Z14.500 F350.000
G1 X61.242 Y16.113 Z14.500 F350.000
G1 X59.317 Y14.187 Z14.500 F350.000
G1 X58.868 Y14.187 Z14.500 F350.000
G1 X60.793 Y16.113 Z14.500 F350.000
G1 X60.344 Y16.113 Z14.500 F350.000
G1 X58.419 Y14.187 Z14.500 F350.000
G1 X57.970 Y14.187 Z14.500 F350.000
G1 X59.895 Y16.113 Z14.500 F350.000
G1 X59.446 Y16.113 Z14.500 F350.000
G1 X57.521 Y14.187 Z14.500 F350.000
G1 X57.072 Y14.187 Z14.500 F350.000
G1 X58.997 Y16.113 Z14.500 F350.000
G1 X58.548 Y16.113 Z14.500 F350.000
G1 X56.623 Y14.187 Z14.500 F350.000
G1 X56.174 Y14.187 Z14.500 F350.000
G1 X58.099 Y16.113 Z14.500 F350.000
G1 X57.650 Y16.113 Z14.500 F350.000
G1 X55.725 Y14.187 Z14.500 F350.000
G1 X55.276 Y14.187 Z14.500 F350.000
G1 X57.201 Y16.113 Z14.500 F350.000
G1 X56.752 Y16.113 Z14.500 F350.000
G1 X54.827 Y14.187 Z14.500 F350.000
G1 X54.378 Y14.187 Z14.500 F350.000
G1 X56.303 Y16.113 Z14.500 F350.000
G1 X55.854 Y16.113 Z14.500 F350.000
G1 X53.929 Y14.187 Z14.500 F350.000
G1 X53.480 Y14.187 Z14.500 F350.000
G1 X55.405 Y16.113 Z14.500 F350.000
G1 X54.956 Y16.113 Z14.500 F350.000
G1 X53.031 Y14.187 Z14.500 F350.000
G1 X52.582 Y14.187 Z14.500 F350.000
G1 X54.507 Y16.113 Z14.500 F350.000
G1 X54.058 Y16.113 Z14.500 F350.000
G1 X52.133 Y14.187 Z14.500 F350.000
G1 X51.684 Y14.187 Z14.500 F350.000
G1 X53.609 Y16.113 Z14.500 F350.000
G1 X53.160 Y16.113 Z14.500 F350.000
G1 X51.235 Y14.187 Z14.500 F350.000
G1 X50.786 Y14.187 Z14.500 F350.000
G1 X52.711 Y16.113 Z14.500 F350.000
G1 X52.262 Y16.113 Z14.500 F350.000
G1 X50.337 Y14.187 Z14.500 F350.000
G1 X49.888 Y14.187 Z14.500 F350.000
G1 X51.813 Y16.113 Z14.500 F350.000
G1 X51.364 Y16.113 Z14.500 F350.000
G1 X49.439 Y14.187 Z14.500 F350.000
G1 X48.990 Y14.187 Z14.500 F350.000
G1 X50.915 Y16.113 Z14.500 F350.000
G2 X50.516 Y16.163 Z14.500 I-0.091 J0.881 F350.000
G1 X48.540 Y14.187 Z14.500 F350.000
G1 X48.091 Y14.187 Z14.500 F350.000
G1 X50.188 Y16.284 Z14.500 F350.000
G1 X49.912 Y16.457 Z14.500 F350.000
G1 X47.642 Y14.187 Z14.500 F350.000
G1 X47.193 Y14.187 Z14.500 F350.000
G1 X49.688 Y16.682 Z14.500 F350.000
G2 X49.508 Y16.951 Z14.500 I0.500 J0.528 F350.000
G1 X46.744 Y14.187 Z14.500 F350.000
G1 X46.295 Y14.187 Z14.500 F350.000
G1 X49.379 Y17.271 Z14.500 F350.000
G2 X49.317 Y17.658 Z14.500 I0.818 J0.329 F350.000
G1 X45.846 Y14.187 Z14.500 F350.000
G1 X45.397 Y14.187 Z14.500 F350.000
G1 X49.312 Y18.103 Z14.500 F350.000
G1 X49.312 Y18.552 Z14.500 F350.000
G1 X44.948 Y14.187 Z14.500 F350.000
G1 X44.499 Y14.187 Z14.500 F350.000
G1 X49.312 Y19.001 Z14.500 F350.000
G1 X49.312 Y19.450 Z14.500 F350.000
G1 X44.050 Y14.187 Z14.500 F350.000
G1 X43.601 Y14.187 Z14.500 F350.000
G1 X49.312 Y19.899 Z14.500 F350.000
G1 X49.312 Y20.348 Z14.500 F350.000
G1 X43.152 Y14.187 Z14.500 F350.000
G1 X42.703 Y14.187 Z14.500 F350.000
G1 X49.312 Y20.797 Z14.500 F350.000
G1 X49.312 Y21.246 Z14.500 F350.000
G1 X42.254 Y14.187 Z14.500 F350.000
G1 X41.805 Y14.187 Z14.500 F350.000
G1 X49.312 Y21.695 Z14.500 F350.000
G1 X49.312 Y22.144 Z14.500 F350.000
G1 X41.356 Y14.187 Z14.500 F350.000
G1 X40.907 Y14.187 Z14.500 F350.000
G1 X49.312 Y22.593 Z14.500 F350.000
G1 X49.312 Y23.042 Z14.500 F350.000
G1 X40.458 Y14.187 Z14.500 F350.000
G1 X40.009 Y14.187 Z14.500 F350.000
G1 X49.312 Y23.491 Z14.500 F350.000
G1 X49.312 Y23.940 Z14.500 F350.000
G1 X39.560 Y14.187 Z14.500 F350.000
G1 X39.111 Y14.187 Z14.500 F350.000
G1 X49.312 Y24.389 Z14.500 F350.000
G1 X49.312 Y24.838 Z14.500 F350.000
G1 X38.662 Y14.187 Z14.500 F350.000
G1 X38.213 Y14.187 Z14.500 F350.000
G1 X49.312 Y25.287 Z14.500 F350.000
G1 X49.312 Y25.736 Z14.500 F350.000
G1 X37.764 Y14.187 Z14.500 F350.000
G1 X37.315 Y14.187 Z14.500 F350.000
G1 X49.312 Y26.185 Z14.500 F350.000
G1 X49.312 Y26.634 Z14.500 F350.000
G1 X36.866 Y14.187 Z14.500 F350.000
G1 X36.417 Y14.187 Z14.500 F350.000
G1 X49.312 Y27.083 Z14.500 F350.000
G1 X49.312 Y27.532 Z14.500 F350.000
G1 X35.968 Y14.187 Z14.500 F350.000
G1 X35.519 Y14.187 Z14.500 F350.000
G1 X49.312 Y27.981 Z14.500 F350.000
G1 X49.312 Y28.430 Z14.500 F350.000
G1 X35.070 Y14.187 Z14.500 F350.000
G1 X34.621 Y14.187 Z14.500 F350.000
G1 X49.312 Y28.879 Z14.500 F350.000
G1 X49.312 Y29.328 Z14.500 F350.000
G1 X34.172 Y14.187 Z14.500 F350.000
G1 X33.723 Y14.187 Z14.500 F350.000
G1 X49.312 Y29.777 Z14.500 F350.000
G1 X49.312 Y30.226 Z14.500 F350.000
G1 X33.274 Y14.187 Z14.500 F350.000
G1 X32.825 Y14.187 Z14.500 F350.000
G1 X49.312 Y30.675 Z14.500 F350.000
G1 X49.312 Y31.013 Z14.500 F350.000
G1 X49.201 Y31.013 Z14.500 F350.000
G1 X32.376 Y14.187 Z14.500 F350.000
G1 X31.927 Y14.187 Z14.500 F350.000
G1 X48.752 Y31.013 Z14.500 F350.000
G1 X48.303 Y31.013 Z14.500 F350.000
G1 X31.478 Y14.187 Z14.500 F350.000
G1 X31.029 Y14.187 Z14.500 F350.000
G1 X47.854 Y31.013 Z14.500 F350.000
G1 X47.405 Y31.013 Z14.500 F350.000
G1 X30.580 Y14.187 Z14.500 F350.000
G1 X30.131 Y14.187 Z14.500 F350.000
G1 X46.956 Y31.013 Z14.500 F350.000
G1 X46.507 Y31.013 Z14.500 F350.000
G1 X29.682 Y14.187 Z14.500 F350.000
G1 X29.233 Y14.187 Z14.500 F350.000
G1 X46.058 Y31.013 Z14.500 F350.000
G1 X45.609 Y31.013 Z14.500 F350.000
G1 X28.784 Y14.187 Z14.500 F350.000
G1 X28.335 Y14.187 Z14.500 F350.000
G1 X45.160 Y31.013 Z14.500 F350.000
G1 X44.711 Y31.013 Z14.500 F350.000
G1 X27.886 Y14.187 Z14.500 F350.000
G1 X27.437 Y14.187 Z14.500 F350.000
G1 X44.262 Y31.013 Z14.500 F350.000
G1 X43.813 Y31.013 Z14.500 F350.000
G1 X26.988 Y14.187 Z14.500 F350.000
G1 X26.539 Y14.187 Z14.500 F350.000
G1 X43.364 Y31.013 Z14.500 F350.000
G1 X42.915 Y31.013 Z14.500 F350.000
G1 X26.090 Y14.187 Z14.500 F350.000
G1 X25.641 Y14.187 Z14.500 F350.000
G1 X42.466 Y31.013 Z14.500 F350.000
G1 X42.017 Y31.013 Z14.500 F350.000
G1 X25.192 Y14.187 Z14.500 F350.000
G1 X24.743 Y14.187 Z14.500 F350.000
G1 X26.773 Y16.217 Z14.500 F350.000
G2 X26.219 Y16.113 Z14.500 I-0.547 J1.371 F350.000
G1 X24.294 Y14.187 Z14.500 F350.000
G1 X23.845 Y14.187 Z14.500 F350.000
G1 X25.770 Y16.113 Z14.500 F350.000
G1 X25.321 Y16.113 Z14.500 F350.000
G1 X23.396 Y14.187 Z14.500 F350.000
G1 X22.947 Y14.187 Z14.500 F350.000
G1 X24.872 Y16.113 Z14.500 F350.000
G1 X24.423 Y16.113 Z14.500 F350.000
G1 X22.498 Y14.187 Z14.500 F350.000
G1 X22.049 Y14.187 Z14.500 F350.000
G1 X23.974 Y16.113 Z14.500 F350.000
G1 X23.525 Y16.113 Z14.500 F350.000
G1 X21.600 Y14.187 Z14.500 F350.000
G1 X21.151 Y14.187 Z14.500 F350.000
G1 X23.076 Y16.113 Z14.500 F350.000
G1 X22.627 Y16.113 Z14.500 F350.000
G1 X20.702 Y14.187 Z14.500 F350.000
G1 X20.253 Y14.187 Z14.500 F350.000
G1 X22.178 Y16.113 Z14.500 F350.000
G1 X21.729 Y16.113 Z14.500 F350.000
G1 X19.804 Y14.187 Z14.500 F350.000
G1 X19.355 Y14.187 Z14.500 F350.000
G1 X21.280 Y16.113 Z14.500 F350.000
G1 X20.831 Y16.113 Z14.500 F350.000
G1 X18.906 Y14.187 Z14.500 F350.000
G1 X18.457 Y14.187 Z14.500 F350.000
G1 X20.382 Y16.113 Z14.500 F350.000
G1 X19.933 Y16.113 Z14.500 F350.000
G1 X18.008 Y14.187 Z14.500 F350.000
G1 X17.559 Y14.187 Z14.500 F350.000
G1 X19.484 Y16.113 Z14.500 F350.000
G1 X19.035 Y16.113 Z14.500 F350.000
G1 X17.110 Y14.187 Z14.500 F350.000
G1 X16.661 Y14.187 Z14.500 F350.000
G1 X18.586 Y16.113 Z14.500 F350.000
G1 X18.137 Y16.113 Z14.500 F350.000
G1 X16.212 Y14.187 Z14.500 F350.000
G1 X15.763 Y14.187 Z14.500 F350.000
G1 X17.688 Y16.113 Z14.500 F350.000
G1 X17.239 Y16.113 Z14.500 F350.000
G1 X15.314 Y14.187 Z14.500 F350.000
G1 X14.865 Y14.187 Z14.500 F350.000
G1 X16.790 Y16.113 Z14.500 F350.000
G1 X16.341 Y16.113 Z14.500 F350.000
G1 X14.416 Y14.187 Z14.500 F350.000
G1 X13.967 Y14.187 Z14.500 F350.000
G1 X15.892 Y16.113 Z14.500 F350.000
G1 X15.442 Y16.113 Z14.500 F350.000
G1 X13.517 Y14.187 Z14.500 F350.000
G1 X13.068 Y14.187 Z14.500 F350.000
G1 X14.993 Y16.113 Z14.500 F350.000
G1 X14.544 Y16.113 Z14.500 F350.000
G1 X12.619 Y14.187 Z14.500 F350.000
G1 X12.170 Y14.187 Z14.500 F350.000
G1 X14.095 Y16.113 Z14.500 F350.000
G1 X13.646 Y16.113 Z14.500 F350.000
G1 X11.721 Y14.187 Z14.500 F350.000
G1 X11.272 Y14.187 Z14.500 F350.000
G1 X13.197 Y16.113 Z14.500 F350.000
G1 X12.748 Y16.113 Z14.500 F350.000
G1 X10.823 Y14.187 Z14.500 F350.000
G1 X10.374 Y14.187 Z14.500 F350.000
G1 X12.303 Y16.116 Z14.500 F350.000
G2 X11.913 Y16.176 Z14.500 I-0.064 J0.883 F350.000
G1 X9.925 Y14.187 Z14.500 F350.000
G1 X9.476 Y14.187 Z14.500 F350.000
G1 X11.592 Y16.303 Z14.500 F350.000
G2 X11.321 Y16.481 Z14.500 I0.255 J0.682 F350.000
G1 X9.027 Y14.187 Z14.500 F350.000
G1 X8.578 Y14.187 Z14.500 F350.000
G1 X11.097 Y16.706 Z14.500 F350.000
G2 X10.922 Y16.981 Z14.500 I0.515 J0.519 F350.000
G1 X8.129 Y14.187 Z14.500 F350.000
G1 X7.680 Y14.187 Z14.500 F350.000
G1 X10.800 Y17.307 Z14.500 F350.000
G2 X10.746 Y17.702 Z14.500 I1.418 J0.394 F350.000
G1 X7.231 Y14.187 Z14.500 F350.000
G1 X6.782 Y14.187 Z14.500 F350.000
G1 X10.746 Y18.151 Z14.500 F350.000
G1 X10.746 Y18.600 Z14.500 F350.000
G1 X6.333 Y14.187 Z14.500 F350.000
G1 X5.884 Y14.187 Z14.500 F350.000
G1 X10.746 Y19.049 Z14.500 F350.000
G1 X10.746 Y19.498 Z14.500 F350.000
G1 X5.435 Y14.187 Z14.500 F350.000
G1 X4.986 Y14.187 Z14.500 F350.000
G1 X10.746 Y19.947 Z14.500 F350.000
G1 X10.746 Y20.396 Z14.500 F350.000
G1 X4.537 Y14.187 Z14.500 F350.000
G1 X4.088 Y14.187 Z14.500 F350.000
G1 X10.746 Y20.845 Z14.500 F350.000
G1 X10.746 Y21.294 Z14.500 F350.000
G1 X3.639 Y14.187 Z14.500 F350.000
G1 X3.190 Y14.187 Z14.500 F350.000
G1 X10.746 Y21.743 Z14.500 F350.000
G1 X10.746 Y22.192 Z14.500 F350.000
G1 X2.741 Y14.187 Z14.500 F350.000
G1 X2.292 Y14.187 Z14.500 F350.000
G1 X10.746 Y22.641 Z14.500 F350.000
G1 X10.746 Y23.090 Z14.500 F350.000
G1 X1.843 Y14.187 Z14.500 F350.000
G1 X1.394 Y14.187 Z14.500 F350.000
G1 X10.746 Y23.539 Z14.500 F350.000
G1 X10.746 Y23.988 Z14.500 F350.000
G1 X0.945 Y14.187 Z14.500 F350.000
G1 X0.496 Y14.187 Z14.500 F350.000
G1 X10.746 Y24.437 Z14.500 F350.000
G1 X10.746 Y24.886 Z14.500 F350.000
G1 X0.047 Y14.187 Z14.500 F350.000
G1 X-0.402 Y14.187 Z14.500 F350.000
G1 X10.746 Y25.335 Z14.500 F350.000
G1 X10.746 Y25.784 Z14.500 F350.000
G1 X-0.851 Y14.187 Z14.500 F350.000
G1 X-1.300 Y14.187 Z14.500 F350.000
G1 X10.746 Y26.233 Z14.500 F350.000
G1 X10.746 Y26.682 Z14.500 F350.000
G1 X-1.749 Y14.187 Z14.500 F350.000
G1 X-2.198 Y14.187 Z14.500 F350.000
G1 X10.746 Y27.131 Z14.500 F350.000
G1 X10.746 Y27.580 Z14.500 F350.000
G1 X-2.647 Y14.187 Z14.500 F350.000
G1 X-3.096 Y14.187 Z14.500 F350.000
G1 X10.746 Y28.029 Z14.500 F350.000
G1 X10.746 Y28.478 Z14.500 F350.000
G1 X-3.545 Y14.187 Z14.500 F350.000
G1 X-3.994 Y14.187 Z14.500 F350.000
G1 X10.746 Y28.927 Z14.500 F350.000
G1 X10.746 Y29.376 Z14.500 F350.000
G1 X-4.443 Y14.187 Z14.500 F350.000
G1 X-4.892 Y14.187 Z14.500 F350.000
G1 X10.746 Y29.825 Z14.500 F350.000
G1 X10.746 Y30.274 Z14.500 F350.000
G1 X-5.341 Y14.187 Z14.500 F350.000
G1 X-5.790 Y14.187 Z14.500 F350.000
G1 X10.746 Y30.723 Z14.500 F350.000
G1 X10.746 Y31.013 Z14.500 F350.000
G1 X10.586 Y31.013 Z14.500 F350.000
G1 X-6.239 Y14.187 Z14.500 F350.000
G1 X-6.688 Y14.187 Z14.500 F350.000
G1 X10.137 Y31.013 Z14.500 F350.000
G1 X9.688 Y31.013 Z14.500 F350.000
G1 X-7.137 Y14.187 Z14.500 F350.000
G1 X-7.586 Y14.187 Z14.500 F350.000
G1 X9.239 Y31.013 Z14.500 F350.000
G1 X8.790 Y31.013 Z14.500 F350.000
G1 X-8.035 Y14.187 Z14.500 F350.000
G1 X-8.484 Y14.187 Z14.500 F350.000
G1 X8.341 Y31.013 Z14.500 F350.000
G1 X7.892 Y31.013 Z14.500 F350.000
G1 X-8.933 Y14.187 Z14.500 F350.000
G1 X-9.382 Y14.187 Z14.500 F350.000
G1 X7.443 Y31.013 Z14.500 F350.000
G1 X6.994 Y31.013 Z14.500 F350.000
G1 X-9.831 Y14.187 Z14.500 F350.000
G1 X-10.280 Y14.187 Z14.500 F350.000
G1 X6.545 Y31.013 Z14.500 F350.000
G1 X6.096 Y31.013 Z14.500 F350.000
G1 X-10.729 Y14.187 Z14.500 F350.000
G1 X-11.178 Y14.187 Z14.500 F350.000
G1 X5.647 Y31.013 Z14.500 F350.000
G1 X5.198 Y31.013 Z14.500 F350.000
G1 X-11.627 Y14.187 Z14.500 F350.000
G1 X-12.076 Y14.187 Z14.500 F350.000
G1 X4.749 Y31.013 Z14.500 F350.000
G1 X4.300 Y31.013 Z14.500 F350.000
G1 X-12.525 Y14.187 Z14.500 F350.000
G1 X-12.974 Y14.187 Z14.500 F350.000
G1 X3.851 Y31.013 Z14.500 F350.000
G1 X3.402 Y31.013 Z14.500 F350.000
G1 X-13.423 Y14.187 Z14.500 F350.000
G1 X-13.872 Y14.187 Z14.500 F350.000
G1 X-11.868 Y16.191 Z14.500 F350.000
G2 X-12.396 Y16.113 Z14.500 I-0.496 J1.516 F350.000
G1 X-14.321 Y14.187 Z14.500 F350.000
G1 X-14.770 Y14.187 Z14.500 F350.000
G1 X-12.845 Y16.113 Z14.500 F350.000
G1 X-13.294 Y16.113 Z14.500 F350.000
G1 X-15.219 Y14.187 Z14.500 F350.000
G1 X-15.668 Y14.187 Z14.500 F350.000
G1 X-13.743 Y16.113 Z14.500 F350.000
G1 X-14.192 Y16.113 Z14.500 F350.000
G1 X-16.117 Y14.187 Z14.500 F350.000
G1 X-16.566 Y14.187 Z14.500 F350.000
G1 X-14.641 Y16.113 Z14.500 F350.000
G1 X-15.090 Y16.113 Z14.500 F350.000
G1 X-17.015 Y14.187 Z14.500 F350.000
G1 X-17.464 Y14.187 Z14.500 F350.000
G1 X-15.539 Y16.113 Z14.500 F350.000
G1 X-15.988 Y16.113 Z14.500 F350.000
G1 X-17.913 Y14.187 Z14.500 F350.000
G1 X-18.362 Y14.187 Z14.500 F350.000
G1 X-16.437 Y16.113 Z14.500 F350.000
G1 X-16.886 Y16.113 Z14.500 F350.000
G1 X-18.811 Y14.187 Z14.500 F350.000
G1 X-19.260 Y14.187 Z14.500 F350.000
G1 X-17.335 Y16.113 Z14.500 F350.000
G1 X-17.784 Y16.113 Z14.500 F350.000
G1 X-19.709 Y14.187 Z14.500 F350.000
G1 X-20.158 Y14.187 Z14.500 F350.000
G1 X-18.233 Y16.113 Z14.500 F350.000
G1 X-18.682 Y16.113 Z14.500 F350.000
G1 X-20.607 Y14.187 Z14.500 F350.000
G1 X-21.056 Y14.187 Z14.500 F350.000
G1 X-19.131 Y16.113 Z14.500 F350.000
G1 X-19.581 Y16.113 Z14.500 F350.000
G1 X-21.506 Y14.187 Z14.500 F350.000
G1 X-21.955 Y14.187 Z14.500 F350.000
G1 X-20.030 Y16.113 Z14.500 F350.000
G1 X-20.479 Y16.113 Z14.500 F350.000
G1 X-22.404 Y14.187 Z14.500 F350.000
G1 X-22.853 Y14.187 Z14.500 F350.000
G1 X-20.928 Y16.113 Z14.500 F350.000
G1 X-21.377 Y16.113 Z14.500 F350.000
G1 X-23.302 Y14.187 Z14.500 F350.000
G1 X-23.751 Y14.187 Z14.500 F350.000
G1 X-21.826 Y16.113 Z14.500 F350.000
G1 X-22.275 Y16.113 Z14.500 F350.000
G1 X-24.200 Y14.187 Z14.500 F350.000
G1 X-24.649 Y14.187 Z14.500 F350.000
G1 X-22.724 Y16.113 Z14.500 F350.000
G1 X-23.173 Y16.113 Z14.500 F350.000
G1 X-25.098 Y14.187 Z14.500 F350.000
G1 X-25.547 Y14.187 Z14.500 F350.000
G1 X-23.622 Y16.113 Z14.500 F350.000
G1 X-24.071 Y16.113 Z14.500 F350.000
G1 X-25.996 Y14.187 Z14.500 F350.000
G1 X-26.445 Y14.187 Z14.500 F350.000
G1 X-24.520 Y16.113 Z14.500 F350.000
G1 X-24.969 Y16.113 Z14.500 F350.000
G1 X-26.894 Y14.187 Z14.500 F350.000
G1 X-27.343 Y14.187 Z14.500 F350.000
G1 X-25.418 Y16.113 Z14.500 F350.000
G1 X-25.867 Y16.113 Z14.500 F350.000
G1 X-27.792 Y14.187 Z14.500 F350.000
G1 X-28.241 Y14.187 Z14.500 F350.000
G1 X-26.307 Y16.121 Z14.500 F350.000
G2 X-26.689 Y16.188 Z14.500 I-0.043 J0.870 F350.000
G1 X-28.690 Y14.187 Z14.500 F350.000
G1 X-29.139 Y14.187 Z14.500 F350.000
G1 X-27.005 Y16.322 Z14.500 F350.000
G2 X-27.270 Y16.505 Z14.500 I0.270 J0.673 F350.000
G1 X-29.588 Y14.187 Z14.500 F350.000
G1 X-30.037 Y14.187 Z14.500 F350.000
G1 X-27.490 Y16.734 Z14.500 F350.000
G1 X-27.663 Y17.010 Z14.500 F350.000
G1 X-30.486 Y14.187 Z14.500 F350.000
G1 X-30.935 Y14.187 Z14.500 F350.000
G1 X-27.780 Y17.343 Z14.500 F350.000
G2 X-27.821 Y17.750 Z14.500 I1.747 J0.383 F350.000
G1 X-31.384 Y14.187 Z14.500 F350.000
G1 X-31.833 Y14.187 Z14.500 F350.000
G1 X-27.821 Y18.199 Z14.500 F350.000
G1 X-27.821 Y18.648 Z14.500 F350.000
G1 X-32.282 Y14.187 Z14.500 F350.000
G1 X-32.731 Y14.187 Z14.500 F350.000
G1 X-27.821 Y19.097 Z14.500 F350.000
G1 X-27.821 Y19.547 Z14.500 F350.000
G1 X-33.180 Y14.187 Z14.500 F350.000
G1 X-33.629 Y14.187 Z14.500 F350.000
G1 X-27.821 Y19.996 Z14.500 F350.000
G1 X-27.821 Y20.445 Z14.500 F350.000
G1 X-34.078 Y14.187 Z14.500 F350.000
G1 X-34.527 Y14.187 Z14.500 F350.000
G1 X-27.821 Y20.894 Z14.500 F350.000
G1 X-27.821 Y21.343 Z14.500 F350.000
G1 X-34.976 Y14.187 Z14.500 F350.000
G1 X-35.425 Y14.187 Z14.500 F350.000
G1 X-27.821 Y21.792 Z14.500 F350.000
G1 X-27.821 Y22.241 Z14.500 F350.000
G1 X-35.874 Y14.187 Z14.500 F350.000
G1 X-36.323 Y14.187 Z14.500 F350.000
G1 X-27.821 Y22.690 Z14.500 F350.000
G1 X-27.821 Y23.139 Z14.500 F350.000
G1 X-36.772 Y14.187 Z14.500 F350.000
G1 X-37.221 Y14.187 Z14.500 F350.000
G1 X-27.821 Y23.588 Z14.500 F350.000
G1 X-27.821 Y24.037 Z14.500 F350.000
G1 X-37.670 Y14.187 Z14.500 F350.000
G1 X-38.119 Y14.187 Z14.500 F350.000
G1 X-27.821 Y24.486 Z14.500 F350.000
G1 X-27.821 Y24.935 Z14.500 F350.000
G1 X-38.568 Y14.187 Z14.500 F350.000
G1 X-39.017 Y14.187 Z14.500 F350.000
G1 X-27.821 Y25.384 Z14.500 F350.000
G1 X-27.821 Y25.833 Z14.500 F350.000
G1 X-39.466 Y14.187 Z14.500 F350.000
G1 X-39.915 Y14.187 Z14.500 F350.000
G1 X-27.821 Y26.282 Z14.500 F350.000
G1 X-27.821 Y26.731 Z14.500 F350.000
G1 X-40.364 Y14.187 Z14.500 F350.000
G1 X-40.813 Y14.187 Z14.500 F350.000
G1 X-27.821 Y27.180 Z14.500 F350.000
G1 X-27.821 Y27.629 Z14.500 F350.000
G1 X-41.262 Y14.187 Z14.500 F350.000
G1 X-41.711 Y14.187 Z14.500 F350.000
G1 X-27.821 Y28.078 Z14.500 F350.000
G1 X-27.821 Y28.527 Z14.500 F350.000
G1 X-42.160 Y14.187 Z14.500 F350.000
G1 X-42.609 Y14.187 Z14.500 F350.000
G1 X-27.821 Y28.976 Z14.500 F350.000
G1 X-27.821 Y29.425 Z14.500 F350.000
G1 X-43.058 Y14.187 Z14.500 F350.000
G1 X-43.507 Y14.187 Z14.500 F350.000
G1 X-27.821 Y29.874 Z14.500 F350.000
G1 X-27.821 Y30.323 Z14.500 F350.000
G1 X-43.956 Y14.187 Z14.500 F350.000
G1 X-44.405 Y14.187 Z14.500 F350.000
G1 X-27.821 Y30.772 Z14.500 F350.000
G1 X-27.821 Y31.013 Z14.500 F350.000
G1 X-28.029 Y31.013 Z14.500 F350.000
G1 X-44.854 Y14.187 Z14.500 F350.000
G1 X-45.303 Y14.187 Z14.500 F350.000
G1 X-28.478 Y31.013 Z14.500 F350.000
G1 X-28.927 Y31.013 Z14.500 F350.000
G1 X-45.752 Y14.187 Z14.500 F350.000
G1 X-46.201 Y14.187 Z14.500 F350.000
G1 X-29.376 Y31.013 Z14.500 F350.000
G1 X-29.825 Y31.013 Z14.500 F350.000
G1 X-46.650 Y14.187 Z14.500 F350.000
G1 X-47.099 Y14.187 Z14.500 F350.000
G1 X-30.274 Y31.013 Z14.500 F350.000
G1 X-30.723 Y31.013 Z14.500 F350.000
G1 X-47.548 Y14.187 Z14.500 F350.000
G1 X-47.997 Y14.187 Z14.500 F350.000
G1 X-31.172 Y31.013 Z14.500 F350.000
G1 X-31.621 Y31.013 Z14.500 F350.000
G1 X-48.446 Y14.187 Z14.500 F350.000
G1 X-48.895 Y14.187 Z14.500 F350.000
G1 X-32.070 Y31.013 Z14.500 F350.000
G1 X-32.519 Y31.013 Z14.500 F350.000
G1 X-49.344 Y14.187 Z14.500 F350.000
G1 X-49.793 Y14.187 Z14.500 F350.000
G1 X-32.968 Y31.013 Z14.500 F350.000
G1 X-33.417 Y31.013 Z14.500 F350.000
G1 X-50.242 Y14.187 Z14.500 F350.000
G1 X-50.691 Y14.187 Z14.500 F350.000
G1 X-33.866 Y31.013 Z14.500 F350.000
G1 X-34.315 Y31.013 Z14.500 F350.000
G1 X-51.140 Y14.187 Z14.500 F350.000
G1 X-51.589 Y14.187 Z14.500 F350.000
G1 X-34.764 Y31.013 Z14.500 F350.000
G1 X-35.213 Y31.013 Z14.500 F350.000
G1 X-52.038 Y14.187 Z14.500 F350.000
G1 X-52.487 Y14.187 Z14.500 F350.000
G1 X-50.510 Y16.165 Z14.500 F350.000
G2 X-51.011 Y16.113 Z14.500 I-0.446 J1.829 F350.000
G1 X-52.936 Y14.187 Z14.500 F350.000
G1 X-53.385 Y14.187 Z14.500 F350.000
G1 X-51.460 Y16.113 Z14.500 F350.000
G1 X-51.909 Y16.113 Z14.500 F350.000
G1 X-53.834 Y14.187 Z14.500 F350.000
G1 X-54.283 Y14.187 Z14.500 F350.000
G1 X-52.358 Y16.113 Z14.500 F350.000
G1 X-52.807 Y16.113 Z14.500 F350.000
G1 X-54.732 Y14.187 Z14.500 F350.000
G1 X-55.181 Y14.187 Z14.500 F350.000
G1 X-53.256 Y16.113 Z14.500 F350.000
G1 X-53.705 Y16.113 Z14.500 F350.000
G1 X-55.630 Y14.187 Z14.500 F350.000
G1 X-56.079 Y14.187 Z14.500 F350.000
G1 X-54.154 Y16.113 Z14.500 F350.000
G1 X-54.604 Y16.113 Z14.500 F350.000
G1 X-56.529 Y14.187 Z14.500 F350.000
G1 X-56.978 Y14.187 Z14.500 F350.000
G1 X-55.053 Y16.113 Z14.500 F350.000
G1 X-55.502 Y16.113 Z14.500 F350.000
G1 X-57.427 Y14.187 Z14.500 F350.000
G1 X-57.876 Y14.187 Z14.500 F350.000
G1 X-55.951 Y16.113 Z14.500 F350.000
G1 X-56.400 Y16.113 Z14.500 F350.000
G1 X-58.325 Y14.187 Z14.500 F350.000
G1 X-58.774 Y14.187 Z14.500 F350.000
G1 X-56.849 Y16.113 Z14.500 F350.000
G1 X-57.298 Y16.113 Z14.500 F350.000
G1 X-59.223 Y14.187 Z14.500 F350.000
G1 X-59.672 Y14.187 Z14.500 F350.000
G1 X-57.747 Y16.113 Z14.500 F350.000
G1 X-58.196 Y16.113 Z14.500 F350.000
G1 X-60.121 Y14.187 Z14.500 F350.000
G1 X-60.570 Y14.187 Z14.500 F350.000
G1 X-58.645 Y16.113 Z14.500 F350.000
G1 X-59.094 Y16.113 Z14.500 F350.000
G1 X-61.019 Y14.187 Z14.500 F350.000
G1 X-61.468 Y14.187 Z14.500 F350.000
G1 X-59.543 Y16.113 Z14.500 F350.000
G1 X-59.992 Y16.113 Z14.500 F350.000
G1 X-61.917 Y14.187 Z14.500 F350.000
G1 X-62.366 Y14.187 Z14.500 F350.000
G1 X-60.441 Y16.113 Z14.500 F350.000
G1 X-60.890 Y16.113 Z14.500 F350.000
G1 X-62.815 Y14.187 Z14.500 F350.000
G1 X-63.264 Y14.187 Z14.500 F350.000
G1 X-61.339 Y16.113 Z14.500 F350.000
G1 X-61.788 Y16.113 Z14.500 F350.000
G1 X-63.713 Y14.187 Z14.500 F350.000
G1 X-64.162 Y14.187 Z14.500 F350.000
G1 X-62.237 Y16.113 Z14.500 F350.000
G1 X-62.686 Y16.113 Z14.500 F350.000
G1 X-64.611 Y14.187 Z14.500 F350.000
G1 X-65.060 Y14.187 Z14.500 F350.000
G1 X-63.135 Y16.113 Z14.500 F350.000
G1 X-63.584 Y16.113 Z14.500 F350.000
G1 X-65.509 Y14.187 Z14.500 F350.000
G1 X-65.958 Y14.187 Z14.500 F350.000
G1 X-64.033 Y16.113 Z14.500 F350.000
G1 X-64.482 Y16.113 Z14.500 F350.000
G1 X-66.407 Y14.187 Z14.500 F350.000
G1 X-66.856 Y14.187 Z14.500 F350.000
G1 X-64.918 Y16.126 Z14.500 F350.000
G2 X-65.292 Y16.201 Z14.500 I-0.023 J0.857 F350.000
G1 X-67.305 Y14.187 Z14.500 F350.000
G1 X-67.754 Y14.187 Z14.500 F350.000
G1 X-65.601 Y16.340 Z14.500 F350.000
G2 X-65.861 Y16.530 Z14.500 I0.285 J0.663 F350.000
G1 X-68.203 Y14.187 Z14.500 F350.000
G1 X-68.652 Y14.187 Z14.500 F350.000
G1 X-66.075 Y16.764 Z14.500 F350.000
G2 X-66.242 Y17.046 Z14.500 I0.533 J0.507 F350.000
G1 X-69.101 Y14.187 Z14.500 F350.000
G1 X-69.550 Y14.187 Z14.500 F350.000
G1 X-66.352 Y17.385 Z14.500 F350.000
G2 X-66.387 Y17.799 Z14.500 I1.817 J0.364 F350.000
G1 X-69.999 Y14.187 Z14.500 F350.000
G1 X-70.448 Y14.187 Z14.500 F350.000
G1 X-66.387 Y18.248 Z14.500 F350.000
G1 X-66.387 Y18.697 Z14.500 F350.000
G1 X-70.897 Y14.187 Z14.500 F350.000
G1 X-71.346 Y14.187 Z14.500 F350.000
G1 X-66.387 Y19.146 Z14.500 F350.000
G1 X-66.387 Y19.595 Z14.500 F350.000
G1 X-71.795 Y14.187 Z14.500 F350.000
G1 X-72.244 Y14.187 Z14.500 F350.000
G1 X-66.387 Y20.044 Z14.500 F350.000
G1 X-66.387 Y20.493 Z14.500 F350.000
G1 X-72.693 Y14.187 Z14.500 F350.000
G1 X-73.142 Y14.187 Z14.500 F350.000
G1 X-66.387 Y20.942 Z14.500 F350.000
G1 X-66.387 Y21.391 Z14.500 F350.000
G1 X-73.591 Y14.187 Z14.500 F350.000
G1 X-74.040 Y14.187 Z14.500 F350.000
G1 X-66.387 Y21.840 Z14.500 F350.000
G1 X-66.387 Y22.289 Z14.500 F350.000
G1 X-74.489 Y14.187 Z14.500 F350.000
G1 X-74.938 Y14.187 Z14.500 F350.000
G1 X-66.387 Y22.738 Z14.500 F350.000
G1 X-66.387 Y23.187 Z14.500 F350.000
G1 X-75.387 Y14.187 Z14.500 F350.000
G1 X-75.836 Y14.187 Z14.500 F350.000
G1 X-66.387 Y23.636 Z14.500 F350.000
G1 X-66.387 Y24.085 Z14.500 F350.000
G1 X-76.285 Y14.187 Z14.500 F350.000
G1 X-76.734 Y14.187 Z14.500 F350.000
G1 X-66.387 Y24.534 Z14.500 F350.000
G1 X-66.387 Y24.983 Z14.500 F350.000
G1 X-77.183 Y14.187 Z14.500 F350.000
G1 X-77.632 Y14.187 Z14.500 F350.000
G1 X-66.387 Y25.432 Z14.500 F350.000
G1 X-66.387 Y25.881 Z14.500 F350.000
G1 X-78.081 Y14.187 Z14.500 F350.000
G1 X-78.530 Y14.187 Z14.500 F350.000
G1 X-66.387 Y26.330 Z14.500 F350.000
G1 X-66.387 Y26.779 Z14.500 F350.000
G1 X-78.979 Y14.187 Z14.500 F350.000
G1 X-79.428 Y14.187 Z14.500 F350.000
G1 X-66.387 Y27.228 Z14.500 F350.000
G1 X-66.387 Y27.677 Z14.500 F350.000
G1 X-79.877 Y14.187 Z14.500 F350.000
G1 X-80.326 Y14.187 Z14.500 F350.000
G1 X-66.387 Y28.126 Z14.500 F350.000
G1 X-66.387 Y28.575 Z14.500 F350.000
G1 X-80.775 Y14.187 Z14.500 F350.000
G1 X-81.224 Y14.187 Z14.500 F350.000
G1 X-66.387 Y29.024 Z14.500 F350.000
G1 X-66.387 Y29.473 Z14.500 F350.000
G1 X-81.673 Y14.187 Z14.500 F350.000
G1 X-82.122 Y14.187 Z14.500 F350.000
G1 X-66.387 Y29.922 Z14.500 F350.000
G1 X-66.387 Y30.371 Z14.500 F350.000
G1 X-82.571 Y14.187 Z14.500 F350.000
G1 X-83.020 Y14.187 Z14.500 F350.000
G1 X-66.387 Y30.820 Z14.500 F350.000
G1 X-66.387 Y31.013 Z14.500 F350.000
G1 X-66.644 Y31.013 Z14.500 F350.000
G1 X-83.469 Y14.187 Z14.500 F350.000
G1 X-83.918 Y14.187 Z14.500 F350.000
G1 X-67.093 Y31.013 Z14.500 F350.000
G1 X-67.542 Y31.013 Z14.500 F350.000
G1 X-84.012 Y14.542 Z14.500 F350.000
G1 X-84.012 Y14.991 Z14.500 F350.000
G1 X-67.991 Y31.013 Z14.500 F350.000
G1 X-68.440 Y31.013 Z14.500 F350.000
G1 X-84.012 Y15.440 Z14.500 F350.000
G1 X-84.012 Y15.889 Z14.500 F350.000
G1 X-68.889 Y31.013 Z14.500 F350.000
G1 X-69.338 Y31.013 Z14.500 F350.000
G1 X-84.012 Y16.338 Z14.500 F350.000
G1 X-84.012 Y16.787 Z14.500 F350.000
G1 X-69.787 Y31.013 Z14.500 F350.000
G1 X-70.236 Y31.013 Z14.500 F350.000
G1 X-84.012 Y17.236 Z14.500 F350.000
G1 X-84.012 Y17.685 Z14.500 F350.000
G1 X-70.685 Y31.013 Z14.500 F350.000
G1 X-71.134 Y31.013 Z14.500 F350.000
G1 X-84.012 Y18.134 Z14.500 F350.000
G1 X-84.012 Y18.583 Z14.500 F350.000
G1 X-71.583 Y31.013 Z14.500 F350.000
G1 X-72.032 Y31.013 Z14.500 F350.000
G1 X-84.012 Y19.032 Z14.500 F350.000
G1 X-84.012 Y19.481 Z14.500 F350.000
G1 X-72.481 Y31.013 Z14.500 F350.000
G1 X-72.930 Y31.013 Z14.500 F350.000
G1 X-84.012 Y19.930 Z14.500 F350.000
G1 X-84.012 Y20.379 Z14.500 F350.000
G1 X-73.379 Y31.013 Z14.500 F350.000
G1 X-73.828 Y31.013 Z14.500 F350.000
G1 X-84.012 Y20.828 Z14.500 F350.000
G1 X-84.012 Y21.277 Z14.500 F350.000
G1 X-74.277 Y31.013 Z14.500 F350.000
G1 X-74.727 Y31.013 Z14.500 F350.000
G1 X-84.012 Y21.727 Z14.500 F350.000
G1 X-84.012 Y22.176 Z14.500 F350.000
G1 X-75.176 Y31.013 Z14.500 F350.000
G1 X-75.625 Y31.013 Z14.500 F350.000
G1 X-84.012 Y22.625 Z14.500 F350.000
G1 X-84.012 Y23.074 Z14.500 F350.000
G1 X-76.074 Y31.013 Z14.500 F350.000
G1 X-76.523 Y31.013 Z14.500 F350.000
G1 X-84.012 Y23.523 Z14.500 F350.000
G1 X-84.012 Y23.972 Z14.500 F350.000
G1 X-76.972 Y31.013 Z14.500 F350.000
G1 X-77.421 Y31.013 Z14.500 F350.000
G1 X-84.012 Y24.421 Z14.500 F350.000
G1 X-84.012 Y24.870 Z14.500 F350.000
G1 X-77.870 Y31.013 Z14.500 F350.000
G1 X-78.319 Y31.013 Z14.500 F350.000
G1 X-84.012 Y25.319 Z14.500 F350.000
G1 X-84.012 Y25.768 Z14.500 F350.000
G1 X-78.768 Y31.013 Z14.500 F350.000
G1 X-79.217 Y31.013 Z14.500 F350.000
G1 X-84.012 Y26.217 Z14.500 F350.000
G1 X-84.012 Y26.666 Z14.500 F350.000
G1 X-79.666 Y31.013 Z14.500 F350.000
G1 X-80.115 Y31.013 Z14.500 F350.000
G1 X-84.012 Y27.115 Z14.500 F350.000
G1 X-84.012 Y27.564 Z14.500 F350.000
G1 X-80.564 Y31.013 Z14.500 F350.000
G1 X-81.013 Y31.013 Z14.500 F350.000
G1 X-84.012 Y28.013 Z14.500 F350.000
G1 X-84.012 Y28.462 Z14.500 F350.000
G1 X-81.462 Y31.013 Z14.500 F350.000
G1 X-81.911 Y31.013 Z14.500 F350.000
G1 X-84.012 Y28.911 Z14.500 F350.000
G1 X-84.012 Y29.360 Z14.500 F350.000
G1 X-82.360 Y31.013 Z14.500 F350.000
G1 X-82.809 Y31.013 Z14.500 F350.000
G1 X-84.012 Y29.809 Z14.500 F350.000
G1 X-84.012 Y30.258 Z14.500 F350.000
G1 X-83.258 Y31.013 Z14.500 F350.000
G1 X-83.707 Y31.013 Z14.500 F350.000
G1 X-84.012 Y31.013 Z14.500 F350.000
G1 X-84.012 Y30.707 Z14.500 F350.000
G1 X-83.707 Y31.013 Z14.500 F350.000
G0 Z23.000
G0 X-49.312 Y30.833 Z23.000
G0 X-49.312 Y30.833 Z21.000
G1 X-49.312 Y30.833 Z14.500 F150.000
G1 X-49.133 Y31.013 Z14.500 F350.000
G1 X-49.312 Y31.013 Z14.500 F350.000
G1 X-49.312 Y30.833 Z14.500 F350.000
G1 X-49.312 Y30.384 Z14.500 F350.000
G1 X-48.684 Y31.013 Z14.500 F350.000
G1 X-48.235 Y31.013 Z14.500 F350.000
G1 X-49.312 Y29.935 Z14.500 F350.000
G1 X-49.312 Y29.486 Z14.500 F350.000
G1 X-47.786 Y31.013 Z14.500 F350.000
G1 X-47.337 Y31.013 Z14.500 F350.000
G1 X-49.312 Y29.037 Z14.500 F350.000
G1 X-49.312 Y28.588 Z14.500 F350.000
G1 X-46.888 Y31.013 Z14.500 F350.000
G1 X-46.439 Y31.013 Z14.500 F350.000
G1 X-49.312 Y28.139 Z14.500 F350.000
G1 X-49.312 Y27.690 Z14.500 F350.000
G1 X-45.990 Y31.013 Z14.500 F350.000
G1 X-45.541 Y31.013 Z14.500 F350.000
G1 X-49.312 Y27.241 Z14.500 F350.000
G1 X-49.312 Y26.792 Z14.500 F350.000
G1 X-45.092 Y31.013 Z14.500 F350.000
G1 X-44.643 Y31.013 Z14.500 F350.000
G1 X-49.312 Y26.343 Z14.500 F350.000
G1 X-49.312 Y25.894 Z14.500 F350.000
G1 X-44.194 Y31.013 Z14.500 F350.000
G1 X-43.745 Y31.013 Z14.500 F350.000
G1 X-49.312 Y25.445 Z14.500 F350.000
G1 X-49.312 Y24.996 Z14.500 F350.000
G1 X-43.296 Y31.013 Z14.500 F350.000
G1 X-42.847 Y31.013 Z14.500 F350.000
G1 X-49.312 Y24.547 Z14.500 F350.000
G1 X-49.312 Y24.098 Z14.500 F350.000
G1 X-42.398 Y31.013 Z14.500 F350.000
G1 X-41.949 Y31.013 Z14.500 F350.000
G1 X-49.312 Y23.649 Z14.500 F350.000
G1 X-49.312 Y23.200 Z14.500 F350.000
G1 X-41.500 Y31.013 Z14.500 F350.000
G1 X-41.051 Y31.013 Z14.500 F350.000
G1 X-49.312 Y22.751 Z14.500 F350.000
G1 X-49.312 Y22.302 Z14.500 F350.000
G1 X-40.602 Y31.013 Z14.500 F350.000
G1 X-40.153 Y31.013 Z14.500 F350.000
G1 X-49.312 Y21.853 Z14.500 F350.000
G1 X-49.312 Y21.404 Z14.500 F350.000
G1 X-39.704 Y31.013 Z14.500 F350.000
G1 X-39.254 Y31.013 Z14.500 F350.000
G1 X-49.312 Y20.954 Z14.500 F350.000
G1 X-49.312 Y20.505 Z14.500 F350.000
G1 X-38.805 Y31.013 Z14.500 F350.000
G1 X-38.356 Y31.013 Z14.500 F350.000
G1 X-49.312 Y20.056 Z14.500 F350.000
G1 X-49.312 Y19.607 Z14.500 F350.000
G1 X-37.907 Y31.013 Z14.500 F350.000
G1 X-37.458 Y31.013 Z14.500 F350.000
G1 X-49.312 Y19.158 Z14.500 F350.000
G1 X-49.312 Y18.709 Z14.500 F350.000
G1 X-37.009 Y31.013 Z14.500 F350.000
G1 X-36.560 Y31.013 Z14.500 F350.000
G1 X-49.312 Y18.260 Z14.500 F350.000
G1 X-49.312 Y17.811 Z14.500 F350.000
G1 X-36.111 Y31.013 Z14.500 F350.000
G1 X-35.662 Y31.013 Z14.500 F350.000
G1 X-49.365 Y17.310 Z14.500 F350.000
G0 Z23.000
G0 X-10.825 Y17.235 Z23.000
G0 X-10.825 Y17.235 Z21.000
G1 X-10.825 Y17.235 Z14.500 F150.000
G1 X2.953 Y31.013 Z14.500 F350.000
G1 X2.504 Y31.013 Z14.500 F350.000
G1 X-10.746 Y17.763 Z14.500 F350.000
G1 X-10.746 Y18.212 Z14.500 F350.000
G1 X2.055 Y31.013 Z14.500 F350.000
G1 X1.606 Y31.013 Z14.500 F350.000
G1 X-10.746 Y18.661 Z14.500 F350.000
G1 X-10.746 Y19.110 Z14.500 F350.000
G1 X1.157 Y31.013 Z14.500 F350.000
G1 X0.708 Y31.013 Z14.500 F350.000
G1 X-10.746 Y19.559 Z14.500 F350.000
G1 X-10.746 Y20.008 Z14.500 F350.000
G1 X0.259 Y31.013 Z14.500 F350.000
G1 X-0.190 Y31.013 Z14.500 F350.000
G1 X-10.746 Y20.457 Z14.500 F350.000
G1 X-10.746 Y20.906 Z14.500 F350.000
G1 X-0.639 Y31.013 Z14.500 F350.000
G1 X-1.088 Y31.013 Z14.500 F350.000
G1 X-10.746 Y21.355 Z14.500 F350.000
G1 X-10.746 Y21.804 Z14.500 F350.000
G1 X-1.537 Y31.013 Z14.500 F350.000
G1 X-1.986 Y31.013 Z14.500 F350.000
G1 X-10.746 Y22.253 Z14.500 F350.000
G1 X-10.746 Y22.702 Z14.500 F350.000
G1 X-2.435 Y31.013 Z14.500 F350.000
G1 X-2.884 Y31.013 Z14.500 F350.000
G1 X-10.746 Y23.151 Z14.500 F350.000
G1 X-10.746 Y23.600 Z14.500 F350.000
G1 X-3.333 Y31.013 Z14.500 F350.000
G1 X-3.782 Y31.013 Z14.500 F350.000
G1 X-10.746 Y24.049 Z14.500 F350.000
G1 X-10.746 Y24.498 Z14.500 F350.000
G1 X-4.231 Y31.013 Z14.500 F350.000
G1 X-4.681 Y31.013 Z14.500 F350.000
G1 X-10.746 Y24.947 Z14.500 F350.000
G1 X-10.746 Y25.396 Z14.500 F350.000
G1 X-5.130 Y31.013 Z14.500 F350.000
G1 X-5.579 Y31.013 Z14.500 F350.000
G1 X-10.746 Y25.845 Z14.500 F350.000
G1 X-10.746 Y26.294 Z14.500 F350.000
G1 X-6.028 Y31.013 Z14.500 F350.000
G1 X-6.477 Y31.013 Z14.500 F350.000
G1 X-10.746 Y26.743 Z14.500 F350.000
G1 X-10.746 Y27.192 Z14.500 F350.000
G1 X-6.926 Y31.013 Z14.500 F350.000
G1 X-7.375 Y31.013 Z14.500 F350.000
G1 X-10.746 Y27.641 Z14.500 F350.000
G1 X-10.746 Y28.090 Z14.500 F350.000
G1 X-7.824 Y31.013 Z14.500 F350.000
G1 X-8.273 Y31.013 Z14.500 F350.000
G1 X-10.746 Y28.539 Z14.500 F350.000
G1 X-10.746 Y28.988 Z14.500 F350.000
G1 X-8.722 Y31.013 Z14.500 F350.000
G1 X-9.171 Y31.013 Z14.500 F350.000
G1 X-10.746 Y29.437 Z14.500 F350.000
G1 X-10.746 Y29.886 Z14.500 F350.000
G1 X-9.620 Y31.013 Z14.500 F350.000
G1 X-10.069 Y31.013 Z14.500 F350.000
G1 X-10.746 Y30.335 Z14.500 F350.000
G1 X-10.746 Y30.784 Z14.500 F350.000
G1 X-10.746 Y31.013 Z14.500 F350.000
G1 X-10.518 Y31.013 Z14.500 F350.000
G1 X-10.746 Y30.784 Z14.500 F350.000
G0 Z23.000
G0 X27.821 Y30.736 Z23.000
G0 X27.821 Y30.736 Z21.000
G1 X27.821 Y30.736 Z14.500 F150.000
G1 X27.821 Y31.013 Z14.500 F350.000
G1 X28.097 Y31.013 Z14.500 F350.000
G1 X27.821 Y30.736 Z14.500 F350.000
G1 X27.821 Y30.287 Z14.500 F350.000
G1 X28.546 Y31.013 Z14.500 F350.000
G1 X28.995 Y31.013 Z14.500 F350.000
G1 X27.821 Y29.838 Z14.500 F350.000
G1 X27.821 Y29.389 Z14.500 F350.000
G1 X29.444 Y31.013 Z14.500 F350.000
G1 X29.893 Y31.013 Z14.500 F350.000
G1 X27.821 Y28.940 Z14.500 F350.000
G1 X27.821 Y28.491 Z14.500 F350.000
G1 X30.342 Y31.013 Z14.500 F350.000
G1 X30.792 Y31.013 Z14.500 F350.000
G1 X27.821 Y28.042 Z14.500 F350.000
G1 X27.821 Y27.593 Z14.500 F350.000
G1 X31.241 Y31.013 Z14.500 F350.000
G1 X31.690 Y31.013 Z14.500 F350.000
G1 X27.821 Y27.144 Z14.500 F350.000
G1 X27.821 Y26.695 Z14.500 F350.000
G1 X32.139 Y31.013 Z14.500 F350.000
G1 X32.588 Y31.013 Z14.500 F350.000
G1 X27.821 Y26.246 Z14.500 F350.000
G1 X27.821 Y25.797 Z14.500 F350.000
G1 X33.037 Y31.013 Z14.500 F350.000
G1 X33.486 Y31.013 Z14.500 F350.000
G1 X27.821 Y25.348 Z14.500 F350.000
G1 X27.821 Y24.899 Z14.500 F350.000
G1 X33.935 Y31.013 Z14.500 F350.000
G1 X34.384 Y31.013 Z14.500 F350.000
G1 X27.821 Y24.450 Z14.500 F350.000
G1 X27.821 Y24.001 Z14.500 F350.000
G1 X34.833 Y31.013 Z14.500 F350.000
G1 X35.282 Y31.013 Z14.500 F350.000
G1 X27.821 Y23.552 Z14.500 F350.000
G1 X27.821 Y23.103 Z14.500 F350.000
G1 X35.731 Y31.013 Z14.500 F350.000
G1 X36.180 Y31.013 Z14.500 F350.000
G1 X27.821 Y22.654 Z14.500 F350.000
G1 X27.821 Y22.205 Z14.500 F350.000
G1 X36.629 Y31.013 Z14.500 F350.000
G1 X37.078 Y31.013 Z14.500 F350.000
G1 X27.821 Y21.756 Z14.500 F350.000
G1 X27.821 Y21.307 Z14.500 F350.000
G1 X37.527 Y31.013 Z14.500 F350.000
G1 X37.976 Y31.013 Z14.500 F350.000
G1 X27.821 Y20.858 Z14.500 F350.000
G1 X27.821 Y20.409 Z14.500 F350.000
G1 X38.425 Y31.013 Z14.500 F350.000
G1 X38.874 Y31.013 Z14.500 F350.000
G1 X27.821 Y19.960 Z14.500 F350.000
G1 X27.821 Y19.511 Z14.500 F350.000
G1 X39.323 Y31.013 Z14.500 F350.000
G1 X39.772 Y31.013 Z14.500 F350.000
G1 X27.821 Y19.062 Z14.500 F350.000
G1 X27.821 Y18.613 Z14.500 F350.000
G1 X40.221 Y31.013 Z14.500 F350.000
G1 X40.670 Y31.013 Z14.500 F350.000
G1 X27.821 Y18.164 Z14.500 F350.000
G1 X27.821 Y17.715 Z14.500 F350.000
G1 X41.119 Y31.013 Z14.500 F350.000
G1 X41.568 Y31.013 Z14.500 F350.000
G1 X27.716 Y17.161 Z14.500 F350.000
G0 Z23.000
G0 X66.256 Y17.086 Z23.000
G0 X66.256 Y17.086 Z21.000
G1 X66.256 Y17.086 Z14.500 F150.000
G1 X80.183 Y31.013 Z14.500 F350.000
G1 X79.734 Y31.013 Z14.500 F350.000
G1 X66.383 Y17.662 Z14.500 F350.000
G3 X66.387 Y18.115 Z14.500 I-2.010 J0.246 F350.000
G1 X79.285 Y31.013 Z14.500 F350.000
G1 X78.836 Y31.013 Z14.500 F350.000
G1 X66.387 Y18.564 Z14.500 F350.000
G1 X66.387 Y19.013 Z14.500 F350.000
G1 X78.387 Y31.013 Z14.500 F350.000
G1 X77.938 Y31.013 Z14.500 F350.000
G1 X66.387 Y19.462 Z14.500 F350.000
G1 X66.387 Y19.911 Z14.500 F350.000
G1 X77.489 Y31.013 Z14.500 F350.000
G1 X77.040 Y31.013 Z14.500 F350.000
G1 X66.387 Y20.360 Z14.500 F350.000
G1 X66.387 Y20.809 Z14.500 F350.000
G1 X76.591 Y31.013 Z14.500 F350.000
G1 X76.142 Y31.013 Z14.500 F350.000
G1 X66.387 Y21.258 Z14.500 F350.000
G1 X66.387 Y21.707 Z14.500 F350.000
G1 X75.693 Y31.013 Z14.500 F350.000
G1 X75.244 Y31.013 Z14.500 F350.000
G1 X66.387 Y22.156 Z14.500 F350.000
G1 X66.387 Y22.605 Z14.500 F350.000
G1 X74.795 Y31.013 Z14.500 F350.000
G1 X74.346 Y31.013 Z14.500 F350.000
G1 X66.387 Y23.054 Z14.500 F350.000
G1 X66.387 Y23.503 Z14.500 F350.000
G1 X73.897 Y31.013 Z14.500 F350.000
G1 X73.448 Y31.013 Z14.500 F350.000
G1 X66.387 Y23.952 Z14.500 F350.000
G1 X66.387 Y24.401 Z14.500 F350.000
G1 X72.999 Y31.013 Z14.500 F350.000
G1 X72.550 Y31.013 Z14.500 F350.000
G1 X66.387 Y24.850 Z14.500 F350.000
G1 X66.387 Y25.299 Z14.500 F350.000
G1 X72.101 Y31.013 Z14.500 F350.000
G1 X71.652 Y31.013 Z14.500 F350.000
G1 X66.387 Y25.748 Z14.500 F350.000
G1 X66.387 Y26.197 Z14.500 F350.000
G1 X71.203 Y31.013 Z14.500 F350.000
G1 X70.754 Y31.013 Z14.500 F350.000
G1 X66.387 Y26.646 Z14.500 F350.000
G1 X66.387 Y27.095 Z14.500 F350.000
G1 X70.305 Y31.013 Z14.500 F350.000
G1 X69.856 Y31.013 Z14.500 F350.000
G1 X66.387 Y27.544 Z14.500 F350.000
G1 X66.387 Y27.993 Z14.500 F350.000
G1 X69.407 Y31.013 Z14.500 F350.000
G1 X68.958 Y31.013 Z14.500 F350.000
G1 X66.387 Y28.442 Z14.500 F350.000
G1 X66.387 Y28.891 Z14.500 F350.000
G1 X68.509 Y31.013 Z14.500 F350.000
G1 X68.060 Y31.013 Z14.500 F350.000
G1 X66.387 Y29.340 Z14.500 F350.000
G1 X66.387 Y29.789 Z14.500 F350.000
G1 X67.611 Y31.013 Z14.500 F350.000
G1 X67.162 Y31.013 Z14.500 F350.000
G1 X66.387 Y30.238 Z14.500 F350.000
G1 X66.387 Y30.687 Z14.500 F350.000
G1 X66.387 Y31.013 Z14.500 F350.000
G1 X66.713 Y31.013 Z14.500 F350.000
G1 X66.387 Y30.687 Z14.500 F350.000
G0 Z23.000
G0 Z23.000
(finish operation: Pocket_Shape)
(begin operation: Pocket_Shape001)
(machine: not set, mm/min)
(Pocket_Shape001)
G0 Z23.000
G0 X98.412 Y79.363
G0 Z21.000
G1 X98.412 Y79.363 Z12.000 F150.000
G1 X97.963 Y79.363 Z12.000 F350.000
G1 X98.412 Y78.913 Z12.000 F350.000
G1 X98.412 Y78.464 Z12.000 F350.000
G1 X97.514 Y79.363 Z12.000 F350.000
G1 X97.065 Y79.363 Z12.000 F350.000
G1 X98.412 Y78.015 Z12.000 F350.000
G1 X98.412 Y77.566 Z12.000 F350.000
G1 X96.616 Y79.363 Z12.000 F350.000
G1 X96.167 Y79.363 Z12.000 F350.000
G1 X98.412 Y77.117 Z12.000 F350.000
G1 X98.412 Y76.668 Z12.000 F350.000
G1 X95.718 Y79.363 Z12.000 F350.000
G1 X95.269 Y79.363 Z12.000 F350.000
G1 X98.412 Y76.219 Z12.000 F350.000
G1 X98.412 Y75.770 Z12.000 F350.000
G1 X94.820 Y79.363 Z12.000 F350.000
G1 X94.371 Y79.363 Z12.000 F350.000
G1 X98.412 Y75.321 Z12.000 F350.000
G1 X98.412 Y74.872 Z12.000 F350.000
G1 X93.922 Y79.363 Z12.000 F350.000
G1 X93.473 Y79.363 Z12.000 F350.000
G1 X98.412 Y74.423 Z12.000 F350.000
G1 X98.412 Y73.974 Z12.000 F350.000
G1 X93.024 Y79.363 Z12.000 F350.000
G1 X92.575 Y79.363 Z12.000 F350.000
G1 X98.412 Y73.525 Z12.000 F350.000
G1 X98.412 Y73.076 Z12.000 F350.000
G1 X92.126 Y79.363 Z12.000 F350.000
G1 X91.677 Y79.363 Z12.000 F350.000
G1 X98.412 Y72.627 Z12.000 F350.000
G1 X98.412 Y72.178 Z12.000 F350.000
G1 X91.228 Y79.363 Z12.000 F350.000
G1 X90.779 Y79.363 Z12.000 F350.000
G1 X98.412 Y71.729 Z12.000 F350.000
G1 X98.412 Y71.280 Z12.000 F350.000
G1 X90.330 Y79.363 Z12.000 F350.000
G1 X89.881 Y79.363 Z12.000 F350.000
G1 X98.412 Y70.831 Z12.000 F350.000
G1 X98.412 Y70.537 Z12.000 F350.000
G1 X98.257 Y70.537 Z12.000 F350.000
G1 X89.432 Y79.363 Z12.000 F350.000
G1 X88.983 Y79.363 Z12.000 F350.000
G1 X97.808 Y70.537 Z12.000 F350.000
G1 X97.359 Y70.537 Z12.000 F350.000
G1 X88.534 Y79.363 Z12.000 F350.000
G1 X88.085 Y79.363 Z12.000 F350.000
G1 X96.910 Y70.537 Z12.000 F350.000
G1 X96.461 Y70.537 Z12.000 F350.000
G1 X87.636 Y79.363 Z12.000 F350.000
G1 X87.187 Y79.363 Z12.000 F350.000
G1 X96.012 Y70.537 Z12.000 F350.000
G1 X95.563 Y70.537 Z12.000 F350.000
G1 X86.738 Y79.363 Z12.000 F350.000
G1 X86.289 Y79.363 Z12.000 F350.000
G1 X95.114 Y70.537 Z12.000 F350.000
G1 X94.665 Y70.537 Z12.000 F350.000
G1 X85.840 Y79.363 Z12.000 F350.000
G1 X85.391 Y79.363 Z12.000 F350.000
G1 X94.216 Y70.537 Z12.000 F350.000
G1 X93.767 Y70.537 Z12.000 F350.000
G1 X84.942 Y79.363 Z12.000 F350.000
G1 X84.493 Y79.363 Z12.000 F350.000
G1 X93.318 Y70.537 Z12.000 F350.000
G1 X92.869 Y70.537 Z12.000 F350.000
G1 X84.044 Y79.363 Z12.000 F350.000
G1 X83.595 Y79.363 Z12.000 F350.000
G1 X92.420 Y70.537 Z12.000 F350.000
G1 X91.971 Y70.537 Z12.000 F350.000
G1 X83.146 Y79.363 Z12.000 F350.000
G1 X82.697 Y79.363 Z12.000 F350.000
G1 X91.522 Y70.537 Z12.000 F350.000
G1 X91.073 Y70.537 Z12.000 F350.000
G1 X82.248 Y79.363 Z12.000 F350.000
G1 X81.799 Y79.363 Z12.000 F350.000
G1 X90.624 Y70.537 Z12.000 F350.000
G1 X90.175 Y70.537 Z12.000 F350.000
G1 X81.350 Y79.363 Z12.000 F350.000
G1 X80.901 Y79.363 Z12.000 F350.000
G1 X89.726 Y70.537 Z12.000 F350.000
G1 X89.277 Y70.537 Z12.000 F350.000
G1 X80.452 Y79.363 Z12.000 F350.000
G1 X80.003 Y79.363 Z12.000 F350.000
G1 X88.828 Y70.537 Z12.000 F350.000
G1 X88.379 Y70.537 Z12.000 F350.000
G1 X79.554 Y79.363 Z12.000 F350.000
G1 X79.105 Y79.363 Z12.000 F350.000
G1 X87.930 Y70.537 Z12.000 F350.000
G1 X87.481 Y70.537 Z12.000 F350.000
G1 X78.656 Y79.363 Z12.000 F350.000
G1 X78.207 Y79.363 Z12.000 F350.000
G1 X87.032 Y70.537 Z12.000 F350.000
G1 X86.583 Y70.537 Z12.000 F350.000
G1 X77.758 Y79.363 Z12.000 F350.000
G1 X77.309 Y79.363 Z12.000 F350.000
G1 X86.134 Y70.537 Z12.000 F350.000
G1 X85.685 Y70.537 Z12.000 F350.000
G1 X76.860 Y79.363 Z12.000 F350.000
G1 X76.411 Y79.363 Z12.000 F350.000
G1 X85.236 Y70.537 Z12.000 F350.000
G1 X84.787 Y70.537 Z12.000 F350.000
G1 X75.962 Y79.363 Z12.000 F350.000
G1 X75.513 Y79.363 Z12.000 F350.000
G1 X84.338 Y70.537 Z12.000 F350.000
G1 X83.889 Y70.537 Z12.000 F350.000
G1 X75.064 Y79.363 Z12.000 F350.000
G1 X74.615 Y79.363 Z12.000 F350.000
G1 X83.440 Y70.537 Z12.000 F350.000
G1 X82.991 Y70.537 Z12.000 F350.000
G1 X74.166 Y79.363 Z12.000 F350.000
G1 X73.717 Y79.363 Z12.000 F350.000
G1 X82.542 Y70.537 Z12.000 F350.000
G1 X82.093 Y70.537 Z12.000 F350.000
G1 X73.268 Y79.363 Z12.000 F350.000
G1 X72.819 Y79.363 Z12.000 F350.000
G1 X81.644 Y70.537 Z12.000 F350.000
G1 X81.195 Y70.537 Z12.000 F350.000
G1 X72.370 Y79.363 Z12.000 F350.000
G1 X71.921 Y79.363 Z12.000 F350.000
G1 X80.746 Y70.537 Z12.000 F350.000
G1 X80.297 Y70.537 Z12.000 F350.000
G1 X71.472 Y79.363 Z12.000 F350.000
G1 X71.023 Y79.363 Z12.000 F350.000
G1 X79.848 Y70.537 Z12.000 F350.000
G1 X79.399 Y70.537 Z12.000 F350.000
G1 X70.574 Y79.363 Z12.000 F350.000
G1 X70.125 Y79.363 Z12.000 F350.000
G1 X78.950 Y70.537 Z12.000 F350.000
G1 X78.501 Y70.537 Z12.000 F350.000
G1 X69.676 Y79.363 Z12.000 F350.000
G1 X69.227 Y79.363 Z12.000 F350.000
G1 X78.052 Y70.537 Z12.000 F350.000
G1 X77.603 Y70.537 Z12.000 F350.000
G1 X68.778 Y79.363 Z12.000 F350.000
G1 X68.329 Y79.363 Z12.000 F350.000
G1 X77.154 Y70.537 Z12.000 F350.000
G1 X76.705 Y70.537 Z12.000 F350.000
G1 X67.880 Y79.363 Z12.000 F350.000
G1 X67.431 Y79.363 Z12.000 F350.000
G1 X76.256 Y70.537 Z12.000 F350.000
G1 X75.807 Y70.537 Z12.000 F350.000
G1 X66.982 Y79.363 Z12.000 F350.000
G1 X66.533 Y79.363 Z12.000 F350.000
G1 X75.358 Y70.537 Z12.000 F350.000
G1 X74.909 Y70.537 Z12.000 F350.000
G1 X66.084 Y79.363 Z12.000 F350.000
G1 X65.635 Y79.363 Z12.000 F350.000
G1 X74.460 Y70.537 Z12.000 F350.000
G1 X74.011 Y70.537 Z12.000 F350.000
G1 X65.186 Y79.363 Z12.000 F350.000
G1 X64.737 Y79.363 Z12.000 F350.000
G1 X73.562 Y70.537 Z12.000 F350.000
G1 X73.113 Y70.537 Z12.000 F350.000
G1 X67.194 Y76.456 Z12.000 F350.000
G2 X67.287 Y75.914 Z12.000 I-1.425 J-0.524 F350.000
G1 X72.664 Y70.537 Z12.000 F350.000
G1 X72.215 Y70.537 Z12.000 F350.000
G1 X67.287 Y75.465 Z12.000 F350.000
G1 X67.287 Y75.015 Z12.000 F350.000
G1 X71.765 Y70.537 Z12.000 F350.000
G1 X71.316 Y70.537 Z12.000 F350.000
G1 X67.287 Y74.566 Z12.000 F350.000
G1 X67.287 Y74.117 Z12.000 F350.000
G1 X70.867 Y70.537 Z12.000 F350.000
G1 X70.418 Y70.537 Z12.000 F350.000
G1 X67.287 Y73.668 Z12.000 F350.000
G1 X67.287 Y73.219 Z12.000 F350.000
G1 X69.969 Y70.537 Z12.000 F350.000
G1 X69.520 Y70.537 Z12.000 F350.000
G1 X67.287 Y72.770 Z12.000 F350.000
G1 X67.287 Y72.321 Z12.000 F350.000
G1 X69.071 Y70.537 Z12.000 F350.000
G1 X68.622 Y70.537 Z12.000 F350.000
G1 X67.287 Y71.872 Z12.000 F350.000
G1 X67.287 Y71.423 Z12.000 F350.000
G1 X68.173 Y70.537 Z12.000 F350.000
G1 X67.724 Y70.537 Z12.000 F350.000
G1 X67.287 Y70.974 Z12.000 F350.000
G1 X67.287 Y70.537 Z12.000 F350.000
G1 X67.724 Y70.537 Z12.000 F350.000
G0 Z23.000
G0 X66.206 Y77.444 Z23.000
G0 X66.206 Y77.444 Z21.000
G1 X66.206 Y77.444 Z12.000 F150.000
G1 X64.288 Y79.363 Z12.000 F350.000
G1 X63.839 Y79.363 Z12.000 F350.000
G1 X65.664 Y77.538 Z12.000 F350.000
G1 X65.215 Y77.538 Z12.000 F350.000
G1 X63.390 Y79.363 Z12.000 F350.000
G1 X62.940 Y79.363 Z12.000 F350.000
G1 X64.765 Y77.538 Z12.000 F350.000
G1 X64.316 Y77.538 Z12.000 F350.000
G1 X62.491 Y79.363 Z12.000 F350.000
G1 X62.042 Y79.363 Z12.000 F350.000
G1 X63.867 Y77.538 Z12.000 F350.000
G1 X63.418 Y77.538 Z12.000 F350.000
G1 X61.593 Y79.363 Z12.000 F350.000
G1 X61.144 Y79.363 Z12.000 F350.000
G1 X62.969 Y77.538 Z12.000 F350.000
G1 X62.520 Y77.538 Z12.000 F350.000
G1 X60.695 Y79.363 Z12.000 F350.000
G1 X60.246 Y79.363 Z12.000 F350.000
G1 X62.071 Y77.538 Z12.000 F350.000
G1 X61.622 Y77.538 Z12.000 F350.000
G1 X59.797 Y79.363 Z12.000 F350.000
G1 X59.348 Y79.363 Z12.000 F350.000
G1 X61.173 Y77.538 Z12.000 F350.000
G1 X60.724 Y77.538 Z12.000 F350.000
G1 X58.899 Y79.363 Z12.000 F350.000
G1 X58.450 Y79.363 Z12.000 F350.000
G1 X60.275 Y77.538 Z12.000 F350.000
G1 X59.826 Y77.538 Z12.000 F350.000
G1 X58.001 Y79.363 Z12.000 F350.000
G1 X57.552 Y79.363 Z12.000 F350.000
G1 X59.377 Y77.538 Z12.000 F350.000
G1 X58.928 Y77.538 Z12.000 F350.000
G1 X57.103 Y79.363 Z12.000 F350.000
G1 X56.654 Y79.363 Z12.000 F350.000
G1 X58.479 Y77.538 Z12.000 F350.000
G1 X58.030 Y77.538 Z12.000 F350.000
G1 X56.205 Y79.363 Z12.000 F350.000
G1 X55.756 Y79.363 Z12.000 F350.000
G1 X57.581 Y77.538 Z12.000 F350.000
G1 X57.132 Y77.538 Z12.000 F350.000
G1 X55.307 Y79.363 Z12.000 F350.000
G1 X54.858 Y79.363 Z12.000 F350.000
G1 X56.683 Y77.538 Z12.000 F350.000
G1 X56.234 Y77.538 Z12.000 F350.000
G1 X54.409 Y79.363 Z12.000 F350.000
G1 X53.960 Y79.363 Z12.000 F350.000
G1 X55.785 Y77.538 Z12.000 F350.000
G1 X55.336 Y77.538 Z12.000 F350.000
G1 X53.511 Y79.363 Z12.000 F350.000
G1 X53.062 Y79.363 Z12.000 F350.000
G1 X54.887 Y77.538 Z12.000 F350.000
G1 X54.438 Y77.538 Z12.000 F350.000
G1 X52.613 Y79.363 Z12.000 F350.000
G1 X52.164 Y79.363 Z12.000 F350.000
G1 X53.989 Y77.538 Z12.000 F350.000
G1 X53.540 Y77.538 Z12.000 F350.000
G1 X51.715 Y79.363 Z12.000 F350.000
G1 X51.266 Y79.363 Z12.000 F350.000
G1 X53.091 Y77.538 Z12.000 F350.000
G1 X52.642 Y77.538 Z12.000 F350.000
G1 X50.817 Y79.363 Z12.000 F350.000
G1 X50.368 Y79.363 Z12.000 F350.000
G1 X52.193 Y77.538 Z12.000 F350.000
G1 X51.744 Y77.538 Z12.000 F350.000
G1 X49.919 Y79.363 Z12.000 F350.000
G1 X49.470 Y79.363 Z12.000 F350.000
G1 X51.295 Y77.538 Z12.000 F350.000
G1 X50.846 Y77.538 Z12.000 F350.000
G1 X49.021 Y79.363 Z12.000 F350.000
G1 X48.572 Y79.363 Z12.000 F350.000
G1 X50.397 Y77.538 Z12.000 F350.000
G3 X49.953 Y77.532 Z12.000 I-0.199 J-1.972 F350.000
G1 X48.123 Y79.363 Z12.000 F350.000
G1 X47.674 Y79.363 Z12.000 F350.000
G1 X49.567 Y77.470 Z12.000 F350.000
G3 X49.247 Y77.340 Z12.000 I0.124 J-0.765 F350.000
G1 X47.225 Y79.363 Z12.000 F350.000
G1 X46.776 Y79.363 Z12.000 F350.000
G1 X48.979 Y77.160 Z12.000 F350.000
G3 X48.755 Y76.934 Z12.000 I0.382 J-0.602 F350.000
G1 X46.327 Y79.363 Z12.000 F350.000
G1 X45.878 Y79.363 Z12.000 F350.000
G1 X48.582 Y76.658 Z12.000 F350.000
G3 X48.462 Y76.330 Z12.000 I0.660 J-0.428 F350.000
G1 X45.429 Y79.363 Z12.000 F350.000
G1 X44.980 Y79.363 Z12.000 F350.000
G1 X48.412 Y75.930 Z12.000 F350.000
G1 X48.412 Y75.481 Z12.000 F350.000
G1 X44.531 Y79.363 Z12.000 F350.000
G1 X44.082 Y79.363 Z12.000 F350.000
G1 X48.412 Y75.032 Z12.000 F350.000
G1 X48.412 Y74.583 Z12.000 F350.000
G1 X43.633 Y79.363 Z12.000 F350.000
G1 X43.184 Y79.363 Z12.000 F350.000
G1 X48.412 Y74.134 Z12.000 F350.000
G1 X48.412 Y73.685 Z12.000 F350.000
G1 X42.735 Y79.363 Z12.000 F350.000
G1 X42.286 Y79.363 Z12.000 F350.000
G1 X48.412 Y73.236 Z12.000 F350.000
G1 X48.412 Y72.787 Z12.000 F350.000
G1 X41.837 Y79.363 Z12.000 F350.000
G1 X41.388 Y79.363 Z12.000 F350.000
G1 X48.412 Y72.338 Z12.000 F350.000
G1 X48.412 Y71.889 Z12.000 F350.000
G1 X40.939 Y79.363 Z12.000 F350.000
G1 X40.490 Y79.363 Z12.000 F350.000
G1 X48.412 Y71.440 Z12.000 F350.000
G1 X48.412 Y70.991 Z12.000 F350.000
G1 X40.041 Y79.363 Z12.000 F350.000
G1 X39.592 Y79.363 Z12.000 F350.000
G1 X48.412 Y70.542 Z12.000 F350.000
G1 X48.412 Y70.537 Z12.000 F350.000
G1 X47.968 Y70.537 Z12.000 F350.000
G1 X39.143 Y79.363 Z12.000 F350.000
G1 X38.694 Y79.363 Z12.000 F350.000
G1 X47.519 Y70.537 Z12.000 F350.000
G1 X47.070 Y70.537 Z12.000 F350.000
G1 X38.245 Y79.363 Z12.000 F350.000
G1 X37.796 Y79.363 Z12.000 F350.000
G1 X46.621 Y70.537 Z12.000 F350.000
G1 X46.172 Y70.537 Z12.000 F350.000
G1 X37.347 Y79.363 Z12.000 F350.000
G1 X36.898 Y79.363 Z12.000 F350.000
G1 X45.723 Y70.537 Z12.000 F350.000
G1 X45.274 Y70.537 Z12.000 F350.000
G1 X36.449 Y79.363 Z12.000 F350.000
G1 X36.000 Y79.363 Z12.000 F350.000
G1 X44.825 Y70.537 Z12.000 F350.000
G1 X44.376 Y70.537 Z12.000 F350.000
G1 X35.551 Y79.363 Z12.000 F350.000
G1 X35.102 Y79.363 Z12.000 F350.000
G1 X43.927 Y70.537 Z12.000 F350.000
G1 X43.478 Y70.537 Z12.000 F350.000
G1 X34.653 Y79.363 Z12.000 F350.000
G1 X34.204 Y79.363 Z12.000 F350.000
G1 X43.029 Y70.537 Z12.000 F350.000
G1 X42.580 Y70.537 Z12.000 F350.000
G1 X33.755 Y79.363 Z12.000 F350.000
G1 X33.306 Y79.363 Z12.000 F350.000
G1 X42.131 Y70.537 Z12.000 F350.000
G1 X41.682 Y70.537 Z12.000 F350.000
G1 X32.857 Y79.363 Z12.000 F350.000
G1 X32.408 Y79.363 Z12.000 F350.000
G1 X41.233 Y70.537 Z12.000 F350.000
G1 X40.784 Y70.537 Z12.000 F350.000
G1 X31.959 Y79.363 Z12.000 F350.000
G1 X31.510 Y79.363 Z12.000 F350.000
G1 X40.335 Y70.537 Z12.000 F350.000
G1 X39.886 Y70.537 Z12.000 F350.000
G1 X31.061 Y79.363 Z12.000 F350.000
G1 X30.612 Y79.363 Z12.000 F350.000
G1 X39.437 Y70.537 Z12.000 F350.000
G1 X38.988 Y70.537 Z12.000 F350.000
G1 X30.163 Y79.363 Z12.000 F350.000
G1 X29.714 Y79.363 Z12.000 F350.000
G1 X38.539 Y70.538 Z12.000 F350.000
G1 X38.090 Y70.538 Z12.000 F350.000
G1 X29.265 Y79.363 Z12.000 F350.000
G1 X28.816 Y79.363 Z12.000 F350.000
G1 X37.641 Y70.538 Z12.000 F350.000
G1 X37.192 Y70.538 Z12.000 F350.000
G1 X28.367 Y79.363 Z12.000 F350.000
G1 X27.917 Y79.363 Z12.000 F350.000
G1 X36.742 Y70.538 Z12.000 F350.000
G1 X36.293 Y70.538 Z12.000 F350.000
G1 X27.468 Y79.363 Z12.000 F350.000
G1 X27.019 Y79.363 Z12.000 F350.000
G1 X35.844 Y70.538 Z12.000 F350.000
G1 X35.395 Y70.538 Z12.000 F350.000
G1 X26.570 Y79.363 Z12.000 F350.000
G1 X26.121 Y79.363 Z12.000 F350.000
G1 X34.946 Y70.538 Z12.000 F350.000
G1 X34.497 Y70.538 Z12.000 F350.000
G1 X28.654 Y76.381 Z12.000 F350.000
G2 X28.721 Y75.865 Z12.000 I-1.625 J-0.474 F350.000
G1 X34.048 Y70.538 Z12.000 F350.000
G1 X33.599 Y70.538 Z12.000 F350.000
G1 X28.721 Y75.416 Z12.000 F350.000
G1 X28.721 Y74.967 Z12.000 F350.000
G1 X33.150 Y70.538 Z12.000 F350.000
G1 X32.701 Y70.538 Z12.000 F350.000
G1 X28.721 Y74.518 Z12.000 F350.000
G1 X28.721 Y74.069 Z12.000 F350.000
G1 X32.252 Y70.538 Z12.000 F350.000
G1 X31.803 Y70.538 Z12.000 F350.000
G1 X28.721 Y73.620 Z12.000 F350.000
G1 X28.721 Y73.171 Z12.000 F350.000
G1 X31.354 Y70.538 Z12.000 F350.000
G1 X30.905 Y70.538 Z12.000 F350.000
G1 X28.721 Y72.722 Z12.000 F350.000
G1 X28.721 Y72.273 Z12.000 F350.000
G1 X30.456 Y70.538 Z12.000 F350.000
G1 X30.007 Y70.538 Z12.000 F350.000
G1 X28.721 Y71.824 Z12.000 F350.000
G1 X28.721 Y71.375 Z12.000 F350.000
G1 X29.558 Y70.538 Z12.000 F350.000
G1 X29.109 Y70.538 Z12.000 F350.000
G1 X28.721 Y70.538 Z12.000 F350.000
G1 X28.721 Y70.926 Z12.000 F350.000
G1 X29.109 Y70.538 Z12.000 F350.000
G0 Z23.000
G0 X27.564 Y77.470 Z23.000
G0 X27.564 Y77.470 Z21.000
G1 X27.564 Y77.470 Z12.000 F150.000
G1 X25.672 Y79.363 Z12.000 F350.000
G1 X25.223 Y79.363 Z12.000 F350.000
G1 X27.048 Y77.538 Z12.000 F350.000
G1 X26.599 Y77.538 Z12.000 F350.000
G1 X24.774 Y79.363 Z12.000 F350.000
G1 X24.325 Y79.363 Z12.000 F350.000
G1 X26.150 Y77.538 Z12.000 F350.000
G1 X25.701 Y77.538 Z12.000 F350.000
G1 X23.876 Y79.363 Z12.000 F350.000
G1 X23.427 Y79.363 Z12.000 F350.000
G1 X25.252 Y77.538 Z12.000 F350.000
G1 X24.803 Y77.538 Z12.000 F350.000
G1 X22.978 Y79.363 Z12.000 F350.000
G1 X22.529 Y79.363 Z12.000 F350.000
G1 X24.354 Y77.538 Z12.000 F350.000
G1 X23.905 Y77.538 Z12.000 F350.000
G1 X22.080 Y79.363 Z12.000 F350.000
G1 X21.631 Y79.363 Z12.000 F350.000
G1 X23.456 Y77.538 Z12.000 F350.000
G1 X23.007 Y77.538 Z12.000 F350.000
G1 X21.182 Y79.363 Z12.000 F350.000
G1 X20.733 Y79.363 Z12.000 F350.000
G1 X22.558 Y77.538 Z12.000 F350.000
G1 X22.109 Y77.538 Z12.000 F350.000
G1 X20.284 Y79.363 Z12.000 F350.000
G1 X19.835 Y79.363 Z12.000 F350.000
G1 X21.660 Y77.538 Z12.000 F350.000
G1 X21.211 Y77.538 Z12.000 F350.000
G1 X19.386 Y79.363 Z12.000 F350.000
G1 X18.937 Y79.363 Z12.000 F350.000
G1 X20.762 Y77.538 Z12.000 F350.000
G1 X20.313 Y77.538 Z12.000 F350.000
G1 X18.488 Y79.363 Z12.000 F350.000
G1 X18.039 Y79.363 Z12.000 F350.000
G1 X19.864 Y77.538 Z12.000 F350.000
G1 X19.415 Y77.538 Z12.000 F350.000
G1 X17.590 Y79.363 Z12.000 F350.000
G1 X17.141 Y79.363 Z12.000 F350.000
G1 X18.966 Y77.538 Z12.000 F350.000
G1 X18.517 Y77.538 Z12.000 F350.000
G1 X16.692 Y79.363 Z12.000 F350.000
G1 X16.243 Y79.363 Z12.000 F350.000
G1 X18.068 Y77.538 Z12.000 F350.000
G1 X17.619 Y77.538 Z12.000 F350.000
G1 X15.794 Y79.363 Z12.000 F350.000
G1 X15.345 Y79.363 Z12.000 F350.000
G1 X17.170 Y77.538 Z12.000 F350.000
G1 X16.721 Y77.538 Z12.000 F350.000
G1 X14.896 Y79.363 Z12.000 F350.000
G1 X14.447 Y79.363 Z12.000 F350.000
G1 X16.272 Y77.538 Z12.000 F350.000
G1 X15.823 Y77.538 Z12.000 F350.000
G1 X13.998 Y79.363 Z12.000 F350.000
G1 X13.549 Y79.363 Z12.000 F350.000
G1 X15.374 Y77.538 Z12.000 F350.000
G1 X14.925 Y77.538 Z12.000 F350.000
G1 X13.100 Y79.363 Z12.000 F350.000
G1 X12.651 Y79.363 Z12.000 F350.000
G1 X14.476 Y77.538 Z12.000 F350.000
G1 X14.027 Y77.538 Z12.000 F350.000
G1 X12.202 Y79.363 Z12.000 F350.000
G1 X11.753 Y79.363 Z12.000 F350.000
G1 X13.578 Y77.538 Z12.000 F350.000
G1 X13.129 Y77.538 Z12.000 F350.000
G1 X11.304 Y79.363 Z12.000 F350.000
G1 X10.855 Y79.363 Z12.000 F350.000
G1 X12.680 Y77.538 Z12.000 F350.000
G1 X12.231 Y77.538 Z12.000 F350.000
G1 X10.406 Y79.363 Z12.000 F350.000
G1 X9.957 Y79.363 Z12.000 F350.000
G1 X11.782 Y77.538 Z12.000 F350.000
G3 X11.343 Y77.527 Z12.000 I-0.174 J-1.953 F350.000
G1 X9.508 Y79.363 Z12.000 F350.000
G1 X9.059 Y79.363 Z12.000 F350.000
G1 X10.964 Y77.457 Z12.000 F350.000
G3 X10.651 Y77.321 Z12.000 I0.141 J-0.754 F350.000
G1 X8.610 Y79.363 Z12.000 F350.000
G1 X8.161 Y79.363 Z12.000 F350.000
G1 X10.388 Y77.136 Z12.000 F350.000
G3 X10.170 Y76.904 Z12.000 I0.397 J-0.593 F350.000
G1 X7.712 Y79.363 Z12.000 F350.000
G1 X7.263 Y79.363 Z12.000 F350.000
G1 X9.999 Y76.627 Z12.000 F350.000
G3 X9.884 Y76.292 Z12.000 I0.676 J-0.418 F350.000
G1 X6.814 Y79.363 Z12.000 F350.000
G1 X6.365 Y79.363 Z12.000 F350.000
G1 X9.846 Y75.882 Z12.000 F350.000
G1 X9.846 Y75.433 Z12.000 F350.000
G1 X5.916 Y79.363 Z12.000 F350.000
G1 X5.467 Y79.363 Z12.000 F350.000
G1 X9.846 Y74.984 Z12.000 F350.000
G1 X9.846 Y74.535 Z12.000 F350.000
G1 X5.018 Y79.363 Z12.000 F350.000
G1 X4.569 Y79.363 Z12.000 F350.000
G1 X9.846 Y74.085 Z12.000 F350.000
G1 X9.846 Y73.636 Z12.000 F350.000
G1 X4.120 Y79.363 Z12.000 F350.000
G1 X3.671 Y79.363 Z12.000 F350.000
G1 X9.846 Y73.187 Z12.000 F350.000
G1 X9.846 Y72.738 Z12.000 F350.000
G1 X3.222 Y79.363 Z12.000 F350.000
G1 X2.773 Y79.363 Z12.000 F350.000
G1 X9.846 Y72.289 Z12.000 F350.000
G1 X9.846 Y71.840 Z12.000 F350.000
G1 X2.324 Y79.363 Z12.000 F350.000
G1 X1.875 Y79.363 Z12.000 F350.000
G1 X9.846 Y71.391 Z12.000 F350.000
G1 X9.846 Y70.942 Z12.000 F350.000
G1 X1.426 Y79.363 Z12.000 F350.000
G1 X0.977 Y79.363 Z12.000 F350.000
G1 X9.802 Y70.537 Z12.000 F350.000
G1 X9.353 Y70.537 Z12.000 F350.000
G1 X0.528 Y79.363 Z12.000 F350.000
G1 X0.079 Y79.363 Z12.000 F350.000
G1 X8.904 Y70.537 Z12.000 F350.000
G1 X8.455 Y70.537 Z12.000 F350.000
G1 X-0.370 Y79.363 Z12.000 F350.000
G1 X-0.819 Y79.363 Z12.000 F350.000
G1 X8.006 Y70.537 Z12.000 F350.000
G1 X7.557 Y70.537 Z12.000 F350.000
G1 X-1.268 Y79.363 Z12.000 F350.000
G1 X-1.717 Y79.363 Z12.000 F350.000
G1 X7.108 Y70.537 Z12.000 F350.000
G1 X6.659 Y70.537 Z12.000 F350.000
G1 X-2.166 Y79.363 Z12.000 F350.000
G1 X-2.615 Y79.363 Z12.000 F350.000
G1 X6.210 Y70.537 Z12.000 F350.000
G1 X5.761 Y70.537 Z12.000 F350.000
G1 X-3.064 Y79.363 Z12.000 F350.000
G1 X-3.513 Y79.363 Z12.000 F350.000
G1 X5.312 Y70.537 Z12.000 F350.000
G1 X4.863 Y70.537 Z12.000 F350.000
G1 X-3.962 Y79.363 Z12.000 F350.000
G1 X-4.411 Y79.363 Z12.000 F350.000
G1 X4.414 Y70.537 Z12.000 F350.000
G1 X3.965 Y70.537 Z12.000 F350.000
G1 X-4.860 Y79.363 Z12.000 F350.000
G1 X-5.309 Y79.363 Z12.000 F350.000
G1 X3.516 Y70.537 Z12.000 F350.000
G1 X3.067 Y70.537 Z12.000 F350.000
G1 X-5.758 Y79.363 Z12.000 F350.000
G1 X-6.207 Y79.363 Z12.000 F350.000
G1 X2.618 Y70.537 Z12.000 F350.000
G1 X2.169 Y70.537 Z12.000 F350.000
G1 X-6.656 Y79.363 Z12.000 F350.000
G1 X-7.106 Y79.363 Z12.000 F350.000
G1 X1.719 Y70.537 Z12.000 F350.000
G1 X1.270 Y70.537 Z12.000 F350.000
G1 X-7.555 Y79.363 Z12.000 F350.000
G1 X-8.004 Y79.363 Z12.000 F350.000
G1 X0.821 Y70.537 Z12.000 F350.000
G1 X0.372 Y70.537 Z12.000 F350.000
G1 X-8.453 Y79.363 Z12.000 F350.000
G1 X-8.902 Y79.363 Z12.000 F350.000
G1 X-0.077 Y70.538 Z12.000 F350.000
G1 X-0.526 Y70.538 Z12.000 F350.000
G1 X-9.351 Y79.363 Z12.000 F350.000
G1 X-9.800 Y79.363 Z12.000 F350.000
G1 X-0.975 Y70.538 Z12.000 F350.000
G1 X-1.424 Y70.538 Z12.000 F350.000
G1 X-10.249 Y79.363 Z12.000 F350.000
G1 X-10.698 Y79.363 Z12.000 F350.000
G1 X-1.873 Y70.538 Z12.000 F350.000
G1 X-2.322 Y70.538 Z12.000 F350.000
G1 X-11.147 Y79.363 Z12.000 F350.000
G1 X-11.596 Y79.363 Z12.000 F350.000
G1 X-2.771 Y70.538 Z12.000 F350.000
G1 X-3.220 Y70.538 Z12.000 F350.000
G1 X-12.045 Y79.363 Z12.000 F350.000
G1 X-12.494 Y79.363 Z12.000 F350.000
G1 X-3.669 Y70.538 Z12.000 F350.000
G1 X-4.118 Y70.538 Z12.000 F350.000
G1 X-9.887 Y76.307 Z12.000 F350.000
G2 X-9.846 Y75.817 Z12.000 I-2.111 J-0.423 F350.000
G1 X-4.567 Y70.538 Z12.000 F350.000
G1 X-5.016 Y70.538 Z12.000 F350.000
G1 X-9.846 Y75.368 Z12.000 F350.000
G1 X-9.846 Y74.919 Z12.000 F350.000
G1 X-5.465 Y70.538 Z12.000 F350.000
G1 X-5.914 Y70.538 Z12.000 F350.000
G1 X-9.846 Y74.470 Z12.000 F350.000
G1 X-9.846 Y74.021 Z12.000 F350.000
G1 X-6.363 Y70.538 Z12.000 F350.000
G1 X-6.812 Y70.538 Z12.000 F350.000
G1 X-9.846 Y73.572 Z12.000 F350.000
G1 X-9.846 Y73.123 Z12.000 F350.000
G1 X-7.261 Y70.538 Z12.000 F350.000
G1 X-7.710 Y70.538 Z12.000 F350.000
G1 X-9.846 Y72.674 Z12.000 F350.000
G1 X-9.846 Y72.225 Z12.000 F350.000
G1 X-8.159 Y70.538 Z12.000 F350.000
G1 X-8.608 Y70.538 Z12.000 F350.000
G1 X-9.846 Y71.776 Z12.000 F350.000
G1 X-9.846 Y71.327 Z12.000 F350.000
G1 X-9.057 Y70.538 Z12.000 F350.000
G1 X-9.506 Y70.538 Z12.000 F350.000
G1 X-9.846 Y70.878 Z12.000 F350.000
G1 X-9.846 Y70.538 Z12.000 F350.000
G1 X-9.506 Y70.538 Z12.000 F350.000
G0 Z23.000
G0 X-11.077 Y77.497 Z23.000
G0 X-11.077 Y77.497 Z21.000
G1 X-11.077 Y77.497 Z12.000 F150.000
G1 X-12.943 Y79.363 Z12.000 F350.000
G1 X-13.392 Y79.363 Z12.000 F350.000
G1 X-11.567 Y77.538 Z12.000 F350.000
G1 X-12.016 Y77.538 Z12.000 F350.000
G1 X-13.841 Y79.363 Z12.000 F350.000
G1 X-14.290 Y79.363 Z12.000 F350.000
G1 X-12.465 Y77.538 Z12.000 F350.000
G1 X-12.914 Y77.538 Z12.000 F350.000
G1 X-14.739 Y79.363 Z12.000 F350.000
G1 X-15.188 Y79.363 Z12.000 F350.000
G1 X-13.363 Y77.538 Z12.000 F350.000
G1 X-13.812 Y77.538 Z12.000 F350.000
G1 X-15.637 Y79.363 Z12.000 F350.000
G1 X-16.086 Y79.363 Z12.000 F350.000
G1 X-14.261 Y77.538 Z12.000 F350.000
G1 X-14.710 Y77.538 Z12.000 F350.000
G1 X-16.535 Y79.363 Z12.000 F350.000
G1 X-16.984 Y79.363 Z12.000 F350.000
G1 X-15.159 Y77.538 Z12.000 F350.000
G1 X-15.608 Y77.538 Z12.000 F350.000
G1 X-17.433 Y79.363 Z12.000 F350.000
G1 X-17.882 Y79.363 Z12.000 F350.000
G1 X-16.057 Y77.538 Z12.000 F350.000
G1 X-16.506 Y77.538 Z12.000 F350.000
G1 X-18.331 Y79.363 Z12.000 F350.000
G1 X-18.780 Y79.363 Z12.000 F350.000
G1 X-16.955 Y77.538 Z12.000 F350.000
G1 X-17.404 Y77.538 Z12.000 F350.000
G1 X-19.229 Y79.363 Z12.000 F350.000
G1 X-19.678 Y79.363 Z12.000 F350.000
G1 X-17.853 Y77.538 Z12.000 F350.000
G1 X-18.302 Y77.538 Z12.000 F350.000
G1 X-20.127 Y79.363 Z12.000 F350.000
G1 X-20.576 Y79.363 Z12.000 F350.000
G1 X-18.751 Y77.538 Z12.000 F350.000
G1 X-19.200 Y77.538 Z12.000 F350.000
G1 X-21.025 Y79.363 Z12.000 F350.000
G1 X-21.474 Y79.363 Z12.000 F350.000
G1 X-19.649 Y77.538 Z12.000 F350.000
G1 X-20.098 Y77.538 Z12.000 F350.000
G1 X-21.923 Y79.363 Z12.000 F350.000
G1 X-22.372 Y79.363 Z12.000 F350.000
G1 X-20.547 Y77.538 Z12.000 F350.000
G1 X-20.996 Y77.538 Z12.000 F350.000
G1 X-22.821 Y79.363 Z12.000 F350.000
G1 X-23.270 Y79.363 Z12.000 F350.000
G1 X-21.445 Y77.538 Z12.000 F350.000
G1 X-21.894 Y77.538 Z12.000 F350.000
G1 X-23.719 Y79.363 Z12.000 F350.000
G1 X-24.168 Y79.363 Z12.000 F350.000
G1 X-22.343 Y77.538 Z12.000 F350.000
G1 X-22.792 Y77.538 Z12.000 F350.000
G1 X-24.617 Y79.363 Z12.000 F350.000
G1 X-25.066 Y79.363 Z12.000 F350.000
G1 X-23.241 Y77.538 Z12.000 F350.000
G1 X-23.690 Y77.538 Z12.000 F350.000
G1 X-25.515 Y79.363 Z12.000 F350.000
G1 X-25.964 Y79.363 Z12.000 F350.000
G1 X-24.139 Y77.538 Z12.000 F350.000
G1 X-24.588 Y77.538 Z12.000 F350.000
G1 X-26.413 Y79.363 Z12.000 F350.000
G1 X-26.862 Y79.363 Z12.000 F350.000
G1 X-25.037 Y77.538 Z12.000 F350.000
G1 X-25.486 Y77.538 Z12.000 F350.000
G1 X-27.311 Y79.363 Z12.000 F350.000
G1 X-27.760 Y79.363 Z12.000 F350.000
G1 X-25.935 Y77.538 Z12.000 F350.000
G1 X-26.384 Y77.538 Z12.000 F350.000
G1 X-28.209 Y79.363 Z12.000 F350.000
G1 X-28.658 Y79.363 Z12.000 F350.000
G1 X-26.833 Y77.538 Z12.000 F350.000
G3 X-27.267 Y77.522 Z12.000 I-0.150 J-1.933 F350.000
G1 X-29.107 Y79.363 Z12.000 F350.000
G1 X-29.556 Y79.363 Z12.000 F350.000
G1 X-27.638 Y77.445 Z12.000 F350.000
G3 X-27.945 Y77.303 Z12.000 I0.157 J-0.744 F350.000
G1 X-30.005 Y79.363 Z12.000 F350.000
G1 X-30.454 Y79.363 Z12.000 F350.000
G1 X-28.203 Y77.111 Z12.000 F350.000
G3 X-28.415 Y76.875 Z12.000 I0.412 J-0.584 F350.000
G1 X-30.903 Y79.363 Z12.000 F350.000
G1 X-31.352 Y79.363 Z12.000 F350.000
G1 X-28.580 Y76.591 Z12.000 F350.000
G3 X-28.687 Y76.248 Z12.000 I0.696 J-0.405 F350.000
G1 X-31.801 Y79.363 Z12.000 F350.000
G1 X-32.250 Y79.363 Z12.000 F350.000
G1 X-28.721 Y75.833 Z12.000 F350.000
G1 X-28.721 Y75.384 Z12.000 F350.000
G1 X-32.699 Y79.363 Z12.000 F350.000
G1 X-33.148 Y79.363 Z12.000 F350.000
G1 X-28.721 Y74.935 Z12.000 F350.000
G1 X-28.721 Y74.486 Z12.000 F350.000
G1 X-33.597 Y79.363 Z12.000 F350.000
G1 X-34.046 Y79.363 Z12.000 F350.000
G1 X-28.721 Y74.037 Z12.000 F350.000
G1 X-28.721 Y73.588 Z12.000 F350.000
G1 X-34.495 Y79.363 Z12.000 F350.000
G1 X-34.944 Y79.363 Z12.000 F350.000
G1 X-28.721 Y73.139 Z12.000 F350.000
G1 X-28.721 Y72.690 Z12.000 F350.000
G1 X-35.393 Y79.363 Z12.000 F350.000
G1 X-35.842 Y79.363 Z12.000 F350.000
G1 X-28.721 Y72.241 Z12.000 F350.000
G1 X-28.721 Y71.792 Z12.000 F350.000
G1 X-36.291 Y79.363 Z12.000 F350.000
G1 X-36.740 Y79.363 Z12.000 F350.000
G1 X-28.721 Y71.343 Z12.000 F350.000
G1 X-28.721 Y70.894 Z12.000 F350.000
G1 X-37.189 Y79.363 Z12.000 F350.000
G1 X-37.638 Y79.363 Z12.000 F350.000
G1 X-28.813 Y70.538 Z12.000 F350.000
G1 X-29.262 Y70.538 Z12.000 F350.000
G1 X-38.087 Y79.363 Z12.000 F350.000
G1 X-38.536 Y79.363 Z12.000 F350.000
G1 X-29.711 Y70.538 Z12.000 F350.000
G1 X-30.160 Y70.538 Z12.000 F350.000
G1 X-38.985 Y79.363 Z12.000 F350.000
G1 X-39.434 Y79.363 Z12.000 F350.000
G1 X-30.609 Y70.538 Z12.000 F350.000
G1 X-31.058 Y70.538 Z12.000 F350.000
G1 X-39.883 Y79.363 Z12.000 F350.000
G1 X-40.332 Y79.363 Z12.000 F350.000
G1 X-31.507 Y70.538 Z12.000 F350.000
G1 X-31.956 Y70.538 Z12.000 F350.000
G1 X-40.781 Y79.363 Z12.000 F350.000
G1 X-41.230 Y79.363 Z12.000 F350.000
G1 X-32.405 Y70.538 Z12.000 F350.000
G1 X-32.854 Y70.538 Z12.000 F350.000
G1 X-41.679 Y79.363 Z12.000 F350.000
G1 X-42.129 Y79.363 Z12.000 F350.000
G1 X-33.304 Y70.538 Z12.000 F350.000
G1 X-33.753 Y70.538 Z12.000 F350.000
G1 X-42.578 Y79.363 Z12.000 F350.000
G1 X-43.027 Y79.363 Z12.000 F350.000
G1 X-34.202 Y70.538 Z12.000 F350.000
G1 X-34.651 Y70.538 Z12.000 F350.000
G1 X-43.476 Y79.363 Z12.000 F350.000
G1 X-43.925 Y79.363 Z12.000 F350.000
G1 X-35.100 Y70.538 Z12.000 F350.000
G1 X-35.549 Y70.538 Z12.000 F350.000
G1 X-44.374 Y79.363 Z12.000 F350.000
G1 X-44.823 Y79.363 Z12.000 F350.000
G1 X-35.998 Y70.538 Z12.000 F350.000
G1 X-36.447 Y70.538 Z12.000 F350.000
G1 X-45.272 Y79.363 Z12.000 F350.000
G1 X-45.721 Y79.363 Z12.000 F350.000
G1 X-36.896 Y70.538 Z12.000 F350.000
G1 X-37.345 Y70.538 Z12.000 F350.000
G1 X-46.170 Y79.363 Z12.000 F350.000
G1 X-46.619 Y79.363 Z12.000 F350.000
G1 X-37.794 Y70.538 Z12.000 F350.000
G1 X-38.243 Y70.538 Z12.000 F350.000
G1 X-47.068 Y79.363 Z12.000 F350.000
G1 X-47.517 Y79.363 Z12.000 F350.000
G1 X-38.692 Y70.537 Z12.000 F350.000
G1 X-39.141 Y70.537 Z12.000 F350.000
G1 X-47.966 Y79.363 Z12.000 F350.000
G1 X-48.415 Y79.363 Z12.000 F350.000
G1 X-39.590 Y70.537 Z12.000 F350.000
G1 X-40.039 Y70.537 Z12.000 F350.000
G1 X-48.864 Y79.363 Z12.000 F350.000
G1 X-49.313 Y79.363 Z12.000 F350.000
G1 X-40.488 Y70.537 Z12.000 F350.000
G1 X-40.937 Y70.537 Z12.000 F350.000
G1 X-49.762 Y79.363 Z12.000 F350.000
G1 X-50.211 Y79.363 Z12.000 F350.000
G1 X-41.386 Y70.537 Z12.000 F350.000
G1 X-41.835 Y70.537 Z12.000 F350.000
G1 X-50.660 Y79.363 Z12.000 F350.000
G1 X-51.109 Y79.363 Z12.000 F350.000
G1 X-42.284 Y70.537 Z12.000 F350.000
G1 X-42.733 Y70.537 Z12.000 F350.000
G1 X-48.446 Y76.251 Z12.000 F350.000
G2 X-48.412 Y75.768 Z12.000 I-2.126 J-0.392 F350.000
G1 X-43.182 Y70.537 Z12.000 F350.000
G1 X-43.631 Y70.537 Z12.000 F350.000
G1 X-48.412 Y75.319 Z12.000 F350.000
G1 X-48.412 Y74.870 Z12.000 F350.000
G1 X-44.080 Y70.537 Z12.000 F350.000
G1 X-44.529 Y70.537 Z12.000 F350.000
G1 X-48.412 Y74.421 Z12.000 F350.000
G1 X-48.412 Y73.972 Z12.000 F350.000
G1 X-44.978 Y70.537 Z12.000 F350.000
G1 X-45.427 Y70.537 Z12.000 F350.000
G1 X-48.412 Y73.523 Z12.000 F350.000
G1 X-48.412 Y73.074 Z12.000 F350.000
G1 X-45.876 Y70.537 Z12.000 F350.000
G1 X-46.325 Y70.537 Z12.000 F350.000
G1 X-48.412 Y72.625 Z12.000 F350.000
G1 X-48.412 Y72.176 Z12.000 F350.000
G1 X-46.774 Y70.537 Z12.000 F350.000
G1 X-47.223 Y70.537 Z12.000 F350.000
G1 X-48.412 Y71.727 Z12.000 F350.000
G1 X-48.412 Y71.278 Z12.000 F350.000
G1 X-47.672 Y70.537 Z12.000 F350.000
G1 X-48.121 Y70.537 Z12.000 F350.000
G1 X-48.412 Y70.829 Z12.000 F350.000
G1 X-48.412 Y70.537 Z12.000 F350.000
G1 X-48.121 Y70.537 Z12.000 F350.000
G0 Z23.000
G0 X-49.699 Y77.504 Z23.000
G0 X-49.699 Y77.504 Z21.000
G1 X-49.699 Y77.504 Z12.000 F150.000
G1 X-51.558 Y79.363 Z12.000 F350.000
G1 X-52.007 Y79.363 Z12.000 F350.000
G1 X-50.182 Y77.538 Z12.000 F350.000
G1 X-50.631 Y77.538 Z12.000 F350.000
G1 X-52.456 Y79.363 Z12.000 F350.000
G1 X-52.905 Y79.363 Z12.000 F350.000
G1 X-51.080 Y77.538 Z12.000 F350.000
G1 X-51.529 Y77.538 Z12.000 F350.000
G1 X-53.354 Y79.363 Z12.000 F350.000
G1 X-53.803 Y79.363 Z12.000 F350.000
G1 X-51.978 Y77.538 Z12.000 F350.000
G1 X-52.427 Y77.538 Z12.000 F350.000
G1 X-54.252 Y79.363 Z12.000 F350.000
G1 X-54.701 Y79.363 Z12.000 F350.000
G1 X-52.876 Y77.538 Z12.000 F350.000
G1 X-53.325 Y77.538 Z12.000 F350.000
G1 X-55.150 Y79.363 Z12.000 F350.000
G1 X-55.599 Y79.363 Z12.000 F350.000
G1 X-53.774 Y77.538 Z12.000 F350.000
G1 X-54.223 Y77.538 Z12.000 F350.000
G1 X-56.048 Y79.363 Z12.000 F350.000
G1 X-56.497 Y79.363 Z12.000 F350.000
G1 X-54.672 Y77.538 Z12.000 F350.000
G1 X-55.121 Y77.538 Z12.000 F350.000
G1 X-56.946 Y79.363 Z12.000 F350.000
G1 X-57.395 Y79.363 Z12.000 F350.000
G1 X-55.570 Y77.538 Z12.000 F350.000
G1 X-56.019 Y77.538 Z12.000 F350.000
G1 X-57.844 Y79.363 Z12.000 F350.000
G1 X-58.293 Y79.363 Z12.000 F350.000
G1 X-56.468 Y77.538 Z12.000 F350.000
G1 X-56.917 Y77.538 Z12.000 F350.000
G1 X-58.742 Y79.363 Z12.000 F350.000
G1 X-59.191 Y79.363 Z12.000 F350.000
G1 X-57.366 Y77.538 Z12.000 F350.000
G1 X-57.815 Y77.538 Z12.000 F350.000
G1 X-59.640 Y79.363 Z12.000 F350.000
G1 X-60.089 Y79.363 Z12.000 F350.000
G1 X-58.264 Y77.538 Z12.000 F350.000
G1 X-58.713 Y77.538 Z12.000 F350.000
G1 X-60.538 Y79.363 Z12.000 F350.000
G1 X-60.987 Y79.363 Z12.000 F350.000
G1 X-59.162 Y77.538 Z12.000 F350.000
G1 X-59.611 Y77.538 Z12.000 F350.000
G1 X-61.436 Y79.363 Z12.000 F350.000
G1 X-61.885 Y79.363 Z12.000 F350.000
G1 X-60.060 Y77.538 Z12.000 F350.000
G1 X-60.509 Y77.538 Z12.000 F350.000
G1 X-62.334 Y79.363 Z12.000 F350.000
G1 X-62.783 Y79.363 Z12.000 F350.000
G1 X-60.958 Y77.538 Z12.000 F350.000
G1 X-61.407 Y77.538 Z12.000 F350.000
G1 X-63.232 Y79.363 Z12.000 F350.000
G1 X-63.681 Y79.363 Z12.000 F350.000
G1 X-61.856 Y77.538 Z12.000 F350.000
G1 X-62.305 Y77.538 Z12.000 F350.000
G1 X-64.112 Y79.345 Z12.000 F350.000
G1 X-64.112 Y78.896 Z12.000 F350.000
G1 X-62.754 Y77.538 Z12.000 F350.000
G1 X-63.203 Y77.538 Z12.000 F350.000
G1 X-64.112 Y78.447 Z12.000 F350.000
G1 X-64.112 Y77.998 Z12.000 F350.000
G1 X-63.652 Y77.538 Z12.000 F350.000
G1 X-64.101 Y77.538 Z12.000 F350.000
G1 X-64.112 Y77.549 Z12.000 F350.000
G3 X-64.101 Y77.538 Z12.000 I0.006 J-0.006 F350.000
G0 Z23.000
G0 Z23.000
(finish operation: Pocket_Shape001)
(begin operation: Pocket_Shape009)
(machine: not set, mm/min)
(Pocket_Shape009)
G0 Z23.000
G0 X51.588 Y74.116
G0 Z21.000
G1 X51.588 Y74.116 Z10.000 F150.000
G1 X51.834 Y74.362 Z10.000 F350.000
G1 X51.588 Y74.362 Z10.000 F350.000
G1 X51.588 Y74.116 Z10.000 F350.000
G1 X51.588 Y73.667 Z10.000 F350.000
G1 X52.283 Y74.362 Z10.000 F350.000
G1 X52.732 Y74.362 Z10.000 F350.000
G1 X51.588 Y73.218 Z10.000 F350.000
G1 X51.588 Y72.769 Z10.000 F350.000
G1 X53.181 Y74.362 Z10.000 F350.000
G1 X53.630 Y74.362 Z10.000 F350.000
G1 X51.588 Y72.320 Z10.000 F350.000
G1 X51.588 Y71.871 Z10.000 F350.000
G1 X54.079 Y74.362 Z10.000 F350.000
G1 X54.528 Y74.362 Z10.000 F350.000
G1 X51.588 Y71.422 Z10.000 F350.000
G1 X51.588 Y70.973 Z10.000 F350.000
G1 X54.977 Y74.362 Z10.000 F350.000
G1 X55.426 Y74.362 Z10.000 F350.000
G1 X51.588 Y70.524 Z10.000 F350.000
G1 X51.588 Y70.075 Z10.000 F350.000
G1 X55.875 Y74.362 Z10.000 F350.000
G1 X56.324 Y74.362 Z10.000 F350.000
G1 X51.588 Y69.626 Z10.000 F350.000
G1 X51.588 Y69.177 Z10.000 F350.000
G1 X56.773 Y74.362 Z10.000 F350.000
G1 X57.222 Y74.362 Z10.000 F350.000
G1 X51.588 Y68.728 Z10.000 F350.000
G1 X51.588 Y68.279 Z10.000 F350.000
G1 X57.671 Y74.362 Z10.000 F350.000
G1 X58.120 Y74.362 Z10.000 F350.000
G1 X51.588 Y67.830 Z10.000 F350.000
G1 X51.588 Y67.381 Z10.000 F350.000
G1 X58.569 Y74.362 Z10.000 F350.000
G1 X59.018 Y74.362 Z10.000 F350.000
G1 X51.588 Y66.932 Z10.000 F350.000
G1 X51.588 Y66.483 Z10.000 F350.000
G1 X59.467 Y74.362 Z10.000 F350.000
G1 X59.916 Y74.362 Z10.000 F350.000
G1 X51.588 Y66.034 Z10.000 F350.000
G1 X51.588 Y65.585 Z10.000 F350.000
G1 X60.365 Y74.362 Z10.000 F350.000
G1 X60.814 Y74.362 Z10.000 F350.000
G1 X51.588 Y65.136 Z10.000 F350.000
G1 X51.588 Y64.687 Z10.000 F350.000
G1 X61.263 Y74.362 Z10.000 F350.000
G1 X61.712 Y74.362 Z10.000 F350.000
G1 X51.588 Y64.238 Z10.000 F350.000
G1 X51.588 Y63.789 Z10.000 F350.000
G1 X62.161 Y74.362 Z10.000 F350.000
G1 X62.610 Y74.362 Z10.000 F350.000
G1 X51.588 Y63.340 Z10.000 F350.000
G1 X51.588 Y62.891 Z10.000 F350.000
G1 X63.059 Y74.362 Z10.000 F350.000
G1 X63.508 Y74.362 Z10.000 F350.000
G1 X51.588 Y62.442 Z10.000 F350.000
G1 X51.588 Y61.993 Z10.000 F350.000
G1 X63.957 Y74.362 Z10.000 F350.000
G1 X64.112 Y74.362 Z10.000 F350.000
G1 X64.112 Y74.069 Z10.000 F350.000
G1 X51.588 Y61.544 Z10.000 F350.000
G1 X51.588 Y61.095 Z10.000 F350.000
G1 X64.112 Y73.620 Z10.000 F350.000
G1 X64.112 Y73.171 Z10.000 F350.000
G1 X51.588 Y60.646 Z10.000 F350.000
G1 X51.588 Y60.197 Z10.000 F350.000
G1 X64.112 Y72.722 Z10.000 F350.000
G1 X64.112 Y72.273 Z10.000 F350.000
G1 X51.588 Y59.748 Z10.000 F350.000
G1 X51.588 Y59.299 Z10.000 F350.000
G1 X64.112 Y71.824 Z10.000 F350.000
G1 X64.112 Y71.375 Z10.000 F350.000
G1 X51.588 Y58.850 Z10.000 F350.000
G1 X51.588 Y58.401 Z10.000 F350.000
G1 X64.112 Y70.926 Z10.000 F350.000
G1 X64.112 Y70.477 Z10.000 F350.000
G1 X51.588 Y57.952 Z10.000 F350.000
G1 X51.588 Y57.503 Z10.000 F350.000
G1 X64.112 Y70.028 Z10.000 F350.000
G1 X64.112 Y69.579 Z10.000 F350.000
G1 X51.588 Y57.054 Z10.000 F350.000
G1 X51.588 Y56.605 Z10.000 F350.000
G1 X64.112 Y69.130 Z10.000 F350.000
G1 X64.112 Y68.681 Z10.000 F350.000
G1 X51.588 Y56.156 Z10.000 F350.000
G1 X51.588 Y55.707 Z10.000 F350.000
G1 X64.112 Y68.232 Z10.000 F350.000
G1 X64.112 Y67.783 Z10.000 F350.000
G1 X51.588 Y55.258 Z10.000 F350.000
G1 X51.588 Y54.809 Z10.000 F350.000
G1 X64.112 Y67.334 Z10.000 F350.000
G1 X64.112 Y66.885 Z10.000 F350.000
G1 X51.588 Y54.360 Z10.000 F350.000
G1 X51.588 Y53.911 Z10.000 F350.000
G1 X64.112 Y66.436 Z10.000 F350.000
G1 X64.112 Y65.987 Z10.000 F350.000
G1 X51.588 Y53.462 Z10.000 F350.000
G1 X51.588 Y53.013 Z10.000 F350.000
G1 X64.112 Y65.538 Z10.000 F350.000
G1 X64.112 Y65.089 Z10.000 F350.000
G1 X51.588 Y52.564 Z10.000 F350.000
G1 X51.588 Y52.115 Z10.000 F350.000
G1 X64.112 Y64.640 Z10.000 F350.000
G1 X64.112 Y64.191 Z10.000 F350.000
G1 X51.588 Y51.666 Z10.000 F350.000
G1 X51.588 Y51.217 Z10.000 F350.000
G1 X64.112 Y63.742 Z10.000 F350.000
G1 X64.112 Y63.293 Z10.000 F350.000
G1 X51.588 Y50.768 Z10.000 F350.000
G1 X51.588 Y50.319 Z10.000 F350.000
G1 X64.112 Y62.844 Z10.000 F350.000
G1 X64.112 Y62.395 Z10.000 F350.000
G1 X51.588 Y49.870 Z10.000 F350.000
G1 X51.588 Y49.421 Z10.000 F350.000
G1 X64.112 Y61.946 Z10.000 F350.000
G1 X64.112 Y61.497 Z10.000 F350.000
G1 X51.588 Y48.972 Z10.000 F350.000
G1 X51.588 Y48.523 Z10.000 F350.000
G1 X64.112 Y61.048 Z10.000 F350.000
G1 X64.112 Y60.599 Z10.000 F350.000
G1 X51.588 Y48.074 Z10.000 F350.000
G1 X51.588 Y47.625 Z10.000 F350.000
G1 X64.112 Y60.150 Z10.000 F350.000
G1 X64.112 Y59.701 Z10.000 F350.000
G1 X51.588 Y47.176 Z10.000 F350.000
G1 X51.588 Y46.727 Z10.000 F350.000
G1 X64.112 Y59.252 Z10.000 F350.000
G1 X64.112 Y58.803 Z10.000 F350.000
G1 X51.588 Y46.278 Z10.000 F350.000
G1 X51.588 Y45.829 Z10.000 F350.000
G1 X64.112 Y58.354 Z10.000 F350.000
G1 X64.112 Y57.905 Z10.000 F350.000
G1 X51.588 Y45.380 Z10.000 F350.000
G1 X51.588 Y44.931 Z10.000 F350.000
G1 X64.112 Y57.456 Z10.000 F350.000
G1 X64.112 Y57.007 Z10.000 F350.000
G1 X51.588 Y44.482 Z10.000 F350.000
G1 X51.588 Y44.033 Z10.000 F350.000
G1 X64.112 Y56.558 Z10.000 F350.000
G1 X64.112 Y56.109 Z10.000 F350.000
G1 X51.588 Y43.584 Z10.000 F350.000
G1 X51.588 Y43.135 Z10.000 F350.000
G1 X64.112 Y55.660 Z10.000 F350.000
G1 X64.112 Y55.210 Z10.000 F350.000
G1 X51.588 Y42.685 Z10.000 F350.000
G1 X51.588 Y42.236 Z10.000 F350.000
G1 X64.112 Y54.761 Z10.000 F350.000
G1 X64.112 Y54.312 Z10.000 F350.000
G1 X51.588 Y41.787 Z10.000 F350.000
G1 X51.588 Y41.338 Z10.000 F350.000
G1 X64.112 Y53.863 Z10.000 F350.000
G1 X64.112 Y53.414 Z10.000 F350.000
G1 X51.588 Y40.889 Z10.000 F350.000
G1 X51.588 Y40.440 Z10.000 F350.000
G1 X64.112 Y52.965 Z10.000 F350.000
G1 X64.112 Y52.516 Z10.000 F350.000
G1 X51.588 Y39.991 Z10.000 F350.000
G1 X51.588 Y39.542 Z10.000 F350.000
G1 X64.112 Y52.067 Z10.000 F350.000
G1 X64.112 Y51.618 Z10.000 F350.000
G1 X51.588 Y39.093 Z10.000 F350.000
G1 X51.588 Y38.644 Z10.000 F350.000
G1 X64.112 Y51.169 Z10.000 F350.000
G1 X64.112 Y50.720 Z10.000 F350.000
G1 X51.588 Y38.195 Z10.000 F350.000
G1 X51.588 Y37.746 Z10.000 F350.000
G1 X64.112 Y50.271 Z10.000 F350.000
G1 X64.112 Y49.822 Z10.000 F350.000
G1 X51.588 Y37.297 Z10.000 F350.000
G1 X51.588 Y36.848 Z10.000 F350.000
G1 X64.112 Y49.373 Z10.000 F350.000
G1 X64.112 Y48.924 Z10.000 F350.000
G1 X51.588 Y36.399 Z10.000 F350.000
G1 X51.588 Y35.950 Z10.000 F350.000
G1 X64.112 Y48.475 Z10.000 F350.000
G1 X64.112 Y48.026 Z10.000 F350.000
G1 X51.588 Y35.501 Z10.000 F350.000
G1 X51.588 Y35.052 Z10.000 F350.000
G1 X64.112 Y47.577 Z10.000 F350.000
G1 X64.112 Y47.128 Z10.000 F350.000
G1 X51.588 Y34.603 Z10.000 F350.000
G1 X51.588 Y34.154 Z10.000 F350.000
G1 X64.112 Y46.679 Z10.000 F350.000
G1 X64.112 Y46.230 Z10.000 F350.000
G1 X51.788 Y33.905 Z10.000 F350.000
G2 X52.031 Y33.700 Z10.000 I-0.328 J-0.636 F350.000
G1 X64.112 Y45.781 Z10.000 F350.000
G1 X64.112 Y45.332 Z10.000 F350.000
G1 X52.229 Y33.449 Z10.000 F350.000
G2 X52.379 Y33.150 Z10.000 I-0.581 J-0.477 F350.000
G1 X64.112 Y44.883 Z10.000 F350.000
G1 X64.112 Y44.434 Z10.000 F350.000
G1 X52.466 Y32.788 Z10.000 F350.000
G2 X52.487 Y32.360 Z10.000 I-1.888 J-0.308 F350.000
G1 X64.112 Y43.985 Z10.000 F350.000
G1 X64.112 Y43.536 Z10.000 F350.000
G1 X52.487 Y31.911 Z10.000 F350.000
G1 X52.487 Y31.462 Z10.000 F350.000
G1 X64.112 Y43.087 Z10.000 F350.000
G1 X64.112 Y42.638 Z10.000 F350.000
G1 X52.487 Y31.013 Z10.000 F350.000
G1 X52.487 Y30.564 Z10.000 F350.000
G1 X64.112 Y42.189 Z10.000 F350.000
G1 X64.112 Y41.740 Z10.000 F350.000
G1 X52.487 Y30.115 Z10.000 F350.000
G1 X52.487 Y29.666 Z10.000 F350.000
G1 X64.112 Y41.291 Z10.000 F350.000
G1 X64.112 Y40.842 Z10.000 F350.000
G1 X52.487 Y29.217 Z10.000 F350.000
G1 X52.487 Y28.768 Z10.000 F350.000
G1 X64.112 Y40.393 Z10.000 F350.000
G1 X64.112 Y39.944 Z10.000 F350.000
G1 X52.487 Y28.319 Z10.000 F350.000
G1 X52.487 Y27.870 Z10.000 F350.000
G1 X64.112 Y39.495 Z10.000 F350.000
G1 X64.112 Y39.046 Z10.000 F350.000
G1 X52.487 Y27.421 Z10.000 F350.000
G1 X52.487 Y26.972 Z10.000 F350.000
G1 X64.112 Y38.597 Z10.000 F350.000
G1 X64.112 Y38.148 Z10.000 F350.000
G1 X52.487 Y26.523 Z10.000 F350.000
G1 X52.487 Y26.074 Z10.000 F350.000
G1 X64.112 Y37.699 Z10.000 F350.000
G1 X64.112 Y37.250 Z10.000 F350.000
G1 X52.487 Y25.625 Z10.000 F350.000
G1 X52.487 Y25.176 Z10.000 F350.000
G1 X64.112 Y36.801 Z10.000 F350.000
G1 X64.112 Y36.352 Z10.000 F350.000
G1 X52.487 Y24.727 Z10.000 F350.000
G1 X52.487 Y24.278 Z10.000 F350.000
G1 X64.112 Y35.903 Z10.000 F350.000
G1 X64.112 Y35.454 Z10.000 F350.000
G1 X52.487 Y23.829 Z10.000 F350.000
G1 X52.487 Y23.380 Z10.000 F350.000
G1 X64.112 Y35.005 Z10.000 F350.000
G1 X64.112 Y34.556 Z10.000 F350.000
G1 X52.487 Y22.931 Z10.000 F350.000
G1 X52.487 Y22.482 Z10.000 F350.000
G1 X63.497 Y33.491 Z10.000 F350.000
G1 X63.559 Y33.590 Z10.000 F350.000
G2 X64.112 Y34.107 Z10.000 I4.295 J-4.044 F350.000
G1 X64.112 Y34.031 Z10.000 F350.000
G3 X63.909 Y33.903 Z10.000 I0.178 J-0.511 F350.000
G0 Z23.000
G0 X63.212 Y19.288 Z23.000
G0 X63.212 Y19.288 Z21.000
G1 X63.212 Y19.288 Z10.000 F150.000
G1 X63.212 Y19.737 Z10.000 F350.000
G1 X62.763 Y19.288 Z10.000 F350.000
G1 X62.314 Y19.288 Z10.000 F350.000
G1 X63.212 Y20.186 Z10.000 F350.000
G1 X63.212 Y20.635 Z10.000 F350.000
G1 X61.865 Y19.288 Z10.000 F350.000
G1 X61.416 Y19.288 Z10.000 F350.000
G1 X63.212 Y21.084 Z10.000 F350.000
G1 X63.212 Y21.533 Z10.000 F350.000
G1 X60.967 Y19.288 Z10.000 F350.000
G1 X60.518 Y19.288 Z10.000 F350.000
G1 X63.212 Y21.982 Z10.000 F350.000
G1 X63.212 Y22.431 Z10.000 F350.000
G1 X60.069 Y19.288 Z10.000 F350.000
G1 X59.620 Y19.288 Z10.000 F350.000
G1 X63.212 Y22.880 Z10.000 F350.000
G1 X63.212 Y23.329 Z10.000 F350.000
G1 X59.171 Y19.288 Z10.000 F350.000
G1 X58.722 Y19.288 Z10.000 F350.000
G1 X63.212 Y23.778 Z10.000 F350.000
G1 X63.212 Y24.227 Z10.000 F350.000
G1 X58.273 Y19.288 Z10.000 F350.000
G1 X57.824 Y19.288 Z10.000 F350.000
G1 X63.212 Y24.676 Z10.000 F350.000
G1 X63.212 Y25.125 Z10.000 F350.000
G1 X57.375 Y19.288 Z10.000 F350.000
G1 X56.926 Y19.288 Z10.000 F350.000
G1 X63.212 Y25.574 Z10.000 F350.000
G1 X63.212 Y26.023 Z10.000 F350.000
G1 X56.477 Y19.288 Z10.000 F350.000
G1 X56.028 Y19.288 Z10.000 F350.000
G1 X63.212 Y26.472 Z10.000 F350.000
G1 X63.212 Y26.921 Z10.000 F350.000
G1 X55.579 Y19.288 Z10.000 F350.000
G1 X55.130 Y19.288 Z10.000 F350.000
G1 X63.212 Y27.370 Z10.000 F350.000
G1 X63.212 Y27.819 Z10.000 F350.000
G1 X54.681 Y19.288 Z10.000 F350.000
G1 X54.232 Y19.288 Z10.000 F350.000
G1 X63.212 Y28.268 Z10.000 F350.000
G1 X63.212 Y28.717 Z10.000 F350.000
G1 X53.783 Y19.288 Z10.000 F350.000
G1 X53.334 Y19.288 Z10.000 F350.000
G1 X63.212 Y29.166 Z10.000 F350.000
G1 X63.212 Y29.615 Z10.000 F350.000
G1 X52.885 Y19.288 Z10.000 F350.000
G1 X52.487 Y19.288 Z10.000 F350.000
G1 X52.487 Y19.339 Z10.000 F350.000
G1 X63.212 Y30.064 Z10.000 F350.000
G1 X63.212 Y30.513 Z10.000 F350.000
G1 X52.487 Y19.788 Z10.000 F350.000
G1 X52.487 Y20.237 Z10.000 F350.000
G1 X63.212 Y30.962 Z10.000 F350.000
G1 X63.212 Y31.411 Z10.000 F350.000
G1 X52.487 Y20.686 Z10.000 F350.000
G1 X52.487 Y21.135 Z10.000 F350.000
G1 X63.212 Y31.860 Z10.000 F350.000
G1 X63.212 Y32.309 Z10.000 F350.000
G1 X52.487 Y21.584 Z10.000 F350.000
G1 X52.487 Y22.033 Z10.000 F350.000
G1 X63.233 Y32.778 Z10.000 F350.000
G2 X63.497 Y33.491 Z10.000 I1.291 J-0.073 F350.000
G1 X52.487 Y22.482 Z10.000 F350.000
G1 X52.487 Y22.482 Z2.300 F150.000
G1 X63.497 Y33.491 Z2.300 F350.000
G3 X63.233 Y32.778 Z2.300 I1.026 J-0.786 F350.000
G1 X52.487 Y22.033 Z2.300 F350.000
G1 X52.487 Y21.584 Z2.300 F350.000
G1 X63.212 Y32.309 Z2.300 F350.000
G1 X63.212 Y31.860 Z2.300 F350.000
G1 X52.487 Y21.135 Z2.300 F350.000
G1 X52.487 Y20.686 Z2.300 F350.000
G1 X63.212 Y31.411 Z2.300 F350.000
G1 X63.212 Y30.962 Z2.300 F350.000
G1 X52.487 Y20.237 Z2.300 F350.000
G1 X52.487 Y19.788 Z2.300 F350.000
G1 X63.212 Y30.513 Z2.300 F350.000
G1 X63.212 Y30.064 Z2.300 F350.000
G1 X52.487 Y19.339 Z2.300 F350.000
G1 X52.487 Y19.288 Z2.300 F350.000
G1 X52.885 Y19.288 Z2.300 F350.000
G1 X63.212 Y29.615 Z2.300 F350.000
G1 X63.212 Y29.166 Z2.300 F350.000
G1 X53.334 Y19.288 Z2.300 F350.000
G1 X53.783 Y19.288 Z2.300 F350.000
G1 X63.212 Y28.717 Z2.300 F350.000
G1 X63.212 Y28.268 Z2.300 F350.000
G1 X54.232 Y19.288 Z2.300 F350.000
G1 X54.681 Y19.288 Z2.300 F350.000
G1 X63.212 Y27.819 Z2.300 F350.000
G1 X63.212 Y27.370 Z2.300 F350.000
G1 X55.130 Y19.288 Z2.300 F350.000
G1 X55.579 Y19.288 Z2.300 F350.000
G1 X63.212 Y26.921 Z2.300 F350.000
G1 X63.212 Y26.472 Z2.300 F350.000
G1 X56.028 Y19.288 Z2.300 F350.000
G1 X56.477 Y19.288 Z2.300 F350.000
G1 X63.212 Y26.023 Z2.300 F350.000
G1 X63.212 Y25.574 Z2.300 F350.000
G1 X56.926 Y19.288 Z2.300 F350.000
G1 X57.375 Y19.288 Z2.300 F350.000
G1 X63.212 Y25.125 Z2.300 F350.000
G1 X63.212 Y24.676 Z2.300 F350.000
G1 X57.824 Y19.288 Z2.300 F350.000
G1 X58.273 Y19.288 Z2.300 F350.000
G1 X63.212 Y24.227 Z2.300 F350.000
G1 X63.212 Y23.778 Z2.300 F350.000
G1 X58.722 Y19.288 Z2.300 F350.000
G1 X59.171 Y19.288 Z2.300 F350.000
G1 X63.212 Y23.329 Z2.300 F350.000
G1 X63.212 Y22.880 Z2.300 F350.000
G1 X59.620 Y19.288 Z2.300 F350.000
G1 X60.069 Y19.288 Z2.300 F350.000
G1 X63.212 Y22.431 Z2.300 F350.000
G1 X63.212 Y21.982 Z2.300 F350.000
G1 X60.518 Y19.288 Z2.300 F350.000
G1 X60.967 Y19.288 Z2.300 F350.000
G1 X63.212 Y21.533 Z2.300 F350.000
G1 X63.212 Y21.084 Z2.300 F350.000
G1 X61.416 Y19.288 Z2.300 F350.000
G1 X61.865 Y19.288 Z2.300 F350.000
G1 X63.212 Y20.635 Z2.300 F350.000
G1 X63.212 Y20.186 Z2.300 F350.000
G1 X62.314 Y19.288 Z2.300 F350.000
G1 X62.763 Y19.288 Z2.300 F350.000
G1 X63.212 Y19.737 Z2.300 F350.000
G1 X63.212 Y19.288 Z2.300 F350.000
G0 Z23.000
G0 X63.909 Y33.903 Z23.000
G0 X63.909 Y33.903 Z21.000
G1 X63.909 Y33.903 Z2.300 F150.000
G2 X64.112 Y34.031 Z2.300 I0.382 J-0.383 F350.000
G1 X64.112 Y34.107 Z2.300 F350.000
G3 X63.559 Y33.590 Z2.300 I3.741 J-4.561 F350.000
G1 X63.497 Y33.491 Z2.300 F350.000
G1 X52.487 Y22.482 Z2.300 F350.000
G1 X52.487 Y22.931 Z2.300 F350.000
G1 X64.112 Y34.556 Z2.300 F350.000
G1 X64.112 Y35.005 Z2.300 F350.000
G1 X52.487 Y23.380 Z2.300 F350.000
G1 X52.487 Y23.829 Z2.300 F350.000
G1 X64.112 Y35.454 Z2.300 F350.000
G1 X64.112 Y35.903 Z2.300 F350.000
G1 X52.487 Y24.278 Z2.300 F350.000
G1 X52.487 Y24.727 Z2.300 F350.000
G1 X64.112 Y36.352 Z2.300 F350.000
G1 X64.112 Y36.801 Z2.300 F350.000
G1 X52.487 Y25.176 Z2.300 F350.000
G1 X52.487 Y25.625 Z2.300 F350.000
G1 X64.112 Y37.250 Z2.300 F350.000
G1 X64.112 Y37.699 Z2.300 F350.000
G1 X52.487 Y26.074 Z2.300 F350.000
G1 X52.487 Y26.523 Z2.300 F350.000
G1 X64.112 Y38.148 Z2.300 F350.000
G1 X64.112 Y38.597 Z2.300 F350.000
G1 X52.487 Y26.972 Z2.300 F350.000
G1 X52.487 Y27.421 Z2.300 F350.000
G1 X64.112 Y39.046 Z2.300 F350.000
G1 X64.112 Y39.495 Z2.300 F350.000
G1 X52.487 Y27.870 Z2.300 F350.000
G1 X52.487 Y28.319 Z2.300 F350.000
G1 X64.112 Y39.944 Z2.300 F350.000
G1 X64.112 Y40.393 Z2.300 F350.000
G1 X52.487 Y28.768 Z2.300 F350.000
G1 X52.487 Y29.217 Z2.300 F350.000
G1 X64.112 Y40.842 Z2.300 F350.000
G1 X64.112 Y41.291 Z2.300 F350.000
G1 X52.487 Y29.666 Z2.300 F350.000
G1 X52.487 Y30.115 Z2.300 F350.000
G1 X64.112 Y41.740 Z2.300 F350.000
G1 X64.112 Y42.189 Z2.300 F350.000
G1 X52.487 Y30.564 Z2.300 F350.000
G1 X52.487 Y31.013 Z2.300 F350.000
G1 X64.112 Y42.638 Z2.300 F350.000
G1 X64.112 Y43.087 Z2.300 F350.000
G1 X52.487 Y31.462 Z2.300 F350.000
G1 X52.487 Y31.911 Z2.300 F350.000
G1 X64.112 Y43.536 Z2.300 F350.000
G1 X64.112 Y43.985 Z2.300 F350.000
G1 X52.487 Y32.360 Z2.300 F350.000
G3 X52.466 Y32.788 Z2.300 I-1.909 J0.120 F350.000
G1 X64.112 Y44.434 Z2.300 F350.000
G1 X64.112 Y44.883 Z2.300 F350.000
G1 X52.379 Y33.150 Z2.300 F350.000
G3 X52.229 Y33.449 Z2.300 I-0.731 J-0.178 F350.000
G1 X64.112 Y45.332 Z2.300 F350.000
G1 X64.112 Y45.781 Z2.300 F350.000
G1 X52.031 Y33.700 Z2.300 F350.000
G3 X51.788 Y33.905 Z2.300 I-0.572 J-0.431 F350.000
G1 X64.112 Y46.230 Z2.300 F350.000
G1 X64.112 Y46.679 Z2.300 F350.000
G1 X51.588 Y34.154 Z2.300 F350.000
G1 X51.588 Y34.603 Z2.300 F350.000
G1 X64.112 Y47.128 Z2.300 F350.000
G1 X64.112 Y47.577 Z2.300 F350.000
G1 X51.588 Y35.052 Z2.300 F350.000
G1 X51.588 Y35.501 Z2.300 F350.000
G1 X64.112 Y48.026 Z2.300 F350.000
G1 X64.112 Y48.475 Z2.300 F350.000
G1 X51.588 Y35.950 Z2.300 F350.000
G1 X51.588 Y36.399 Z2.300 F350.000
G1 X64.112 Y48.924 Z2.300 F350.000
G1 X64.112 Y49.373 Z2.300 F350.000
G1 X51.588 Y36.848 Z2.300 F350.000
G1 X51.588 Y37.297 Z2.300 F350.000
G1 X64.112 Y49.822 Z2.300 F350.000
G1 X64.112 Y50.271 Z2.300 F350.000
G1 X51.588 Y37.746 Z2.300 F350.000
G1 X51.588 Y38.195 Z2.300 F350.000
G1 X64.112 Y50.720 Z2.300 F350.000
G1 X64.112 Y51.169 Z2.300 F350.000
G1 X51.588 Y38.644 Z2.300 F350.000
G1 X51.588 Y39.093 Z2.300 F350.000
G1 X64.112 Y51.618 Z2.300 F350.000
G1 X64.112 Y52.067 Z2.300 F350.000
G1 X51.588 Y39.542 Z2.300 F350.000
G1 X51.588 Y39.991 Z2.300 F350.000
G1 X64.112 Y52.516 Z2.300 F350.000
G1 X64.112 Y52.965 Z2.300 F350.000
G1 X51.588 Y40.440 Z2.300 F350.000
G1 X51.588 Y40.889 Z2.300 F350.000
G1 X64.112 Y53.414 Z2.300 F350.000
G1 X64.112 Y53.863 Z2.300 F350.000
G1 X51.588 Y41.338 Z2.300 F350.000
G1 X51.588 Y41.787 Z2.300 F350.000
G1 X64.112 Y54.312 Z2.300 F350.000
G1 X64.112 Y54.761 Z2.300 F350.000
G1 X51.588 Y42.236 Z2.300 F350.000
G1 X51.588 Y42.685 Z2.300 F350.000
G1 X64.112 Y55.210 Z2.300 F350.000
G1 X64.112 Y55.660 Z2.300 F350.000
G1 X51.588 Y43.135 Z2.300 F350.000
G1 X51.588 Y43.584 Z2.300 F350.000
G1 X64.112 Y56.109 Z2.300 F350.000
G1 X64.112 Y56.558 Z2.300 F350.000
G1 X51.588 Y44.033 Z2.300 F350.000
G1 X51.588 Y44.482 Z2.300 F350.000
G1 X64.112 Y57.007 Z2.300 F350.000
G1 X64.112 Y57.456 Z2.300 F350.000
G1 X51.588 Y44.931 Z2.300 F350.000
G1 X51.588 Y45.380 Z2.300 F350.000
G1 X64.112 Y57.905 Z2.300 F350.000
G1 X64.112 Y58.354 Z2.300 F350.000
G1 X51.588 Y45.829 Z2.300 F350.000
G1 X51.588 Y46.278 Z2.300 F350.000
G1 X64.112 Y58.803 Z2.300 F350.000
G1 X64.112 Y59.252 Z2.300 F350.000
G1 X51.588 Y46.727 Z2.300 F350.000
G1 X51.588 Y47.176 Z2.300 F350.000
G1 X64.112 Y59.701 Z2.300 F350.000
G1 X64.112 Y60.150 Z2.300 F350.000
G1 X51.588 Y47.625 Z2.300 F350.000
G1 X51.588 Y48.074 Z2.300 F350.000
G1 X64.112 Y60.599 Z2.300 F350.000
G1 X64.112 Y61.048 Z2.300 F350.000
G1 X51.588 Y48.523 Z2.300 F350.000
G1 X51.588 Y48.972 Z2.300 F350.000
G1 X64.112 Y61.497 Z2.300 F350.000
G1 X64.112 Y61.946 Z2.300 F350.000
G1 X51.588 Y49.421 Z2.300 F350.000
G1 X51.588 Y49.870 Z2.300 F350.000
G1 X64.112 Y62.395 Z2.300 F350.000
G1 X64.112 Y62.844 Z2.300 F350.000
G1 X51.588 Y50.319 Z2.300 F350.000
G1 X51.588 Y50.768 Z2.300 F350.000
G1 X64.112 Y63.293 Z2.300 F350.000
G1 X64.112 Y63.742 Z2.300 F350.000
G1 X51.588 Y51.217 Z2.300 F350.000
G1 X51.588 Y51.666 Z2.300 F350.000
G1 X64.112 Y64.191 Z2.300 F350.000
G1 X64.112 Y64.640 Z2.300 F350.000
G1 X51.588 Y52.115 Z2.300 F350.000
G1 X51.588 Y52.564 Z2.300 F350.000
G1 X64.112 Y65.089 Z2.300 F350.000
G1 X64.112 Y65.538 Z2.300 F350.000
G1 X51.588 Y53.013 Z2.300 F350.000
G1 X51.588 Y53.462 Z2.300 F350.000
G1 X64.112 Y65.987 Z2.300 F350.000
G1 X64.112 Y66.436 Z2.300 F350.000
G1 X51.588 Y53.911 Z2.300 F350.000
G1 X51.588 Y54.360 Z2.300 F350.000
G1 X64.112 Y66.885 Z2.300 F350.000
G1 X64.112 Y67.334 Z2.300 F350.000
G1 X51.588 Y54.809 Z2.300 F350.000
G1 X51.588 Y55.258 Z2.300 F350.000
G1 X64.112 Y67.783 Z2.300 F350.000
G1 X64.112 Y68.232 Z2.300 F350.000
G1 X51.588 Y55.707 Z2.300 F350.000
G1 X51.588 Y56.156 Z2.300 F350.000
G1 X64.112 Y68.681 Z2.300 F350.000
G1 X64.112 Y69.130 Z2.300 F350.000
G1 X51.588 Y56.605 Z2.300 F350.000
G1 X51.588 Y57.054 Z2.300 F350.000
G1 X64.112 Y69.579 Z2.300 F350.000
G1 X64.112 Y70.028 Z2.300 F350.000
G1 X51.588 Y57.503 Z2.300 F350.000
G1 X51.588 Y57.952 Z2.300 F350.000
G1 X64.112 Y70.477 Z2.300 F350.000
G1 X64.112 Y70.926 Z2.300 F350.000
G1 X51.588 Y58.401 Z2.300 F350.000
G1 X51.588 Y58.850 Z2.300 F350.000
G1 X64.112 Y71.375 Z2.300 F350.000
G1 X64.112 Y71.824 Z2.300 F350.000
G1 X51.588 Y59.299 Z2.300 F350.000
G1 X51.588 Y59.748 Z2.300 F350.000
G1 X64.112 Y72.273 Z2.300 F350.000
G1 X64.112 Y72.722 Z2.300 F350.000
G1 X51.588 Y60.197 Z2.300 F350.000
G1 X51.588 Y60.646 Z2.300 F350.000
G1 X64.112 Y73.171 Z2.300 F350.000
G1 X64.112 Y73.620 Z2.300 F350.000
G1 X51.588 Y61.095 Z2.300 F350.000
G1 X51.588 Y61.544 Z2.300 F350.000
G1 X64.112 Y74.069 Z2.300 F350.000
G1 X64.112 Y74.362 Z2.300 F350.000
G1 X63.957 Y74.362 Z2.300 F350.000
G1 X51.588 Y61.993 Z2.300 F350.000
G1 X51.588 Y62.442 Z2.300 F350.000
G1 X63.508 Y74.362 Z2.300 F350.000
G1 X63.059 Y74.362 Z2.300 F350.000
G1 X51.588 Y62.891 Z2.300 F350.000
G1 X51.588 Y63.340 Z2.300 F350.000
G1 X62.610 Y74.362 Z2.300 F350.000
G1 X62.161 Y74.362 Z2.300 F350.000
G1 X51.588 Y63.789 Z2.300 F350.000
G1 X51.588 Y64.238 Z2.300 F350.000
G1 X61.712 Y74.362 Z2.300 F350.000
G1 X61.263 Y74.362 Z2.300 F350.000
G1 X51.588 Y64.687 Z2.300 F350.000
G1 X51.588 Y65.136 Z2.300 F350.000
G1 X60.814 Y74.362 Z2.300 F350.000
G1 X60.365 Y74.362 Z2.300 F350.000
G1 X51.588 Y65.585 Z2.300 F350.000
G1 X51.588 Y66.034 Z2.300 F350.000
G1 X59.916 Y74.362 Z2.300 F350.000
G1 X59.467 Y74.362 Z2.300 F350.000
G1 X51.588 Y66.483 Z2.300 F350.000
G1 X51.588 Y66.932 Z2.300 F350.000
G1 X59.018 Y74.362 Z2.300 F350.000
G1 X58.569 Y74.362 Z2.300 F350.000
G1 X51.588 Y67.381 Z2.300 F350.000
G1 X51.588 Y67.830 Z2.300 F350.000
G1 X58.120 Y74.362 Z2.300 F350.000
G1 X57.671 Y74.362 Z2.300 F350.000
G1 X51.588 Y68.279 Z2.300 F350.000
G1 X51.588 Y68.728 Z2.300 F350.000
G1 X57.222 Y74.362 Z2.300 F350.000
G1 X56.773 Y74.362 Z2.300 F350.000
G1 X51.588 Y69.177 Z2.300 F350.000
G1 X51.588 Y69.626 Z2.300 F350.000
G1 X56.324 Y74.362 Z2.300 F350.000
G1 X55.875 Y74.362 Z2.300 F350.000
G1 X51.588 Y70.075 Z2.300 F350.000
G1 X51.588 Y70.524 Z2.300 F350.000
G1 X55.426 Y74.362 Z2.300 F350.000
G1 X54.977 Y74.362 Z2.300 F350.000
G1 X51.588 Y70.973 Z2.300 F350.000
G1 X51.588 Y71.422 Z2.300 F350.000
G1 X54.528 Y74.362 Z2.300 F350.000
G1 X54.079 Y74.362 Z2.300 F350.000
G1 X51.588 Y71.871 Z2.300 F350.000
G1 X51.588 Y72.320 Z2.300 F350.000
G1 X53.630 Y74.362 Z2.300 F350.000
G1 X53.181 Y74.362 Z2.300 F350.000
G1 X51.588 Y72.769 Z2.300 F350.000
G1 X51.588 Y73.218 Z2.300 F350.000
G1 X52.732 Y74.362 Z2.300 F350.000
G1 X52.283 Y74.362 Z2.300 F350.000
G1 X51.588 Y73.667 Z2.300 F350.000
G1 X51.588 Y74.116 Z2.300 F350.000
G1 X51.588 Y74.362 Z2.300 F350.000
G1 X51.834 Y74.362 Z2.300 F350.000
G1 X51.588 Y74.116 Z2.300 F350.000
G0 Z23.000
G0 Z23.000
(finish operation: Pocket_Shape009)
(begin operation: Pocket_Shape010)
(machine: not set, mm/min)
(Pocket_Shape010)
G0 Z23.000
G0 X52.218 Y56.112
G0 Z21.000
G1 X52.218 Y56.112 Z-0.000 F150.000
G1 X51.588 Y55.482 Z-0.000 F350.000
G1 X51.588 Y56.112 Z-0.000 F350.000
G1 X52.218 Y56.112 Z-0.000 F350.000
G1 X52.891 Y56.112 Z-0.000 F350.000
G1 X51.588 Y54.809 Z-0.000 F350.000
G1 X51.588 Y54.135 Z-0.000 F350.000
G1 X53.565 Y56.112 Z-0.000 F350.000
G1 X54.238 Y56.112 Z-0.000 F350.000
G1 X51.588 Y53.462 Z-0.000 F350.000
G1 X51.588 Y52.788 Z-0.000 F350.000
G1 X54.912 Y56.112 Z-0.000 F350.000
G1 X55.585 Y56.112 Z-0.000 F350.000
G1 X51.588 Y52.115 Z-0.000 F350.000
G1 X51.588 Y51.441 Z-0.000 F350.000
G1 X56.259 Y56.112 Z-0.000 F350.000
G1 X56.932 Y56.112 Z-0.000 F350.000
G1 X51.588 Y50.768 Z-0.000 F350.000
G1 X51.588 Y50.094 Z-0.000 F350.000
G1 X57.606 Y56.112 Z-0.000 F350.000
G1 X58.279 Y56.112 Z-0.000 F350.000
G1 X51.588 Y49.421 Z-0.000 F350.000
G1 X51.588 Y48.747 Z-0.000 F350.000
G1 X58.953 Y56.112 Z-0.000 F350.000
G1 X59.626 Y56.112 Z-0.000 F350.000
G1 X51.588 Y48.074 Z-0.000 F350.000
G1 X51.588 Y47.400 Z-0.000 F350.000
G1 X60.300 Y56.112 Z-0.000 F350.000
G1 X60.973 Y56.112 Z-0.000 F350.000
G1 X51.588 Y46.727 Z-0.000 F350.000
G1 X51.588 Y46.053 Z0.000 F350.000
G1 X61.647 Y56.112 Z-0.000 F350.000
G1 X62.320 Y56.112 Z-0.000 F350.000
G1 X51.588 Y45.380 Z0.000 F350.000
G1 X51.588 Y44.706 Z0.000 F350.000
G1 X62.994 Y56.112 Z-0.000 F350.000
G1 X63.667 Y56.112 Z-0.000 F350.000
G1 X51.588 Y44.033 Z0.000 F350.000
G1 X51.588 Y43.359 Z0.000 F350.000
G1 X64.112 Y55.884 Z-0.000 F350.000
G1 X64.112 Y55.210 Z-0.000 F350.000
G1 X51.588 Y42.685 Z0.000 F350.000
G1 X51.588 Y42.012 Z0.000 F350.000
G1 X64.112 Y54.537 Z-0.000 F350.000
G1 X64.112 Y53.863 Z-0.000 F350.000
G1 X51.588 Y41.338 Z0.000 F350.000
G1 X51.588 Y40.665 Z0.000 F350.000
G1 X64.112 Y53.190 Z-0.000 F350.000
G1 X64.112 Y52.516 Z-0.000 F350.000
G1 X51.588 Y39.991 Z0.000 F350.000
G1 X51.588 Y39.318 Z0.000 F350.000
G1 X64.112 Y51.843 Z-0.000 F350.000
G1 X64.112 Y51.169 Z-0.000 F350.000
G1 X51.588 Y38.644 Z0.000 F350.000
G1 X51.588 Y37.971 Z0.000 F350.000
G1 X64.112 Y50.496 Z-0.000 F350.000
G1 X64.112 Y49.822 Z-0.000 F350.000
G1 X51.588 Y37.297 Z0.000 F350.000
G1 X51.588 Y36.624 Z0.000 F350.000
G1 X64.112 Y49.149 Z-0.000 F350.000
G1 X64.112 Y48.475 Z-0.000 F350.000
G1 X51.588 Y35.950 Z0.000 F350.000
G1 X51.588 Y35.277 Z0.000 F350.000
G1 X64.112 Y47.802 Z-0.000 F350.000
G1 X64.112 Y47.128 Z-0.000 F350.000
G1 X51.588 Y34.603 Z0.000 F350.000
G1 X51.588 Y34.031 Z0.000 F350.000
G2 X51.650 Y33.992 Z0.000 I-0.054 J-0.156 F350.000
G1 X64.112 Y46.455 Z-0.000 F350.000
G1 X64.112 Y45.781 Z-0.000 F350.000
G1 X52.031 Y33.700 Z0.000 F350.000
G2 X52.316 Y33.311 Z0.000 I-0.709 J-0.819 F350.000
G1 X64.112 Y45.108 Z-0.000 F350.000
G1 X64.112 Y44.434 Z-0.000 F350.000
G1 X52.466 Y32.788 Z0.000 F350.000
G2 X52.488 Y32.136 Z0.000 I-2.884 J-0.420 F350.000
G1 X64.112 Y43.761 Z-0.000 F350.000
G1 X64.112 Y43.087 Z-0.000 F350.000
G1 X52.488 Y31.462 Z0.000 F350.000
G1 X52.488 Y30.789 Z0.000 F350.000
G1 X64.112 Y42.414 Z-0.000 F350.000
G1 X64.112 Y41.740 Z-0.000 F350.000
G1 X52.488 Y30.115 Z0.000 F350.000
G1 X52.488 Y29.442 Z0.000 F350.000
G1 X64.112 Y41.067 Z-0.000 F350.000
G1 X64.112 Y40.393 Z-0.000 F350.000
G1 X52.488 Y28.768 Z0.000 F350.000
G1 X52.488 Y28.095 Z0.000 F350.000
G1 X64.112 Y39.720 Z-0.000 F350.000
G1 X64.112 Y39.046 Z-0.000 F350.000
G1 X52.488 Y27.421 Z0.000 F350.000
G1 X52.488 Y26.748 Z0.000 F350.000
G1 X64.112 Y38.373 Z-0.000 F350.000
G1 X64.112 Y37.699 Z-0.000 F350.000
G1 X52.488 Y26.074 Z0.000 F350.000
G1 X52.488 Y25.400 Z0.000 F350.000
G1 X64.112 Y37.025 Z-0.000 F350.000
G1 X64.112 Y36.352 Z-0.000 F350.000
G1 X52.488 Y24.727 Z0.000 F350.000
G1 X52.488 Y24.053 Z0.000 F350.000
G1 X64.112 Y35.678 Z-0.000 F350.000
G1 X64.112 Y35.005 Z-0.000 F350.000
G1 X52.488 Y23.380 Z0.000 F350.000
G1 X52.488 Y22.706 Z0.000 F350.000
G1 X64.112 Y34.331 Z-0.000 F350.000
G1 X64.112 Y34.031 Z-0.000 F350.000
G3 X63.233 Y32.778 Z-0.000 I0.664 J-1.402 F350.000
G1 X52.487 Y22.033 Z0.000 F350.000
G1 X52.487 Y21.359 Z0.000 F350.000
G1 X63.212 Y32.084 Z-0.000 F350.000
G1 X63.212 Y31.411 Z-0.000 F350.000
G1 X52.487 Y20.686 Z0.000 F350.000
G1 X52.487 Y20.012 Z0.000 F350.000
G1 X63.212 Y30.737 Z-0.000 F350.000
G1 X63.212 Y30.064 Z0.000 F350.000
G1 X52.487 Y19.339 Z0.000 F350.000
G1 X52.487 Y19.288 Z0.000 F350.000
G1 X53.110 Y19.288 Z0.000 F350.000
G1 X63.212 Y29.390 Z0.000 F350.000
G1 X63.212 Y28.717 Z0.000 F350.000
G1 X53.783 Y19.288 Z0.000 F350.000
G1 X54.457 Y19.288 Z0.000 F350.000
G1 X63.212 Y28.043 Z0.000 F350.000
G1 X63.212 Y27.370 Z0.000 F350.000
G1 X55.130 Y19.288 Z0.000 F350.000
G1 X55.804 Y19.288 Z0.000 F350.000
G1 X63.212 Y26.696 Z0.000 F350.000
G1 X63.212 Y26.023 Z0.000 F350.000
G1 X56.477 Y19.288 Z0.000 F350.000
G1 X57.151 Y19.288 Z0.000 F350.000
G1 X63.212 Y25.349 Z0.000 F350.000
G1 X63.212 Y24.676 Z0.000 F350.000
G1 X57.824 Y19.288 Z0.000 F350.000
G1 X58.498 Y19.288 Z0.000 F350.000
G1 X63.212 Y24.002 Z0.000 F350.000
G1 X63.212 Y23.329 Z0.000 F350.000
G1 X59.171 Y19.288 Z0.000 F350.000
G1 X59.845 Y19.288 Z0.000 F350.000
G1 X63.212 Y22.655 Z0.000 F350.000
G1 X63.212 Y21.982 Z0.000 F350.000
G1 X60.518 Y19.288 Z0.000 F350.000
G1 X61.192 Y19.288 Z0.000 F350.000
G1 X63.212 Y21.308 Z0.000 F350.000
G1 X63.212 Y20.635 Z0.000 F350.000
G1 X61.865 Y19.288 Z0.000 F350.000
G1 X62.539 Y19.288 Z0.000 F350.000
G1 X63.212 Y19.961 Z0.000 F350.000
G1 X63.212 Y19.288 Z0.000 F350.000
G0 Z23.000
G0 Z23.000
(finish operation: Pocket_Shape010)
(begin operation: Pocket_Shape011)
(machine: not set, mm/min)
(Pocket_Shape011)
G0 Z23.000
G0 X13.021 Y74.116
G0 Z21.000
G1 X13.021 Y74.116 Z10.000 F150.000
