(Exported by FreeCAD)
(Post Processor: KineticNCBeamicon2_post)
(Output Time:2024-03-23 23:41:48.772061)
(begin preamble)
%
G17 G21 G40 G49 G80 G90
M08
G21
(begin operation: Fixture)
(machine: not set, mm/min)
G54
(finish operation: Fixture)
(begin operation: TC: Default Tool004)
(machine: not set, mm/min)
(TC: Default Tool004)
M05
M09M6 T1
M3 S10000
(finish operation: TC: Default Tool004)
(begin operation: Helix)
(machine: not set, mm/min)
(Helix)
(helix cut operation)
G0 Z24.000
G0 Z24.000
G0 X0.000 Y66.000 Z24.000
G0 X0.000 Y66.000 Z19.000
G0 X1.013 Y66.000
G1 Z19.000 F170.000
G2 X-1.013 Y66.000 Z17.417 I-1.013 J0.000 F350.000
G2 X1.013 Y66.000 Z15.833 I1.013 J0.000 F350.000
G2 X-1.013 Y66.000 Z14.250 I-1.013 J0.000 F350.000
G2 X1.013 Y66.000 Z12.667 I1.013 J0.000 F350.000
G2 X-1.013 Y66.000 Z11.083 I-1.013 J0.000 F350.000
G2 X1.013 Y66.000 Z9.500 I1.013 J0.000 F350.000
G2 X-1.013 Y66.000 Z7.917 I-1.013 J0.000 F350.000
G2 X1.013 Y66.000 Z6.333 I1.013 J0.000 F350.000
G2 X-1.013 Y66.000 Z4.750 I-1.013 J0.000 F350.000
G2 X1.013 Y66.000 Z3.167 I1.013 J0.000 F350.000
G2 X-1.013 Y66.000 Z1.583 I-1.013 J0.000 F350.000
G2 X1.013 Y66.000 Z0.000 I1.013 J0.000 F350.000
G2 X-1.013 Y66.000 Z0.000 I-1.013 J0.000 F350.000
G2 X1.013 Y66.000 Z0.000 I1.013 J0.000 F350.000
G0 X0.000 Y66.000 Z0.000
G0 Z19.000
G0 Z24.000
G0 X0.000 Y84.000 Z24.000
G0 X0.000 Y84.000 Z19.000
G0 X1.013 Y84.000
G1 Z19.000 F170.000
G2 X-1.013 Y84.000 Z17.417 I-1.013 J0.000 F350.000
G2 X1.013 Y84.000 Z15.833 I1.013 J0.000 F350.000
G2 X-1.013 Y84.000 Z14.250 I-1.013 J0.000 F350.000
G2 X1.013 Y84.000 Z12.667 I1.013 J0.000 F350.000
G2 X-1.013 Y84.000 Z11.083 I-1.013 J0.000 F350.000
G2 X1.013 Y84.000 Z9.500 I1.013 J0.000 F350.000
G2 X-1.013 Y84.000 Z7.917 I-1.013 J0.000 F350.000
G2 X1.013 Y84.000 Z6.333 I1.013 J0.000 F350.000
G2 X-1.013 Y84.000 Z4.750 I-1.013 J0.000 F350.000
G2 X1.013 Y84.000 Z3.167 I1.013 J0.000 F350.000
G2 X-1.013 Y84.000 Z1.583 I-1.013 J0.000 F350.000
G2 X1.013 Y84.000 Z0.000 I1.013 J0.000 F350.000
G2 X-1.013 Y84.000 Z0.000 I-1.013 J0.000 F350.000
G2 X1.013 Y84.000 Z0.000 I1.013 J0.000 F350.000
G0 X0.000 Y84.000 Z0.000
G0 Z19.000
G0 Z24.000
G0 X-37.400 Y84.000 Z24.000
G0 X-37.400 Y84.000 Z19.000
G0 X-36.387 Y84.000
G1 Z19.000 F170.000
G2 X-38.413 Y84.000 Z17.417 I-1.013 J0.000 F350.000
G2 X-36.387 Y84.000 Z15.833 I1.013 J0.000 F350.000
G2 X-38.413 Y84.000 Z14.250 I-1.013 J0.000 F350.000
G2 X-36.387 Y84.000 Z12.667 I1.013 J0.000 F350.000
G2 X-38.413 Y84.000 Z11.083 I-1.013 J0.000 F350.000
G2 X-36.387 Y84.000 Z9.500 I1.013 J0.000 F350.000
G2 X-38.413 Y84.000 Z7.917 I-1.013 J0.000 F350.000
G2 X-36.387 Y84.000 Z6.333 I1.013 J0.000 F350.000
G2 X-38.413 Y84.000 Z4.750 I-1.013 J0.000 F350.000
G2 X-36.387 Y84.000 Z3.167 I1.013 J0.000 F350.000
G2 X-38.413 Y84.000 Z1.583 I-1.013 J0.000 F350.000
G2 X-36.387 Y84.000 Z0.000 I1.013 J0.000 F350.000
G2 X-38.413 Y84.000 Z0.000 I-1.013 J0.000 F350.000
G2 X-36.387 Y84.000 Z0.000 I1.013 J0.000 F350.000
G0 X-37.400 Y84.000 Z0.000
G0 Z19.000
G0 Z24.000
G0 X-37.400 Y66.000 Z24.000
G0 X-37.400 Y66.000 Z19.000
G0 X-36.387 Y66.000
G1 Z19.000 F170.000
G2 X-38.413 Y66.000 Z17.417 I-1.013 J0.000 F350.000
G2 X-36.387 Y66.000 Z15.833 I1.013 J0.000 F350.000
G2 X-38.413 Y66.000 Z14.250 I-1.013 J0.000 F350.000
G2 X-36.387 Y66.000 Z12.667 I1.013 J0.000 F350.000
G2 X-38.413 Y66.000 Z11.083 I-1.013 J0.000 F350.000
G2 X-36.387 Y66.000 Z9.500 I1.013 J0.000 F350.000
G2 X-38.413 Y66.000 Z7.917 I-1.013 J0.000 F350.000
G2 X-36.387 Y66.000 Z6.333 I1.013 J0.000 F350.000
G2 X-38.413 Y66.000 Z4.750 I-1.013 J0.000 F350.000
G2 X-36.387 Y66.000 Z3.167 I1.013 J0.000 F350.000
G2 X-38.413 Y66.000 Z1.583 I-1.013 J0.000 F350.000
G2 X-36.387 Y66.000 Z0.000 I1.013 J0.000 F350.000
G2 X-38.413 Y66.000 Z0.000 I-1.013 J0.000 F350.000
G2 X-36.387 Y66.000 Z0.000 I1.013 J0.000 F350.000
G0 X-37.400 Y66.000 Z0.000
G0 Z19.000
G0 Z24.000
G0 X37.400 Y66.000 Z24.000
G0 X37.400 Y66.000 Z19.000
G0 X38.412 Y66.000
G1 Z19.000 F170.000
G2 X36.387 Y66.000 Z17.417 I-1.013 J0.000 F350.000
G2 X38.412 Y66.000 Z15.833 I1.013 J0.000 F350.000
G2 X36.387 Y66.000 Z14.250 I-1.013 J0.000 F350.000
G2 X38.412 Y66.000 Z12.667 I1.013 J0.000 F350.000
G2 X36.387 Y66.000 Z11.083 I-1.013 J0.000 F350.000
G2 X38.412 Y66.000 Z9.500 I1.013 J0.000 F350.000
G2 X36.387 Y66.000 Z7.917 I-1.013 J0.000 F350.000
G2 X38.412 Y66.000 Z6.333 I1.013 J0.000 F350.000
G2 X36.387 Y66.000 Z4.750 I-1.013 J0.000 F350.000
G2 X38.412 Y66.000 Z3.167 I1.013 J0.000 F350.000
G2 X36.387 Y66.000 Z1.583 I-1.013 J0.000 F350.000
G2 X38.412 Y66.000 Z0.000 I1.013 J0.000 F350.000
G2 X36.387 Y66.000 Z0.000 I-1.013 J0.000 F350.000
G2 X38.412 Y66.000 Z0.000 I1.013 J0.000 F350.000
G0 X37.400 Y66.000 Z0.000
G0 Z19.000
G0 Z24.000
G0 X37.400 Y84.000 Z24.000
G0 X37.400 Y84.000 Z19.000
G0 X38.413 Y84.000
G1 Z19.000 F170.000
G2 X36.387 Y84.000 Z17.417 I-1.013 J0.000 F350.000
G2 X38.413 Y84.000 Z15.833 I1.013 J0.000 F350.000
G2 X36.387 Y84.000 Z14.250 I-1.013 J0.000 F350.000
G2 X38.413 Y84.000 Z12.667 I1.013 J0.000 F350.000
G2 X36.387 Y84.000 Z11.083 I-1.013 J0.000 F350.000
G2 X38.413 Y84.000 Z9.500 I1.013 J0.000 F350.000
G2 X36.387 Y84.000 Z7.917 I-1.013 J0.000 F350.000
G2 X38.413 Y84.000 Z6.333 I1.013 J0.000 F350.000
G2 X36.387 Y84.000 Z4.750 I-1.013 J0.000 F350.000
G2 X38.413 Y84.000 Z3.167 I1.013 J0.000 F350.000
G2 X36.387 Y84.000 Z1.583 I-1.013 J0.000 F350.000
G2 X38.413 Y84.000 Z0.000 I1.013 J0.000 F350.000
G2 X36.387 Y84.000 Z0.000 I-1.013 J0.000 F350.000
G2 X38.413 Y84.000 Z0.000 I1.013 J0.000 F350.000
G0 X37.400 Y84.000 Z0.000
G0 Z19.000
G0 Z24.000
(finish operation: Helix)
(begin operation: Profile004)
(machine: not set, mm/min)
(Profile004)
(Compensated Tool Path. Diameter: 3.175)
G0 Z24.000
G0 X39.173 Y85.773
G0 Z22.000
G1 X39.173 Y85.773 Z15.825 F170.000
G2 X39.844 Y84.558 Z15.825 I-1.773 J-1.773 F350.000
G2 X37.958 Y81.556 Z15.825 I-2.444 J-0.558 F350.000
G2 X34.956 Y83.442 Z15.825 I-0.558 J2.444 F350.000
G2 X39.173 Y85.773 Z15.825 I2.444 J0.558 F350.000
G0 Z24.000
G0 X37.624 Y68.497 Z24.000
G0 X37.624 Y68.497 Z22.000
G1 X37.624 Y68.497 Z15.825 F170.000
G2 X39.844 Y66.558 Z15.825 I-0.224 J-2.497 F350.000
G2 X34.956 Y65.442 Z15.825 I-2.444 J-0.558 F350.000
G2 X37.624 Y68.497 Z15.825 I2.444 J0.558 F350.000
G0 Z24.000
G0 X2.501 Y66.166 Z24.000
G0 X2.501 Y66.166 Z22.000
G1 X2.501 Y66.166 Z15.825 F170.000
G2 X-2.444 Y65.442 Z15.825 I-2.501 J-0.166 F350.000
G2 X2.444 Y66.558 Z15.825 I2.444 J0.558 F350.000
G2 X2.501 Y66.166 Z15.825 I-2.444 J-0.558 F350.000
G0 Z24.000
G0 X0.348 Y81.517 Z24.000
G0 X0.348 Y81.517 Z22.000
G1 X0.348 Y81.517 Z15.825 F170.000
G2 X-2.444 Y83.442 Z15.825 I-0.348 J2.483 F350.000
G2 X2.444 Y84.558 Z15.825 I2.444 J0.558 F350.000
G2 X0.348 Y81.517 Z15.825 I-2.444 J-0.558 F350.000
G0 Z24.000
G0 X-34.899 Y83.835 Z24.000
G0 X-34.899 Y83.835 Z22.000
G1 X-34.899 Y83.835 Z15.825 F170.000
G2 X-39.844 Y83.442 Z15.825 I-2.501 J0.165 F350.000
G2 X-34.956 Y84.558 Z15.825 I2.444 J0.558 F350.000
G2 X-34.899 Y83.835 Z15.825 I-2.444 J-0.558 F350.000
G0 Z24.000
G0 X-37.052 Y68.483 Z24.000
G0 X-37.052 Y68.483 Z22.000
G1 X-37.052 Y68.483 Z15.825 F170.000
G2 X-34.956 Y66.558 Z15.825 I-0.348 J-2.483 F350.000
G2 X-39.844 Y65.442 Z15.825 I-2.444 J-0.558 F350.000
G2 X-37.052 Y68.483 Z15.825 I2.444 J0.558 F350.000
G1 X-37.052 Y68.483 Z14.500 F170.000
G2 X-34.956 Y66.558 Z14.500 I-0.348 J-2.483 F350.000
G2 X-39.844 Y65.442 Z14.500 I-2.444 J-0.558 F350.000
G2 X-37.052 Y68.483 Z14.500 I2.444 J0.558 F350.000
G0 Z24.000
G0 X-37.344 Y81.494 Z24.000
G0 X-37.344 Y81.494 Z22.000
G1 X-37.344 Y81.494 Z14.500 F170.000
G2 X-39.844 Y83.442 Z14.500 I-0.056 J2.506 F350.000
G2 X-34.956 Y84.558 Z14.500 I2.444 J0.558 F350.000
G2 X-37.344 Y81.494 Z14.500 I-2.444 J-0.558 F350.000
G0 Z24.000
G0 X-2.501 Y83.832 Z24.000
G0 X-2.501 Y83.832 Z22.000
G1 X-2.501 Y83.832 Z14.500 F170.000
G2 X2.444 Y84.558 Z14.500 I2.501 J0.168 F350.000
G2 X0.558 Y81.556 Z14.500 I-2.444 J-0.558 F350.000
G2 X-2.444 Y83.442 Z14.500 I-0.558 J2.444 F350.000
G2 X-2.501 Y83.832 Z14.500 I2.444 J0.558 F350.000
G0 Z24.000
G0 X-0.348 Y68.483 Z24.000
G0 X-0.348 Y68.483 Z22.000
G1 X-0.348 Y68.483 Z14.500 F170.000
G2 X2.444 Y66.558 Z14.500 I0.348 J-2.483 F350.000
G2 X0.558 Y63.556 Z14.500 I-2.444 J-0.558 F350.000
G2 X-2.444 Y65.442 Z14.500 I-0.558 J2.444 F350.000
G2 X-0.348 Y68.483 Z14.500 I2.444 J0.558 F350.000
G0 Z24.000
G0 X34.899 Y66.165 Z24.000
G0 X34.899 Y66.165 Z22.000
G1 X34.899 Y66.165 Z14.500 F170.000
G2 X39.844 Y66.558 Z14.500 I2.501 J-0.165 F350.000
G2 X34.956 Y65.442 Z14.500 I-2.444 J-0.558 F350.000
G2 X34.899 Y66.165 Z14.500 I2.444 J0.558 F350.000
G0 Z24.000
G0 X37.052 Y81.517 Z24.000
G0 X37.052 Y81.517 Z22.000
G1 X37.052 Y81.517 Z14.500 F170.000
G2 X34.956 Y83.442 Z14.500 I0.348 J2.483 F350.000
G2 X39.844 Y84.558 Z14.500 I2.444 J0.558 F350.000
G2 X37.052 Y81.517 Z14.500 I-2.444 J-0.558 F350.000
G0 Z24.000
G0 Z24.000
(finish operation: Profile004)
(begin operation: Profile006)
(machine: not set, mm/min)
(Profile006)
(Compensated Tool Path. Diameter: 3.175)
G0 Z24.000
G0 X2.552 Y68.552
G0 Z22.000
G1 X2.552 Y68.552 Z16.500 F170.000
G2 X3.518 Y66.803 Z16.500 I-2.552 J-2.552 F350.000
G2 X-3.518 Y65.197 Z16.500 I-3.518 J-0.803 F350.000
G2 X2.552 Y68.552 Z16.500 I3.518 J0.803 F350.000
G0 Z24.000
G0 Z24.000
G0 X2.552 Y68.552
G0 X0.588 Y80.440
G0 X0.588 Y80.440 Z22.000
G1 X0.588 Y80.440 Z16.500 F170.000
G2 X-3.518 Y83.197 Z16.500 I-0.588 J3.560 F350.000
G2 X3.518 Y84.803 Z16.500 I3.518 J0.803 F350.000
G2 X0.588 Y80.440 Z16.500 I-3.518 J-0.803 F350.000
G0 Z24.000
G0 Z24.000
G0 X0.588 Y80.440
G0 X-33.807 Y83.663
G0 X-33.807 Y83.663 Z22.000
G1 X-33.807 Y83.663 Z16.500 F170.000
G2 X-36.597 Y80.482 Z16.500 I-3.593 J0.337 F350.000
G2 X-40.918 Y83.197 Z16.500 I-0.803 J3.518 F350.000
G2 X-38.203 Y87.518 Z16.500 I3.518 J0.803 F350.000
G2 X-33.807 Y83.663 Z16.500 I0.803 J-3.518 F350.000
G0 Z24.000
G0 Z24.000
G0 X-33.807 Y83.663
G0 X-36.681 Y69.536
G0 X-36.681 Y69.536 Z22.000
G1 X-36.681 Y69.536 Z16.500 F170.000
G2 X-36.597 Y62.482 Z16.500 I-0.719 J-3.536 F350.000
G2 X-40.918 Y65.197 Z16.500 I-0.803 J3.518 F350.000
G2 X-38.203 Y69.518 Z16.500 I3.518 J0.803 F350.000
G2 X-36.681 Y69.536 Z16.500 I0.803 J-3.518 F350.000
G0 Z24.000
G0 Z24.000
G0 X-36.681 Y69.536
G0 X33.796 Y66.172
G0 X33.796 Y66.172 Z22.000
G1 X33.796 Y66.172 Z16.500 F170.000
G2 X36.597 Y69.518 Z16.500 I3.604 J-0.172 F350.000
G2 X40.918 Y66.803 Z16.500 I0.803 J-3.518 F350.000
G2 X38.203 Y62.482 Z16.500 I-3.518 J-0.803 F350.000
G2 X33.796 Y66.172 Z16.500 I-0.803 J3.518 F350.000
G0 Z24.000
G0 Z24.000
G0 X33.796 Y66.172
G0 X36.685 Y80.463
G0 X36.685 Y80.463 Z22.000
G1 X36.685 Y80.463 Z16.500 F170.000
G2 X36.597 Y87.518 Z16.500 I0.715 J3.537 F350.000
G2 X40.918 Y84.803 Z16.500 I0.803 J-3.518 F350.000
G2 X38.203 Y80.482 Z16.500 I-3.518 J-0.803 F350.000
G2 X36.685 Y80.463 Z16.500 I-0.803 J3.518 F350.000
G0 Z24.000
G0 Z24.000
(finish operation: Profile006)
(begin operation: Profile005)
(machine: not set, mm/min)
(Profile005)
(Compensated Tool Path. Diameter: 3.175)
G0 Z24.000
G0 X50.198 Y104.298
G0 Z22.000
G1 X50.198 Y104.298 Z14.000 F170.000
G2 X50.487 Y103.600 Z14.000 I-0.698 J-0.698 F350.000
G1 X50.487 Y50.600 Z14.000 F350.000
G2 X49.500 Y49.613 Z14.000 I-0.988 J0.000 F350.000
G1 X-49.500 Y49.613 Z14.000 F350.000
G2 X-50.487 Y50.600 Z14.000 I0.000 J0.988 F350.000
G1 X-50.487 Y103.600 Z14.000 F350.000
G2 X-49.500 Y104.587 Z14.000 I0.988 J-0.000 F350.000
G1 X49.500 Y104.587 Z14.000 F350.000
G2 X50.198 Y104.298 Z14.000 I-0.000 J-0.988 F350.000
G1 X50.198 Y104.298 Z9.000 F170.000
G2 X50.487 Y103.600 Z9.000 I-0.698 J-0.698 F350.000
G1 X50.487 Y50.600 Z9.000 F350.000
G2 X49.500 Y49.613 Z9.000 I-0.988 J0.000 F350.000
G1 X-49.500 Y49.613 Z9.000 F350.000
G2 X-50.487 Y50.600 Z9.000 I0.000 J0.988 F350.000
G1 X-50.487 Y103.600 Z9.000 F350.000
G2 X-49.500 Y104.587 Z9.000 I0.988 J-0.000 F350.000
G1 X49.500 Y104.587 Z9.000 F350.000
G2 X50.198 Y104.298 Z9.000 I-0.000 J-0.988 F350.000
G1 X50.198 Y104.298 Z4.000 F170.000
G2 X50.487 Y103.600 Z4.000 I-0.698 J-0.698 F350.000
G1 X50.487 Y50.600 Z4.000 F350.000
G2 X49.500 Y49.613 Z4.000 I-0.988 J0.000 F350.000
G1 X-49.500 Y49.613 Z4.000 F350.000
G2 X-50.487 Y50.600 Z4.000 I0.000 J0.988 F350.000
G1 X-50.487 Y103.600 Z4.000 F350.000
G2 X-49.500 Y104.587 Z4.000 I0.988 J-0.000 F350.000
G1 X49.500 Y104.587 Z4.000 F350.000
G2 X50.198 Y104.298 Z4.000 I-0.000 J-0.988 F350.000
G1 X50.198 Y104.298 Z0.000 F170.000
G2 X50.487 Y103.600 Z0.000 I-0.698 J-0.698 F350.000
G1 X50.487 Y50.600 Z0.000 F350.000
G2 X49.500 Y49.613 Z0.000 I-0.988 J0.000 F350.000
G1 X-49.500 Y49.613 Z0.000 F350.000
G2 X-50.487 Y50.600 Z0.000 I0.000 J0.988 F350.000
G1 X-50.487 Y103.600 Z0.000 F350.000
G2 X-49.500 Y104.587 Z0.000 I0.988 J-0.000 F350.000
G1 X49.500 Y104.587 Z0.000 F350.000
G2 X50.198 Y104.298 Z0.000 I-0.000 J-0.988 F350.000
G0 Z24.000
G0 Z24.000
(finish operation: Profile005)
(begin postamble)
M05 M09
G17 G90 G80 G40
M30
