(Exported by FreeCAD)
(Post Processor: KineticNCBeamicon2_post)
(Output Time:2024-03-23 13:41:54.122497)
(begin preamble)
%
G17 G21 G40 G49 G80 G90
M08
G21
(begin operation: Fixture)
(machine: not set, mm/min)
G54
(finish operation: Fixture)
(begin operation: TC: Default Tool002)
(machine: not set, mm/min)
(TC: Default Tool002)
M05
M09M6 T1
M3 S10000
(finish operation: TC: Default Tool002)
(begin operation: Pocket_Shape018)
(machine: not set, mm/min)
(Pocket_Shape018)
G0 Z24.000
G0 X-18.572 Y66.312
G0 Z22.000
G1 X-18.572 Y66.312 Z15.825 F170.000
G2 X-19.930 Y64.829 Z15.825 I-0.712 J-0.712 F350.000
G2 X-18.636 Y66.371 Z15.825 I0.647 J0.771 F350.000
G2 X-18.572 Y66.312 Z15.825 I-0.647 J-0.771 F350.000
G1 X-18.572 Y66.312 Z12.650 F170.000
G2 X-19.930 Y64.829 Z12.650 I-0.712 J-0.712 F350.000
G2 X-18.636 Y66.371 Z12.650 I0.647 J0.771 F350.000
G2 X-18.572 Y66.312 Z12.650 I-0.647 J-0.771 F350.000
G1 X-18.572 Y66.312 Z9.475 F170.000
G2 X-19.930 Y64.829 Z9.475 I-0.712 J-0.712 F350.000
G2 X-18.636 Y66.371 Z9.475 I0.647 J0.771 F350.000
G2 X-18.572 Y66.312 Z9.475 I-0.647 J-0.771 F350.000
G1 X-18.572 Y66.312 Z6.300 F170.000
G2 X-19.930 Y64.829 Z6.300 I-0.712 J-0.712 F350.000
G2 X-18.636 Y66.371 Z6.300 I0.647 J0.771 F350.000
G2 X-18.572 Y66.312 Z6.300 I-0.647 J-0.771 F350.000
G1 X-18.572 Y66.312 Z3.125 F170.000
G2 X-19.930 Y64.829 Z3.125 I-0.712 J-0.712 F350.000
G2 X-18.636 Y66.371 Z3.125 I0.647 J0.771 F350.000
G2 X-18.572 Y66.312 Z3.125 I-0.647 J-0.771 F350.000
G1 X-18.572 Y66.312 Z-0.000 F170.000
G2 X-19.930 Y64.829 Z0.000 I-0.712 J-0.712 F350.000
G2 X-18.636 Y66.371 Z-0.000 I0.647 J0.771 F350.000
G2 X-18.572 Y66.312 Z-0.000 I-0.647 J-0.771 F350.000
G0 Z24.000
G0 Z24.000
G0 X-18.572 Y66.312
G0 X18.277 Y65.619
G0 X18.277 Y65.619 Z22.000
G1 X18.277 Y65.619 Z15.825 F170.000
G2 X18.512 Y66.247 Z15.825 I1.006 J-0.019 F350.000
G2 X20.054 Y64.953 Z15.825 I0.771 J-0.647 F350.000
G2 X18.277 Y65.619 Z15.825 I-0.771 J0.647 F350.000
G1 X18.277 Y65.619 Z12.650 F170.000
G2 X18.512 Y66.247 Z12.650 I1.006 J-0.019 F350.000
G2 X20.054 Y64.953 Z12.650 I0.771 J-0.647 F350.000
G2 X18.277 Y65.619 Z12.650 I-0.771 J0.647 F350.000
G1 X18.277 Y65.619 Z9.475 F170.000
G2 X18.512 Y66.247 Z9.475 I1.006 J-0.019 F350.000
G2 X20.054 Y64.953 Z9.475 I0.771 J-0.647 F350.000
G2 X18.277 Y65.619 Z9.475 I-0.771 J0.647 F350.000
G1 X18.277 Y65.619 Z6.300 F170.000
G2 X18.512 Y66.247 Z6.300 I1.006 J-0.019 F350.000
G2 X20.054 Y64.953 Z6.300 I0.771 J-0.647 F350.000
G2 X18.277 Y65.619 Z6.300 I-0.771 J0.647 F350.000
G1 X18.277 Y65.619 Z3.125 F170.000
G2 X18.512 Y66.247 Z3.125 I1.006 J-0.019 F350.000
G2 X20.054 Y64.953 Z3.125 I0.771 J-0.647 F350.000
G2 X18.277 Y65.619 Z3.125 I-0.771 J0.647 F350.000
G1 X18.277 Y65.619 Z-0.000 F170.000
G2 X18.512 Y66.247 Z-0.000 I1.006 J-0.019 F350.000
G2 X20.054 Y64.953 Z0.000 I0.771 J-0.647 F350.000
G2 X18.277 Y65.619 Z-0.000 I-0.771 J0.647 F350.000
G0 Z24.000
G0 Z24.000
G0 X18.277 Y65.619
G0 X56.844 Y65.600
G0 X56.844 Y65.600 Z22.000
G1 X56.844 Y65.600 Z15.825 F170.000
G2 X57.079 Y66.247 Z15.825 I1.006 J-0.000 F350.000
G2 X58.497 Y66.371 Z15.825 I0.771 J-0.647 F350.000
G2 X58.621 Y64.953 Z15.825 I-0.647 J-0.771 F350.000
G2 X56.844 Y65.600 Z15.825 I-0.771 J0.647 F350.000
G1 X56.844 Y65.600 Z12.650 F170.000
G2 X57.079 Y66.247 Z12.650 I1.006 J-0.000 F350.000
G2 X58.497 Y66.371 Z12.650 I0.771 J-0.647 F350.000
G2 X58.621 Y64.953 Z12.650 I-0.647 J-0.771 F350.000
G2 X56.844 Y65.600 Z12.650 I-0.771 J0.647 F350.000
G1 X56.844 Y65.600 Z9.475 F170.000
G2 X57.079 Y66.247 Z9.475 I1.006 J-0.000 F350.000
G2 X58.497 Y66.371 Z9.475 I0.771 J-0.647 F350.000
G2 X58.621 Y64.953 Z9.475 I-0.647 J-0.771 F350.000
G2 X56.844 Y65.600 Z9.475 I-0.771 J0.647 F350.000
G1 X56.844 Y65.600 Z6.300 F170.000
G2 X57.079 Y66.247 Z6.300 I1.006 J-0.000 F350.000
G2 X58.497 Y66.371 Z6.300 I0.771 J-0.647 F350.000
G2 X58.621 Y64.953 Z6.300 I-0.647 J-0.771 F350.000
G2 X56.844 Y65.600 Z6.300 I-0.771 J0.647 F350.000
G1 X56.844 Y65.600 Z3.125 F170.000
G2 X57.079 Y66.247 Z3.125 I1.006 J-0.000 F350.000
G2 X58.497 Y66.371 Z3.125 I0.771 J-0.647 F350.000
G2 X58.621 Y64.953 Z3.125 I-0.647 J-0.771 F350.000
G2 X56.844 Y65.600 Z3.125 I-0.771 J0.647 F350.000
G1 X56.844 Y65.600 Z0.000 F170.000
G2 X57.079 Y66.247 Z0.000 I1.006 J-0.000 F350.000
G2 X58.497 Y66.371 Z0.000 I0.771 J-0.647 F350.000
G2 X58.621 Y64.953 Z0.000 I-0.647 J-0.771 F350.000
G2 X56.844 Y65.600 Z0.000 I-0.771 J0.647 F350.000
G0 Z24.000
G0 Z24.000
G0 X56.844 Y65.600
G0 X63.226 Y88.132
G0 X63.226 Y88.132 Z22.000
G1 X63.226 Y88.132 Z15.825 F170.000
G2 X62.729 Y89.747 Z15.825 I0.274 J0.968 F350.000
G2 X64.147 Y89.871 Z15.825 I0.771 J-0.647 F350.000
G2 X64.271 Y88.453 Z15.825 I-0.647 J-0.771 F350.000
G2 X63.226 Y88.132 Z15.825 I-0.771 J0.647 F350.000
G1 X63.226 Y88.132 Z12.650 F170.000
G2 X62.729 Y89.747 Z12.650 I0.274 J0.968 F350.000
G2 X64.147 Y89.871 Z12.650 I0.771 J-0.647 F350.000
G2 X64.271 Y88.453 Z12.650 I-0.647 J-0.771 F350.000
G2 X63.226 Y88.132 Z12.650 I-0.771 J0.647 F350.000
G1 X63.226 Y88.132 Z9.475 F170.000
G2 X62.729 Y89.747 Z9.475 I0.274 J0.968 F350.000
G2 X64.147 Y89.871 Z9.475 I0.771 J-0.647 F350.000
G2 X64.271 Y88.453 Z9.475 I-0.647 J-0.771 F350.000
G2 X63.226 Y88.132 Z9.475 I-0.771 J0.647 F350.000
G1 X63.226 Y88.132 Z6.300 F170.000
G2 X62.729 Y89.747 Z6.300 I0.274 J0.968 F350.000
G2 X64.147 Y89.871 Z6.300 I0.771 J-0.647 F350.000
G2 X64.271 Y88.453 Z6.300 I-0.647 J-0.771 F350.000
G2 X63.226 Y88.132 Z6.300 I-0.771 J0.647 F350.000
G1 X63.226 Y88.132 Z3.125 F170.000
G2 X62.729 Y89.747 Z3.125 I0.274 J0.968 F350.000
G2 X64.147 Y89.871 Z3.125 I0.771 J-0.647 F350.000
G2 X64.271 Y88.453 Z3.125 I-0.647 J-0.771 F350.000
G2 X63.226 Y88.132 Z3.125 I-0.771 J0.647 F350.000
G1 X63.226 Y88.132 Z0.000 F170.000
G2 X62.729 Y89.747 Z0.000 I0.274 J0.968 F350.000
G2 X64.147 Y89.871 Z-0.000 I0.771 J-0.647 F350.000
G2 X64.271 Y88.453 Z-0.000 I-0.647 J-0.771 F350.000
G2 X63.226 Y88.132 Z0.000 I-0.771 J0.647 F350.000
G0 Z24.000
G0 Z24.000
G0 X63.226 Y88.132
G0 X-56.861 Y65.784
G0 X-56.861 Y65.784 Z22.000
G1 X-56.861 Y65.784 Z15.825 F170.000
G2 X-57.079 Y64.953 Z15.825 I-0.989 J-0.184 F350.000
G2 X-58.621 Y66.247 Z15.825 I-0.771 J0.647 F350.000
G2 X-56.861 Y65.784 Z15.825 I0.771 J-0.647 F350.000
G1 X-56.861 Y65.784 Z12.650 F170.000
G2 X-57.079 Y64.953 Z12.650 I-0.989 J-0.184 F350.000
G2 X-58.621 Y66.247 Z12.650 I-0.771 J0.647 F350.000
G2 X-56.861 Y65.784 Z12.650 I0.771 J-0.647 F350.000
G1 X-56.861 Y65.784 Z9.475 F170.000
G2 X-57.079 Y64.953 Z9.475 I-0.989 J-0.184 F350.000
G2 X-58.621 Y66.247 Z9.475 I-0.771 J0.647 F350.000
G2 X-56.861 Y65.784 Z9.475 I0.771 J-0.647 F350.000
G1 X-56.861 Y65.784 Z6.300 F170.000
G2 X-57.079 Y64.953 Z6.300 I-0.989 J-0.184 F350.000
G2 X-58.621 Y66.247 Z6.300 I-0.771 J0.647 F350.000
G2 X-56.861 Y65.784 Z6.300 I0.771 J-0.647 F350.000
G1 X-56.861 Y65.784 Z3.125 F170.000
G2 X-57.079 Y64.953 Z3.125 I-0.989 J-0.184 F350.000
G2 X-58.621 Y66.247 Z3.125 I-0.771 J0.647 F350.000
G2 X-56.861 Y65.784 Z3.125 I0.771 J-0.647 F350.000
G1 X-56.861 Y65.784 Z-0.000 F170.000
G2 X-57.079 Y64.953 Z-0.000 I-0.989 J-0.184 F350.000
G2 X-58.621 Y66.247 Z0.000 I-0.771 J0.647 F350.000
G2 X-56.861 Y65.784 Z-0.000 I0.771 J-0.647 F350.000
G0 Z24.000
G0 Z24.000
G0 X-56.861 Y65.784
G0 X-63.224 Y88.132
G0 X-63.224 Y88.132 Z22.000
G1 X-63.224 Y88.132 Z15.825 F170.000
G2 X-64.271 Y89.747 Z15.825 I-0.276 J0.968 F350.000
G2 X-62.853 Y89.871 Z15.825 I0.771 J-0.647 F350.000
G2 X-62.729 Y88.453 Z15.825 I-0.647 J-0.771 F350.000
G2 X-63.224 Y88.132 Z15.825 I-0.771 J0.647 F350.000
G1 X-63.224 Y88.132 Z12.650 F170.000
G2 X-64.271 Y89.747 Z12.650 I-0.276 J0.968 F350.000
G2 X-62.853 Y89.871 Z12.650 I0.771 J-0.647 F350.000
G2 X-62.729 Y88.453 Z12.650 I-0.647 J-0.771 F350.000
G2 X-63.224 Y88.132 Z12.650 I-0.771 J0.647 F350.000
G1 X-63.224 Y88.132 Z9.475 F170.000
G2 X-64.271 Y89.747 Z9.475 I-0.276 J0.968 F350.000
G2 X-62.853 Y89.871 Z9.475 I0.771 J-0.647 F350.000
G2 X-62.729 Y88.453 Z9.475 I-0.647 J-0.771 F350.000
G2 X-63.224 Y88.132 Z9.475 I-0.771 J0.647 F350.000
G1 X-63.224 Y88.132 Z6.300 F170.000
G2 X-64.271 Y89.747 Z6.300 I-0.276 J0.968 F350.000
G2 X-62.853 Y89.871 Z6.300 I0.771 J-0.647 F350.000
G2 X-62.729 Y88.453 Z6.300 I-0.647 J-0.771 F350.000
G2 X-63.224 Y88.132 Z6.300 I-0.771 J0.647 F350.000
G1 X-63.224 Y88.132 Z3.125 F170.000
G2 X-64.271 Y89.747 Z3.125 I-0.276 J0.968 F350.000
G2 X-62.853 Y89.871 Z3.125 I0.771 J-0.647 F350.000
G2 X-62.729 Y88.453 Z3.125 I-0.647 J-0.771 F350.000
G2 X-63.224 Y88.132 Z3.125 I-0.771 J0.647 F350.000
G1 X-63.224 Y88.132 Z0.000 F170.000
G2 X-64.271 Y89.747 Z0.000 I-0.276 J0.968 F350.000
G2 X-62.853 Y89.871 Z0.000 I0.771 J-0.647 F350.000
G2 X-62.729 Y88.453 Z0.000 I-0.647 J-0.771 F350.000
G2 X-63.224 Y88.132 Z0.000 I-0.771 J0.647 F350.000
G0 Z24.000
G0 Z24.000
(finish operation: Pocket_Shape018)
(begin operation: Pocket_Shape019)
(machine: not set, mm/min)
(Pocket_Shape019)
G0 Z24.000
G0 X-0.676 Y101.012
G0 Z22.000
G1 X-0.676 Y101.012 Z15.825 F170.000
G1 X-1.012 Y101.012 Z15.825 F350.000
G1 X-1.012 Y100.676 Z15.825 F350.000
G1 X-0.676 Y101.012 Z15.825 F350.000
G1 X-0.003 Y101.012 Z15.825 F350.000
G1 X-1.012 Y100.003 Z15.825 F350.000
G1 X-1.012 Y99.329 Z15.825 F350.000
G1 X0.671 Y101.012 Z15.825 F350.000
G1 X1.013 Y101.012 Z15.825 F350.000
G1 X1.013 Y100.681 Z15.825 F350.000
G1 X-1.012 Y98.656 Z15.825 F350.000
G1 X-1.012 Y97.982 Z15.825 F350.000
G1 X1.013 Y100.007 Z15.825 F350.000
G1 X1.013 Y99.334 Z15.825 F350.000
G1 X-1.012 Y97.309 Z15.825 F350.000
G1 X-1.012 Y96.635 Z15.825 F350.000
G1 X1.013 Y98.660 Z15.825 F350.000
G1 X1.013 Y97.987 Z15.825 F350.000
G1 X-1.012 Y95.962 Z15.825 F350.000
G1 X-1.012 Y95.288 Z15.825 F350.000
G1 X1.013 Y97.313 Z15.825 F350.000
G1 X1.013 Y96.640 Z15.825 F350.000
G1 X-1.012 Y94.615 Z15.825 F350.000
G1 X-1.012 Y93.941 Z15.825 F350.000
G1 X1.013 Y95.966 Z15.825 F350.000
G1 X1.013 Y95.293 Z15.825 F350.000
G1 X-1.012 Y93.268 Z15.825 F350.000
G1 X-1.012 Y92.594 Z15.825 F350.000
G1 X1.013 Y94.619 Z15.825 F350.000
G1 X1.013 Y93.946 Z15.825 F350.000
G1 X-1.012 Y91.921 Z15.825 F350.000
G1 X-1.012 Y91.247 Z15.825 F350.000
G1 X1.013 Y93.272 Z15.825 F350.000
G1 X1.013 Y92.599 Z15.825 F350.000
G1 X-1.012 Y90.574 Z15.825 F350.000
G1 X-1.012 Y89.900 Z15.825 F350.000
G1 X1.013 Y91.925 Z15.825 F350.000
G1 X1.013 Y91.252 Z15.825 F350.000
G1 X-1.012 Y89.227 Z15.825 F350.000
G1 X-1.012 Y88.553 Z15.825 F350.000
G1 X1.013 Y90.578 Z15.825 F350.000
G1 X1.013 Y89.905 Z15.825 F350.000
G1 X-1.012 Y87.880 Z15.825 F350.000
G1 X-1.012 Y87.206 Z15.825 F350.000
G1 X1.013 Y89.231 Z15.825 F350.000
G1 X1.013 Y88.558 Z15.825 F350.000
G1 X-1.012 Y86.533 Z15.825 F350.000
G1 X-1.012 Y85.859 Z15.825 F350.000
G1 X1.013 Y87.884 Z15.825 F350.000
G1 X1.013 Y87.210 Z15.825 F350.000
G1 X-1.012 Y85.185 Z15.825 F350.000
G1 X-1.012 Y84.512 Z15.825 F350.000
G1 X1.013 Y86.537 Z15.825 F350.000
G1 X1.013 Y85.863 Z15.825 F350.000
G1 X-1.012 Y83.838 Z15.825 F350.000
G1 X-1.012 Y83.165 Z15.825 F350.000
G1 X1.013 Y85.190 Z15.825 F350.000
G1 X1.013 Y84.516 Z15.825 F350.000
G1 X-1.012 Y82.491 Z15.825 F350.000
G1 X-1.012 Y81.818 Z15.825 F350.000
G1 X1.013 Y83.843 Z15.825 F350.000
G1 X1.013 Y83.169 Z15.825 F350.000
G1 X-1.012 Y81.144 Z15.825 F350.000
G1 X-1.012 Y80.471 Z15.825 F350.000
G1 X1.013 Y82.496 Z15.825 F350.000
G1 X1.013 Y81.822 Z15.825 F350.000
G1 X-1.012 Y79.797 Z15.825 F350.000
G1 X-1.012 Y79.124 Z15.825 F350.000
G1 X1.013 Y81.149 Z15.825 F350.000
G1 X1.013 Y80.475 Z15.825 F350.000
G1 X-1.012 Y78.450 Z15.825 F350.000
G1 X-1.012 Y77.777 Z15.825 F350.000
G1 X1.013 Y79.802 Z15.825 F350.000
G1 X1.013 Y79.128 Z15.825 F350.000
G1 X-1.012 Y77.103 Z15.825 F350.000
G1 X-1.012 Y76.430 Z15.825 F350.000
G1 X1.013 Y78.455 Z15.825 F350.000
G1 X1.013 Y77.781 Z15.825 F350.000
G1 X-1.012 Y75.756 Z15.825 F350.000
G1 X-1.012 Y75.083 Z15.825 F350.000
G1 X1.013 Y77.108 Z15.825 F350.000
G1 X1.013 Y76.434 Z15.825 F350.000
G1 X-1.012 Y74.409 Z15.825 F350.000
G1 X-1.012 Y73.736 Z15.825 F350.000
G1 X1.013 Y75.761 Z15.825 F350.000
G1 X1.013 Y75.087 Z15.825 F350.000
G1 X-1.012 Y73.062 Z15.825 F350.000
G1 X-1.012 Y72.389 Z15.825 F350.000
G1 X1.013 Y74.414 Z15.825 F350.000
G1 X1.013 Y73.740 Z15.825 F350.000
G1 X-1.012 Y71.715 Z15.825 F350.000
G1 X-1.012 Y71.042 Z15.825 F350.000
G1 X1.013 Y73.067 Z15.825 F350.000
G1 X1.013 Y72.393 Z15.825 F350.000
G1 X-1.012 Y70.368 Z15.825 F350.000
G1 X-1.012 Y69.695 Z15.825 F350.000
G1 X1.013 Y71.720 Z15.825 F350.000
G1 X1.013 Y71.046 Z15.825 F350.000
G1 X-1.012 Y69.021 Z15.825 F350.000
G1 X-1.012 Y68.348 Z15.825 F350.000
G1 X1.013 Y70.373 Z15.825 F350.000
G1 X1.013 Y69.699 Z15.825 F350.000
G1 X-1.012 Y67.674 Z15.825 F350.000
G1 X-1.012 Y67.000 Z15.825 F350.000
G1 X1.013 Y69.025 Z15.825 F350.000
G1 X1.013 Y68.352 Z15.825 F350.000
G1 X-1.012 Y66.327 Z15.825 F350.000
G1 X-1.012 Y65.653 Z15.825 F350.000
G1 X1.013 Y67.678 Z15.825 F350.000
G1 X1.013 Y67.005 Z15.825 F350.000
G1 X-1.012 Y64.980 Z15.825 F350.000
G1 X-1.012 Y64.306 Z15.825 F350.000
G1 X1.013 Y66.331 Z15.825 F350.000
G1 X1.013 Y65.658 Z15.825 F350.000
G1 X-1.012 Y63.633 Z15.825 F350.000
G1 X-1.012 Y62.959 Z15.825 F350.000
G1 X1.013 Y64.984 Z15.825 F350.000
G1 X1.013 Y64.311 Z15.825 F350.000
G1 X-1.012 Y62.286 Z15.825 F350.000
G1 X-1.012 Y61.612 Z15.825 F350.000
G1 X1.013 Y63.637 Z15.825 F350.000
G1 X1.013 Y62.964 Z15.825 F350.000
G1 X-1.012 Y60.939 Z15.825 F350.000
G1 X-1.012 Y60.265 Z15.825 F350.000
G1 X1.013 Y62.290 Z15.825 F350.000
G1 X1.013 Y61.617 Z15.825 F350.000
G1 X-1.012 Y59.592 Z15.825 F350.000
G1 X-1.012 Y58.918 Z15.825 F350.000
G1 X1.013 Y60.943 Z15.825 F350.000
G1 X1.013 Y60.270 Z15.825 F350.000
G1 X-1.012 Y58.245 Z15.825 F350.000
G1 X-1.012 Y57.571 Z15.825 F350.000
G1 X1.013 Y59.596 Z15.825 F350.000
G1 X1.013 Y58.923 Z15.825 F350.000
G1 X-1.012 Y56.898 Z15.825 F350.000
G1 X-1.012 Y56.224 Z15.825 F350.000
G1 X1.013 Y58.249 Z15.825 F350.000
G1 X1.013 Y57.576 Z15.825 F350.000
G1 X-1.012 Y55.551 Z15.825 F350.000
G1 X-1.012 Y54.877 Z15.825 F350.000
G1 X1.013 Y56.902 Z15.825 F350.000
G1 X1.013 Y56.229 Z15.825 F350.000
G1 X-1.012 Y54.204 Z15.825 F350.000
G1 X-1.012 Y53.530 Z15.825 F350.000
G1 X1.013 Y55.555 Z15.825 F350.000
G1 X1.013 Y54.882 Z15.825 F350.000
G1 X-1.012 Y52.857 Z15.825 F350.000
G1 X-1.012 Y52.188 Z15.825 F350.000
G1 X-1.008 Y52.188 Z15.825 F350.000
G1 X1.013 Y54.208 Z15.825 F350.000
G1 X1.013 Y53.535 Z15.825 F350.000
G1 X-0.335 Y52.188 Z15.825 F350.000
G1 X0.339 Y52.188 Z15.825 F350.000
G1 X1.013 Y52.861 Z15.825 F350.000
G1 X1.013 Y52.188 Z15.825 F350.000
G1 X1.013 Y52.188 Z12.800 F170.000
G1 X1.013 Y52.861 Z12.800 F350.000
G1 X0.339 Y52.188 Z12.800 F350.000
G1 X-0.335 Y52.188 Z12.800 F350.000
G1 X1.013 Y53.535 Z12.800 F350.000
G1 X1.013 Y54.208 Z12.800 F350.000
G1 X-1.008 Y52.188 Z12.800 F350.000
G1 X-1.012 Y52.188 Z12.800 F350.000
G1 X-1.012 Y52.857 Z12.800 F350.000
G1 X1.013 Y54.882 Z12.800 F350.000
G1 X1.013 Y55.555 Z12.800 F350.000
G1 X-1.012 Y53.530 Z12.800 F350.000
G1 X-1.012 Y54.204 Z12.800 F350.000
G1 X1.013 Y56.229 Z12.800 F350.000
G1 X1.013 Y56.902 Z12.800 F350.000
G1 X-1.012 Y54.877 Z12.800 F350.000
G1 X-1.012 Y55.551 Z12.800 F350.000
G1 X1.013 Y57.576 Z12.800 F350.000
G1 X1.013 Y58.249 Z12.800 F350.000
G1 X-1.012 Y56.224 Z12.800 F350.000
G1 X-1.012 Y56.898 Z12.800 F350.000
G1 X1.013 Y58.923 Z12.800 F350.000
G1 X1.013 Y59.596 Z12.800 F350.000
G1 X-1.012 Y57.571 Z12.800 F350.000
G1 X-1.012 Y58.245 Z12.800 F350.000
G1 X1.013 Y60.270 Z12.800 F350.000
G1 X1.013 Y60.943 Z12.800 F350.000
G1 X-1.012 Y58.918 Z12.800 F350.000
G1 X-1.012 Y59.592 Z12.800 F350.000
G1 X1.013 Y61.617 Z12.800 F350.000
G1 X1.013 Y62.290 Z12.800 F350.000
G1 X-1.012 Y60.265 Z12.800 F350.000
G1 X-1.012 Y60.939 Z12.800 F350.000
G1 X1.013 Y62.964 Z12.800 F350.000
G1 X1.013 Y63.637 Z12.800 F350.000
G1 X-1.012 Y61.612 Z12.800 F350.000
G1 X-1.012 Y62.286 Z12.800 F350.000
G1 X1.013 Y64.311 Z12.800 F350.000
G1 X1.013 Y64.984 Z12.800 F350.000
G1 X-1.012 Y62.959 Z12.800 F350.000
G1 X-1.012 Y63.633 Z12.800 F350.000
G1 X1.013 Y65.658 Z12.800 F350.000
G1 X1.013 Y66.331 Z12.800 F350.000
G1 X-1.012 Y64.306 Z12.800 F350.000
G1 X-1.012 Y64.980 Z12.800 F350.000
G1 X1.013 Y67.005 Z12.800 F350.000
G1 X1.013 Y67.678 Z12.800 F350.000
G1 X-1.012 Y65.653 Z12.800 F350.000
G1 X-1.012 Y66.327 Z12.800 F350.000
G1 X1.013 Y68.352 Z12.800 F350.000
G1 X1.013 Y69.025 Z12.800 F350.000
G1 X-1.012 Y67.000 Z12.800 F350.000
G1 X-1.012 Y67.674 Z12.800 F350.000
G1 X1.013 Y69.699 Z12.800 F350.000
G1 X1.013 Y70.373 Z12.800 F350.000
G1 X-1.012 Y68.348 Z12.800 F350.000
G1 X-1.012 Y69.021 Z12.800 F350.000
G1 X1.013 Y71.046 Z12.800 F350.000
G1 X1.013 Y71.720 Z12.800 F350.000
G1 X-1.012 Y69.695 Z12.800 F350.000
G1 X-1.012 Y70.368 Z12.800 F350.000
G1 X1.013 Y72.393 Z12.800 F350.000
G1 X1.013 Y73.067 Z12.800 F350.000
G1 X-1.012 Y71.042 Z12.800 F350.000
G1 X-1.012 Y71.715 Z12.800 F350.000
G1 X1.013 Y73.740 Z12.800 F350.000
G1 X1.013 Y74.414 Z12.800 F350.000
G1 X-1.012 Y72.389 Z12.800 F350.000
G1 X-1.012 Y73.062 Z12.800 F350.000
G1 X1.013 Y75.087 Z12.800 F350.000
G1 X1.013 Y75.761 Z12.800 F350.000
G1 X-1.012 Y73.736 Z12.800 F350.000
G1 X-1.012 Y74.409 Z12.800 F350.000
G1 X1.013 Y76.434 Z12.800 F350.000
G1 X1.013 Y77.108 Z12.800 F350.000
G1 X-1.012 Y75.083 Z12.800 F350.000
G1 X-1.012 Y75.756 Z12.800 F350.000
G1 X1.013 Y77.781 Z12.800 F350.000
G1 X1.013 Y78.455 Z12.800 F350.000
G1 X-1.012 Y76.430 Z12.800 F350.000
G1 X-1.012 Y77.103 Z12.800 F350.000
G1 X1.013 Y79.128 Z12.800 F350.000
G1 X1.013 Y79.802 Z12.800 F350.000
G1 X-1.012 Y77.777 Z12.800 F350.000
G1 X-1.012 Y78.450 Z12.800 F350.000
G1 X1.013 Y80.475 Z12.800 F350.000
G1 X1.013 Y81.149 Z12.800 F350.000
G1 X-1.012 Y79.124 Z12.800 F350.000
G1 X-1.012 Y79.797 Z12.800 F350.000
G1 X1.013 Y81.822 Z12.800 F350.000
G1 X1.013 Y82.496 Z12.800 F350.000
G1 X-1.012 Y80.471 Z12.800 F350.000
G1 X-1.012 Y81.144 Z12.800 F350.000
G1 X1.013 Y83.169 Z12.800 F350.000
G1 X1.013 Y83.843 Z12.800 F350.000
G1 X-1.012 Y81.818 Z12.800 F350.000
G1 X-1.012 Y82.491 Z12.800 F350.000
G1 X1.013 Y84.516 Z12.800 F350.000
G1 X1.013 Y85.190 Z12.800 F350.000
G1 X-1.012 Y83.165 Z12.800 F350.000
G1 X-1.012 Y83.838 Z12.800 F350.000
G1 X1.013 Y85.863 Z12.800 F350.000
G1 X1.013 Y86.537 Z12.800 F350.000
G1 X-1.012 Y84.512 Z12.800 F350.000
G1 X-1.012 Y85.185 Z12.800 F350.000
G1 X1.013 Y87.210 Z12.800 F350.000
G1 X1.013 Y87.884 Z12.800 F350.000
G1 X-1.012 Y85.859 Z12.800 F350.000
G1 X-1.012 Y86.533 Z12.800 F350.000
G1 X1.013 Y88.558 Z12.800 F350.000
G1 X1.013 Y89.231 Z12.800 F350.000
G1 X-1.012 Y87.206 Z12.800 F350.000
G1 X-1.012 Y87.880 Z12.800 F350.000
G1 X1.013 Y89.905 Z12.800 F350.000
G1 X1.013 Y90.578 Z12.800 F350.000
G1 X-1.012 Y88.553 Z12.800 F350.000
G1 X-1.012 Y89.227 Z12.800 F350.000
G1 X1.013 Y91.252 Z12.800 F350.000
G1 X1.013 Y91.925 Z12.800 F350.000
G1 X-1.012 Y89.900 Z12.800 F350.000
G1 X-1.012 Y90.574 Z12.800 F350.000
G1 X1.013 Y92.599 Z12.800 F350.000
G1 X1.013 Y93.272 Z12.800 F350.000
G1 X-1.012 Y91.247 Z12.800 F350.000
G1 X-1.012 Y91.921 Z12.800 F350.000
G1 X1.013 Y93.946 Z12.800 F350.000
G1 X1.013 Y94.619 Z12.800 F350.000
G1 X-1.012 Y92.594 Z12.800 F350.000
G1 X-1.012 Y93.268 Z12.800 F350.000
G1 X1.013 Y95.293 Z12.800 F350.000
G1 X1.013 Y95.966 Z12.800 F350.000
G1 X-1.012 Y93.941 Z12.800 F350.000
G1 X-1.012 Y94.615 Z12.800 F350.000
G1 X1.013 Y96.640 Z12.800 F350.000
G1 X1.013 Y97.313 Z12.800 F350.000
G1 X-1.012 Y95.288 Z12.800 F350.000
G1 X-1.012 Y95.962 Z12.800 F350.000
G1 X1.013 Y97.987 Z12.800 F350.000
G1 X1.013 Y98.660 Z12.800 F350.000
G1 X-1.012 Y96.635 Z12.800 F350.000
G1 X-1.012 Y97.309 Z12.800 F350.000
G1 X1.013 Y99.334 Z12.800 F350.000
G1 X1.013 Y100.007 Z12.800 F350.000
G1 X-1.012 Y97.982 Z12.800 F350.000
G1 X-1.012 Y98.656 Z12.800 F350.000
G1 X1.013 Y100.681 Z12.800 F350.000
G1 X1.013 Y101.012 Z12.800 F350.000
G1 X0.671 Y101.012 Z12.800 F350.000
G1 X-1.012 Y99.329 Z12.800 F350.000
G1 X-1.012 Y100.003 Z12.800 F350.000
G1 X-0.003 Y101.012 Z12.800 F350.000
G1 X-0.676 Y101.012 Z12.800 F350.000
G1 X-1.012 Y100.676 Z12.800 F350.000
G1 X-1.012 Y101.012 Z12.800 F350.000
G1 X-0.676 Y101.012 Z12.800 F350.000
G0 Z24.000
G0 Z24.000
G0 X-0.676 Y101.012
G0 X-38.076
G0 X-38.076 Z22.000
G1 X-38.076 Y101.012 Z15.825 F170.000
G1 X-38.413 Y101.012 Z15.825 F350.000
G1 X-38.413 Y100.676 Z15.825 F350.000
G1 X-38.076 Y101.012 Z15.825 F350.000
G1 X-37.403 Y101.012 Z15.825 F350.000
G1 X-38.413 Y100.003 Z15.825 F350.000
G1 X-38.413 Y99.329 Z15.825 F350.000
G1 X-36.729 Y101.012 Z15.825 F350.000
G1 X-36.387 Y101.012 Z15.825 F350.000
G1 X-36.387 Y100.681 Z15.825 F350.000
G1 X-38.413 Y98.656 Z15.825 F350.000
G1 X-38.413 Y97.982 Z15.825 F350.000
G1 X-36.387 Y100.007 Z15.825 F350.000
G1 X-36.387 Y99.334 Z15.825 F350.000
G1 X-38.413 Y97.309 Z15.825 F350.000
G1 X-38.413 Y96.635 Z15.825 F350.000
G1 X-36.387 Y98.660 Z15.825 F350.000
G1 X-36.387 Y97.987 Z15.825 F350.000
G1 X-38.413 Y95.962 Z15.825 F350.000
G1 X-38.413 Y95.288 Z15.825 F350.000
G1 X-36.387 Y97.313 Z15.825 F350.000
G1 X-36.387 Y96.640 Z15.825 F350.000
G1 X-38.413 Y94.615 Z15.825 F350.000
G1 X-38.413 Y93.941 Z15.825 F350.000
G1 X-36.387 Y95.966 Z15.825 F350.000
G1 X-36.387 Y95.293 Z15.825 F350.000
G1 X-38.413 Y93.268 Z15.825 F350.000
G1 X-38.413 Y92.594 Z15.825 F350.000
G1 X-36.387 Y94.619 Z15.825 F350.000
G1 X-36.387 Y93.946 Z15.825 F350.000
G1 X-38.413 Y91.921 Z15.825 F350.000
G1 X-38.413 Y91.247 Z15.825 F350.000
G1 X-36.387 Y93.272 Z15.825 F350.000
G1 X-36.387 Y92.599 Z15.825 F350.000
G1 X-38.413 Y90.574 Z15.825 F350.000
G1 X-38.413 Y89.900 Z15.825 F350.000
G1 X-36.387 Y91.925 Z15.825 F350.000
G1 X-36.387 Y91.252 Z15.825 F350.000
G1 X-38.413 Y89.227 Z15.825 F350.000
G1 X-38.413 Y88.553 Z15.825 F350.000
G1 X-36.387 Y90.578 Z15.825 F350.000
G1 X-36.387 Y89.905 Z15.825 F350.000
G1 X-38.413 Y87.880 Z15.825 F350.000
G1 X-38.413 Y87.206 Z15.825 F350.000
G1 X-36.387 Y89.231 Z15.825 F350.000
G1 X-36.387 Y88.558 Z15.825 F350.000
G1 X-38.413 Y86.533 Z15.825 F350.000
G1 X-38.413 Y85.859 Z15.825 F350.000
G1 X-36.387 Y87.884 Z15.825 F350.000
G1 X-36.387 Y87.210 Z15.825 F350.000
G1 X-38.413 Y85.185 Z15.825 F350.000
G1 X-38.413 Y84.512 Z15.825 F350.000
G1 X-36.387 Y86.537 Z15.825 F350.000
G1 X-36.387 Y85.863 Z15.825 F350.000
G1 X-38.413 Y83.838 Z15.825 F350.000
G1 X-38.413 Y83.165 Z15.825 F350.000
G1 X-36.387 Y85.190 Z15.825 F350.000
G1 X-36.387 Y84.516 Z15.825 F350.000
G1 X-38.413 Y82.491 Z15.825 F350.000
G1 X-38.413 Y81.818 Z15.825 F350.000
G1 X-36.387 Y83.843 Z15.825 F350.000
G1 X-36.387 Y83.169 Z15.825 F350.000
G1 X-38.413 Y81.144 Z15.825 F350.000
G1 X-38.413 Y80.471 Z15.825 F350.000
G1 X-36.387 Y82.496 Z15.825 F350.000
G1 X-36.387 Y81.822 Z15.825 F350.000
G1 X-38.413 Y79.797 Z15.825 F350.000
G1 X-38.413 Y79.124 Z15.825 F350.000
G1 X-36.387 Y81.149 Z15.825 F350.000
G1 X-36.387 Y80.475 Z15.825 F350.000
G1 X-38.413 Y78.450 Z15.825 F350.000
G1 X-38.413 Y77.777 Z15.825 F350.000
G1 X-36.387 Y79.802 Z15.825 F350.000
G1 X-36.387 Y79.128 Z15.825 F350.000
G1 X-38.413 Y77.103 Z15.825 F350.000
G1 X-38.413 Y76.430 Z15.825 F350.000
G1 X-36.387 Y78.455 Z15.825 F350.000
G1 X-36.387 Y77.781 Z15.825 F350.000
G1 X-38.413 Y75.756 Z15.825 F350.000
G1 X-38.413 Y75.083 Z15.825 F350.000
G1 X-36.387 Y77.108 Z15.825 F350.000
G1 X-36.387 Y76.434 Z15.825 F350.000
G1 X-38.413 Y74.409 Z15.825 F350.000
G1 X-38.413 Y73.736 Z15.825 F350.000
G1 X-36.387 Y75.761 Z15.825 F350.000
G1 X-36.387 Y75.087 Z15.825 F350.000
G1 X-38.413 Y73.062 Z15.825 F350.000
G1 X-38.413 Y72.389 Z15.825 F350.000
G1 X-36.387 Y74.414 Z15.825 F350.000
G1 X-36.387 Y73.740 Z15.825 F350.000
G1 X-38.413 Y71.715 Z15.825 F350.000
G1 X-38.413 Y71.042 Z15.825 F350.000
G1 X-36.387 Y73.067 Z15.825 F350.000
G1 X-36.387 Y72.393 Z15.825 F350.000
G1 X-38.413 Y70.368 Z15.825 F350.000
G1 X-38.413 Y69.695 Z15.825 F350.000
G1 X-36.387 Y71.720 Z15.825 F350.000
G1 X-36.387 Y71.046 Z15.825 F350.000
G1 X-38.413 Y69.021 Z15.825 F350.000
G1 X-38.413 Y68.348 Z15.825 F350.000
G1 X-36.387 Y70.373 Z15.825 F350.000
G1 X-36.387 Y69.699 Z15.825 F350.000
G1 X-38.413 Y67.674 Z15.825 F350.000
G1 X-38.413 Y67.000 Z15.825 F350.000
G1 X-36.387 Y69.025 Z15.825 F350.000
G1 X-36.387 Y68.352 Z15.825 F350.000
G1 X-38.413 Y66.327 Z15.825 F350.000
G1 X-38.413 Y65.653 Z15.825 F350.000
G1 X-36.387 Y67.678 Z15.825 F350.000
G1 X-36.387 Y67.005 Z15.825 F350.000
G1 X-38.413 Y64.980 Z15.825 F350.000
G1 X-38.413 Y64.306 Z15.825 F350.000
G1 X-36.387 Y66.331 Z15.825 F350.000
G1 X-36.387 Y65.658 Z15.825 F350.000
G1 X-38.413 Y63.633 Z15.825 F350.000
G1 X-38.413 Y62.959 Z15.825 F350.000
G1 X-36.387 Y64.984 Z15.825 F350.000
G1 X-36.387 Y64.311 Z15.825 F350.000
G1 X-38.413 Y62.286 Z15.825 F350.000
G1 X-38.413 Y61.612 Z15.825 F350.000
G1 X-36.387 Y63.637 Z15.825 F350.000
G1 X-36.387 Y62.964 Z15.825 F350.000
G1 X-38.413 Y60.939 Z15.825 F350.000
G1 X-38.413 Y60.265 Z15.825 F350.000
G1 X-36.387 Y62.290 Z15.825 F350.000
G1 X-36.387 Y61.617 Z15.825 F350.000
G1 X-38.413 Y59.592 Z15.825 F350.000
G1 X-38.413 Y58.918 Z15.825 F350.000
G1 X-36.387 Y60.943 Z15.825 F350.000
G1 X-36.387 Y60.270 Z15.825 F350.000
G1 X-38.413 Y58.245 Z15.825 F350.000
G1 X-38.413 Y57.571 Z15.825 F350.000
G1 X-36.387 Y59.596 Z15.825 F350.000
G1 X-36.387 Y58.923 Z15.825 F350.000
G1 X-38.413 Y56.898 Z15.825 F350.000
G1 X-38.413 Y56.224 Z15.825 F350.000
G1 X-36.387 Y58.249 Z15.825 F350.000
G1 X-36.387 Y57.576 Z15.825 F350.000
G1 X-38.413 Y55.551 Z15.825 F350.000
G1 X-38.413 Y54.877 Z15.825 F350.000
G1 X-36.387 Y56.902 Z15.825 F350.000
G1 X-36.387 Y56.229 Z15.825 F350.000
G1 X-38.413 Y54.204 Z15.825 F350.000
G1 X-38.413 Y53.530 Z15.825 F350.000
G1 X-36.387 Y55.555 Z15.825 F350.000
G1 X-36.387 Y54.882 Z15.825 F350.000
G1 X-38.413 Y52.857 Z15.825 F350.000
G1 X-38.413 Y52.188 Z15.825 F350.000
G1 X-38.408 Y52.188 Z15.825 F350.000
G1 X-36.387 Y54.208 Z15.825 F350.000
G1 X-36.387 Y53.535 Z15.825 F350.000
G1 X-37.735 Y52.188 Z15.825 F350.000
G1 X-37.061 Y52.188 Z15.825 F350.000
G1 X-36.387 Y52.861 Z15.825 F350.000
G1 X-36.387 Y52.188 Z15.825 F350.000
G1 X-36.387 Y52.188 Z12.800 F170.000
G1 X-36.387 Y52.861 Z12.800 F350.000
G1 X-37.061 Y52.188 Z12.800 F350.000
G1 X-37.735 Y52.188 Z12.800 F350.000
G1 X-36.387 Y53.535 Z12.800 F350.000
G1 X-36.387 Y54.208 Z12.800 F350.000
G1 X-38.408 Y52.188 Z12.800 F350.000
G1 X-38.413 Y52.188 Z12.800 F350.000
G1 X-38.413 Y52.857 Z12.800 F350.000
G1 X-36.387 Y54.882 Z12.800 F350.000
G1 X-36.387 Y55.555 Z12.800 F350.000
G1 X-38.413 Y53.530 Z12.800 F350.000
G1 X-38.413 Y54.204 Z12.800 F350.000
G1 X-36.387 Y56.229 Z12.800 F350.000
G1 X-36.387 Y56.902 Z12.800 F350.000
G1 X-38.413 Y54.877 Z12.800 F350.000
G1 X-38.413 Y55.551 Z12.800 F350.000
G1 X-36.387 Y57.576 Z12.800 F350.000
G1 X-36.387 Y58.249 Z12.800 F350.000
G1 X-38.413 Y56.224 Z12.800 F350.000
G1 X-38.413 Y56.898 Z12.800 F350.000
G1 X-36.387 Y58.923 Z12.800 F350.000
G1 X-36.387 Y59.596 Z12.800 F350.000
G1 X-38.413 Y57.571 Z12.800 F350.000
G1 X-38.413 Y58.245 Z12.800 F350.000
G1 X-36.387 Y60.270 Z12.800 F350.000
G1 X-36.387 Y60.943 Z12.800 F350.000
G1 X-38.413 Y58.918 Z12.800 F350.000
G1 X-38.413 Y59.592 Z12.800 F350.000
G1 X-36.387 Y61.617 Z12.800 F350.000
G1 X-36.387 Y62.290 Z12.800 F350.000
G1 X-38.413 Y60.265 Z12.800 F350.000
G1 X-38.413 Y60.939 Z12.800 F350.000
G1 X-36.387 Y62.964 Z12.800 F350.000
G1 X-36.387 Y63.637 Z12.800 F350.000
G1 X-38.413 Y61.612 Z12.800 F350.000
G1 X-38.413 Y62.286 Z12.800 F350.000
G1 X-36.387 Y64.311 Z12.800 F350.000
G1 X-36.387 Y64.984 Z12.800 F350.000
G1 X-38.413 Y62.959 Z12.800 F350.000
G1 X-38.413 Y63.633 Z12.800 F350.000
G1 X-36.387 Y65.658 Z12.800 F350.000
G1 X-36.387 Y66.331 Z12.800 F350.000
G1 X-38.413 Y64.306 Z12.800 F350.000
G1 X-38.413 Y64.980 Z12.800 F350.000
G1 X-36.387 Y67.005 Z12.800 F350.000
G1 X-36.387 Y67.678 Z12.800 F350.000
G1 X-38.413 Y65.653 Z12.800 F350.000
G1 X-38.413 Y66.327 Z12.800 F350.000
G1 X-36.387 Y68.352 Z12.800 F350.000
G1 X-36.387 Y69.025 Z12.800 F350.000
G1 X-38.413 Y67.000 Z12.800 F350.000
G1 X-38.413 Y67.674 Z12.800 F350.000
G1 X-36.387 Y69.699 Z12.800 F350.000
G1 X-36.387 Y70.373 Z12.800 F350.000
G1 X-38.413 Y68.348 Z12.800 F350.000
G1 X-38.413 Y69.021 Z12.800 F350.000
G1 X-36.387 Y71.046 Z12.800 F350.000
G1 X-36.387 Y71.720 Z12.800 F350.000
G1 X-38.413 Y69.695 Z12.800 F350.000
G1 X-38.413 Y70.368 Z12.800 F350.000
G1 X-36.387 Y72.393 Z12.800 F350.000
G1 X-36.387 Y73.067 Z12.800 F350.000
G1 X-38.413 Y71.042 Z12.800 F350.000
G1 X-38.413 Y71.715 Z12.800 F350.000
G1 X-36.387 Y73.740 Z12.800 F350.000
G1 X-36.387 Y74.414 Z12.800 F350.000
G1 X-38.413 Y72.389 Z12.800 F350.000
G1 X-38.413 Y73.062 Z12.800 F350.000
G1 X-36.387 Y75.087 Z12.800 F350.000
G1 X-36.387 Y75.761 Z12.800 F350.000
G1 X-38.413 Y73.736 Z12.800 F350.000
G1 X-38.413 Y74.409 Z12.800 F350.000
G1 X-36.387 Y76.434 Z12.800 F350.000
G1 X-36.387 Y77.108 Z12.800 F350.000
G1 X-38.413 Y75.083 Z12.800 F350.000
G1 X-38.413 Y75.756 Z12.800 F350.000
G1 X-36.387 Y77.781 Z12.800 F350.000
G1 X-36.387 Y78.455 Z12.800 F350.000
G1 X-38.413 Y76.430 Z12.800 F350.000
G1 X-38.413 Y77.103 Z12.800 F350.000
G1 X-36.387 Y79.128 Z12.800 F350.000
G1 X-36.387 Y79.802 Z12.800 F350.000
G1 X-38.413 Y77.777 Z12.800 F350.000
G1 X-38.413 Y78.450 Z12.800 F350.000
G1 X-36.387 Y80.475 Z12.800 F350.000
G1 X-36.387 Y81.149 Z12.800 F350.000
G1 X-38.413 Y79.124 Z12.800 F350.000
G1 X-38.413 Y79.797 Z12.800 F350.000
G1 X-36.387 Y81.822 Z12.800 F350.000
G1 X-36.387 Y82.496 Z12.800 F350.000
G1 X-38.413 Y80.471 Z12.800 F350.000
G1 X-38.413 Y81.144 Z12.800 F350.000
G1 X-36.387 Y83.169 Z12.800 F350.000
G1 X-36.387 Y83.843 Z12.800 F350.000
G1 X-38.413 Y81.818 Z12.800 F350.000
G1 X-38.413 Y82.491 Z12.800 F350.000
G1 X-36.387 Y84.516 Z12.800 F350.000
G1 X-36.387 Y85.190 Z12.800 F350.000
G1 X-38.413 Y83.165 Z12.800 F350.000
G1 X-38.413 Y83.838 Z12.800 F350.000
G1 X-36.387 Y85.863 Z12.800 F350.000
G1 X-36.387 Y86.537 Z12.800 F350.000
G1 X-38.413 Y84.512 Z12.800 F350.000
G1 X-38.413 Y85.185 Z12.800 F350.000
G1 X-36.387 Y87.210 Z12.800 F350.000
G1 X-36.387 Y87.884 Z12.800 F350.000
G1 X-38.413 Y85.859 Z12.800 F350.000
G1 X-38.413 Y86.533 Z12.800 F350.000
G1 X-36.387 Y88.558 Z12.800 F350.000
G1 X-36.387 Y89.231 Z12.800 F350.000
G1 X-38.413 Y87.206 Z12.800 F350.000
G1 X-38.413 Y87.880 Z12.800 F350.000
G1 X-36.387 Y89.905 Z12.800 F350.000
G1 X-36.387 Y90.578 Z12.800 F350.000
G1 X-38.413 Y88.553 Z12.800 F350.000
G1 X-38.413 Y89.227 Z12.800 F350.000
G1 X-36.387 Y91.252 Z12.800 F350.000
G1 X-36.387 Y91.925 Z12.800 F350.000
G1 X-38.413 Y89.900 Z12.800 F350.000
G1 X-38.413 Y90.574 Z12.800 F350.000
G1 X-36.387 Y92.599 Z12.800 F350.000
G1 X-36.387 Y93.272 Z12.800 F350.000
G1 X-38.413 Y91.247 Z12.800 F350.000
G1 X-38.413 Y91.921 Z12.800 F350.000
G1 X-36.387 Y93.946 Z12.800 F350.000
G1 X-36.387 Y94.619 Z12.800 F350.000
G1 X-38.413 Y92.594 Z12.800 F350.000
G1 X-38.413 Y93.268 Z12.800 F350.000
G1 X-36.387 Y95.293 Z12.800 F350.000
G1 X-36.387 Y95.966 Z12.800 F350.000
G1 X-38.413 Y93.941 Z12.800 F350.000
G1 X-38.413 Y94.615 Z12.800 F350.000
G1 X-36.387 Y96.640 Z12.800 F350.000
G1 X-36.387 Y97.313 Z12.800 F350.000
G1 X-38.413 Y95.288 Z12.800 F350.000
G1 X-38.413 Y95.962 Z12.800 F350.000
G1 X-36.387 Y97.987 Z12.800 F350.000
G1 X-36.387 Y98.660 Z12.800 F350.000
G1 X-38.413 Y96.635 Z12.800 F350.000
G1 X-38.413 Y97.309 Z12.800 F350.000
G1 X-36.387 Y99.334 Z12.800 F350.000
G1 X-36.387 Y100.007 Z12.800 F350.000
G1 X-38.413 Y97.982 Z12.800 F350.000
G1 X-38.413 Y98.656 Z12.800 F350.000
G1 X-36.387 Y100.681 Z12.800 F350.000
G1 X-36.387 Y101.012 Z12.800 F350.000
G1 X-36.729 Y101.012 Z12.800 F350.000
G1 X-38.413 Y99.329 Z12.800 F350.000
G1 X-38.413 Y100.003 Z12.800 F350.000
G1 X-37.403 Y101.012 Z12.800 F350.000
G1 X-38.076 Y101.012 Z12.800 F350.000
G1 X-38.413 Y100.676 Z12.800 F350.000
G1 X-38.413 Y101.012 Z12.800 F350.000
G1 X-38.076 Y101.012 Z12.800 F350.000
G0 Z24.000
G0 Z24.000
G0 X-38.076 Y101.012
G0 X36.724
G0 X36.724 Z22.000
G1 X36.724 Y101.012 Z15.825 F170.000
G1 X36.387 Y101.012 Z15.825 F350.000
G1 X36.387 Y100.676 Z15.825 F350.000
G1 X36.724 Y101.012 Z15.825 F350.000
G1 X37.397 Y101.012 Z15.825 F350.000
G1 X36.387 Y100.003 Z15.825 F350.000
G1 X36.387 Y99.329 Z15.825 F350.000
G1 X38.071 Y101.012 Z15.825 F350.000
G1 X38.413 Y101.012 Z15.825 F350.000
G1 X38.413 Y100.681 Z15.825 F350.000
G1 X36.387 Y98.656 Z15.825 F350.000
G1 X36.387 Y97.982 Z15.825 F350.000
G1 X38.413 Y100.007 Z15.825 F350.000
G1 X38.413 Y99.334 Z15.825 F350.000
G1 X36.387 Y97.309 Z15.825 F350.000
G1 X36.387 Y96.635 Z15.825 F350.000
G1 X38.413 Y98.660 Z15.825 F350.000
G1 X38.413 Y97.987 Z15.825 F350.000
G1 X36.387 Y95.962 Z15.825 F350.000
G1 X36.387 Y95.288 Z15.825 F350.000
G1 X38.413 Y97.313 Z15.825 F350.000
G1 X38.413 Y96.640 Z15.825 F350.000
G1 X36.387 Y94.615 Z15.825 F350.000
G1 X36.387 Y93.941 Z15.825 F350.000
G1 X38.413 Y95.966 Z15.825 F350.000
G1 X38.413 Y95.293 Z15.825 F350.000
G1 X36.387 Y93.268 Z15.825 F350.000
G1 X36.387 Y92.594 Z15.825 F350.000
G1 X38.413 Y94.619 Z15.825 F350.000
G1 X38.413 Y93.946 Z15.825 F350.000
G1 X36.387 Y91.921 Z15.825 F350.000
G1 X36.387 Y91.247 Z15.825 F350.000
G1 X38.413 Y93.272 Z15.825 F350.000
G1 X38.413 Y92.599 Z15.825 F350.000
G1 X36.387 Y90.574 Z15.825 F350.000
G1 X36.387 Y89.900 Z15.825 F350.000
G1 X38.413 Y91.925 Z15.825 F350.000
G1 X38.413 Y91.252 Z15.825 F350.000
G1 X36.387 Y89.227 Z15.825 F350.000
G1 X36.387 Y88.553 Z15.825 F350.000
G1 X38.413 Y90.578 Z15.825 F350.000
G1 X38.413 Y89.905 Z15.825 F350.000
G1 X36.387 Y87.880 Z15.825 F350.000
G1 X36.387 Y87.206 Z15.825 F350.000
G1 X38.413 Y89.231 Z15.825 F350.000
G1 X38.413 Y88.558 Z15.825 F350.000
G1 X36.387 Y86.533 Z15.825 F350.000
G1 X36.387 Y85.859 Z15.825 F350.000
G1 X38.413 Y87.884 Z15.825 F350.000
G1 X38.413 Y87.210 Z15.825 F350.000
G1 X36.387 Y85.185 Z15.825 F350.000
G1 X36.387 Y84.512 Z15.825 F350.000
G1 X38.413 Y86.537 Z15.825 F350.000
G1 X38.413 Y85.863 Z15.825 F350.000
G1 X36.387 Y83.838 Z15.825 F350.000
G1 X36.387 Y83.165 Z15.825 F350.000
G1 X38.413 Y85.190 Z15.825 F350.000
G1 X38.413 Y84.516 Z15.825 F350.000
G1 X36.387 Y82.491 Z15.825 F350.000
G1 X36.387 Y81.818 Z15.825 F350.000
G1 X38.413 Y83.843 Z15.825 F350.000
G1 X38.413 Y83.169 Z15.825 F350.000
G1 X36.387 Y81.144 Z15.825 F350.000
G1 X36.387 Y80.471 Z15.825 F350.000
G1 X38.413 Y82.496 Z15.825 F350.000
G1 X38.413 Y81.822 Z15.825 F350.000
G1 X36.387 Y79.797 Z15.825 F350.000
G1 X36.387 Y79.124 Z15.825 F350.000
G1 X38.413 Y81.149 Z15.825 F350.000
G1 X38.413 Y80.475 Z15.825 F350.000
G1 X36.387 Y78.450 Z15.825 F350.000
G1 X36.387 Y77.777 Z15.825 F350.000
G1 X38.413 Y79.802 Z15.825 F350.000
G1 X38.413 Y79.128 Z15.825 F350.000
G1 X36.387 Y77.103 Z15.825 F350.000
G1 X36.387 Y76.430 Z15.825 F350.000
G1 X38.413 Y78.455 Z15.825 F350.000
G1 X38.413 Y77.781 Z15.825 F350.000
G1 X36.387 Y75.756 Z15.825 F350.000
G1 X36.387 Y75.083 Z15.825 F350.000
G1 X38.413 Y77.108 Z15.825 F350.000
G1 X38.413 Y76.434 Z15.825 F350.000
G1 X36.387 Y74.409 Z15.825 F350.000
G1 X36.387 Y73.736 Z15.825 F350.000
G1 X38.413 Y75.761 Z15.825 F350.000
G1 X38.413 Y75.087 Z15.825 F350.000
G1 X36.387 Y73.062 Z15.825 F350.000
G1 X36.387 Y72.389 Z15.825 F350.000
G1 X38.413 Y74.414 Z15.825 F350.000
G1 X38.413 Y73.740 Z15.825 F350.000
G1 X36.387 Y71.715 Z15.825 F350.000
G1 X36.387 Y71.042 Z15.825 F350.000
G1 X38.413 Y73.067 Z15.825 F350.000
G1 X38.413 Y72.393 Z15.825 F350.000
G1 X36.387 Y70.368 Z15.825 F350.000
G1 X36.387 Y69.695 Z15.825 F350.000
G1 X38.413 Y71.720 Z15.825 F350.000
G1 X38.413 Y71.046 Z15.825 F350.000
G1 X36.387 Y69.021 Z15.825 F350.000
G1 X36.387 Y68.348 Z15.825 F350.000
G1 X38.413 Y70.373 Z15.825 F350.000
G1 X38.413 Y69.699 Z15.825 F350.000
G1 X36.387 Y67.674 Z15.825 F350.000
G1 X36.387 Y67.000 Z15.825 F350.000
G1 X38.413 Y69.025 Z15.825 F350.000
G1 X38.413 Y68.352 Z15.825 F350.000
G1 X36.387 Y66.327 Z15.825 F350.000
G1 X36.387 Y65.653 Z15.825 F350.000
G1 X38.413 Y67.678 Z15.825 F350.000
G1 X38.413 Y67.005 Z15.825 F350.000
G1 X36.387 Y64.980 Z15.825 F350.000
G1 X36.387 Y64.306 Z15.825 F350.000
G1 X38.413 Y66.331 Z15.825 F350.000
G1 X38.413 Y65.658 Z15.825 F350.000
G1 X36.387 Y63.633 Z15.825 F350.000
G1 X36.387 Y62.959 Z15.825 F350.000
G1 X38.413 Y64.984 Z15.825 F350.000
G1 X38.413 Y64.311 Z15.825 F350.000
G1 X36.387 Y62.286 Z15.825 F350.000
G1 X36.387 Y61.612 Z15.825 F350.000
G1 X38.413 Y63.637 Z15.825 F350.000
G1 X38.413 Y62.964 Z15.825 F350.000
G1 X36.387 Y60.939 Z15.825 F350.000
G1 X36.387 Y60.265 Z15.825 F350.000
G1 X38.413 Y62.290 Z15.825 F350.000
G1 X38.413 Y61.617 Z15.825 F350.000
G1 X36.387 Y59.592 Z15.825 F350.000
G1 X36.387 Y58.918 Z15.825 F350.000
G1 X38.413 Y60.943 Z15.825 F350.000
G1 X38.413 Y60.270 Z15.825 F350.000
G1 X36.387 Y58.245 Z15.825 F350.000
G1 X36.387 Y57.571 Z15.825 F350.000
G1 X38.413 Y59.596 Z15.825 F350.000
G1 X38.413 Y58.923 Z15.825 F350.000
G1 X36.387 Y56.898 Z15.825 F350.000
G1 X36.387 Y56.224 Z15.825 F350.000
G1 X38.413 Y58.249 Z15.825 F350.000
G1 X38.413 Y57.576 Z15.825 F350.000
G1 X36.387 Y55.551 Z15.825 F350.000
G1 X36.387 Y54.877 Z15.825 F350.000
G1 X38.413 Y56.902 Z15.825 F350.000
G1 X38.413 Y56.229 Z15.825 F350.000
G1 X36.387 Y54.204 Z15.825 F350.000
G1 X36.387 Y53.530 Z15.825 F350.000
G1 X38.413 Y55.555 Z15.825 F350.000
G1 X38.413 Y54.882 Z15.825 F350.000
G1 X36.387 Y52.857 Z15.825 F350.000
G1 X36.387 Y52.188 Z15.825 F350.000
G1 X36.392 Y52.188 Z15.825 F350.000
G1 X38.413 Y54.208 Z15.825 F350.000
G1 X38.413 Y53.535 Z15.825 F350.000
G1 X37.065 Y52.188 Z15.825 F350.000
G1 X37.739 Y52.188 Z15.825 F350.000
G1 X38.413 Y52.861 Z15.825 F350.000
G1 X38.413 Y52.188 Z15.825 F350.000
G1 X38.413 Y52.188 Z12.800 F170.000
G1 X38.413 Y52.861 Z12.800 F350.000
G1 X37.739 Y52.188 Z12.800 F350.000
G1 X37.065 Y52.188 Z12.800 F350.000
G1 X38.413 Y53.535 Z12.800 F350.000
G1 X38.413 Y54.208 Z12.800 F350.000
G1 X36.392 Y52.188 Z12.800 F350.000
G1 X36.387 Y52.188 Z12.800 F350.000
G1 X36.387 Y52.857 Z12.800 F350.000
G1 X38.413 Y54.882 Z12.800 F350.000
G1 X38.413 Y55.555 Z12.800 F350.000
G1 X36.387 Y53.530 Z12.800 F350.000
G1 X36.387 Y54.204 Z12.800 F350.000
G1 X38.413 Y56.229 Z12.800 F350.000
G1 X38.413 Y56.902 Z12.800 F350.000
G1 X36.387 Y54.877 Z12.800 F350.000
G1 X36.387 Y55.551 Z12.800 F350.000
G1 X38.413 Y57.576 Z12.800 F350.000
G1 X38.413 Y58.249 Z12.800 F350.000
G1 X36.387 Y56.224 Z12.800 F350.000
G1 X36.387 Y56.898 Z12.800 F350.000
G1 X38.413 Y58.923 Z12.800 F350.000
G1 X38.413 Y59.596 Z12.800 F350.000
G1 X36.387 Y57.571 Z12.800 F350.000
G1 X36.387 Y58.245 Z12.800 F350.000
G1 X38.413 Y60.270 Z12.800 F350.000
G1 X38.413 Y60.943 Z12.800 F350.000
G1 X36.387 Y58.918 Z12.800 F350.000
G1 X36.387 Y59.592 Z12.800 F350.000
G1 X38.413 Y61.617 Z12.800 F350.000
G1 X38.413 Y62.290 Z12.800 F350.000
G1 X36.387 Y60.265 Z12.800 F350.000
G1 X36.387 Y60.939 Z12.800 F350.000
G1 X38.413 Y62.964 Z12.800 F350.000
G1 X38.413 Y63.637 Z12.800 F350.000
G1 X36.387 Y61.612 Z12.800 F350.000
G1 X36.387 Y62.286 Z12.800 F350.000
G1 X38.413 Y64.311 Z12.800 F350.000
G1 X38.413 Y64.984 Z12.800 F350.000
G1 X36.387 Y62.959 Z12.800 F350.000
G1 X36.387 Y63.633 Z12.800 F350.000
G1 X38.413 Y65.658 Z12.800 F350.000
G1 X38.413 Y66.331 Z12.800 F350.000
G1 X36.387 Y64.306 Z12.800 F350.000
G1 X36.387 Y64.980 Z12.800 F350.000
G1 X38.413 Y67.005 Z12.800 F350.000
G1 X38.413 Y67.678 Z12.800 F350.000
G1 X36.387 Y65.653 Z12.800 F350.000
G1 X36.387 Y66.327 Z12.800 F350.000
G1 X38.413 Y68.352 Z12.800 F350.000
G1 X38.413 Y69.025 Z12.800 F350.000
G1 X36.387 Y67.000 Z12.800 F350.000
G1 X36.387 Y67.674 Z12.800 F350.000
G1 X38.413 Y69.699 Z12.800 F350.000
G1 X38.413 Y70.373 Z12.800 F350.000
G1 X36.387 Y68.348 Z12.800 F350.000
G1 X36.387 Y69.021 Z12.800 F350.000
G1 X38.413 Y71.046 Z12.800 F350.000
G1 X38.413 Y71.720 Z12.800 F350.000
G1 X36.387 Y69.695 Z12.800 F350.000
G1 X36.387 Y70.368 Z12.800 F350.000
G1 X38.413 Y72.393 Z12.800 F350.000
G1 X38.413 Y73.067 Z12.800 F350.000
G1 X36.387 Y71.042 Z12.800 F350.000
G1 X36.387 Y71.715 Z12.800 F350.000
G1 X38.413 Y73.740 Z12.800 F350.000
G1 X38.413 Y74.414 Z12.800 F350.000
G1 X36.387 Y72.389 Z12.800 F350.000
G1 X36.387 Y73.062 Z12.800 F350.000
G1 X38.413 Y75.087 Z12.800 F350.000
G1 X38.413 Y75.761 Z12.800 F350.000
G1 X36.387 Y73.736 Z12.800 F350.000
G1 X36.387 Y74.409 Z12.800 F350.000
G1 X38.413 Y76.434 Z12.800 F350.000
G1 X38.413 Y77.108 Z12.800 F350.000
G1 X36.387 Y75.083 Z12.800 F350.000
G1 X36.387 Y75.756 Z12.800 F350.000
G1 X38.413 Y77.781 Z12.800 F350.000
G1 X38.413 Y78.455 Z12.800 F350.000
G1 X36.387 Y76.430 Z12.800 F350.000
G1 X36.387 Y77.103 Z12.800 F350.000
G1 X38.413 Y79.128 Z12.800 F350.000
G1 X38.413 Y79.802 Z12.800 F350.000
G1 X36.387 Y77.777 Z12.800 F350.000
G1 X36.387 Y78.450 Z12.800 F350.000
G1 X38.413 Y80.475 Z12.800 F350.000
G1 X38.413 Y81.149 Z12.800 F350.000
G1 X36.387 Y79.124 Z12.800 F350.000
G1 X36.387 Y79.797 Z12.800 F350.000
G1 X38.413 Y81.822 Z12.800 F350.000
G1 X38.413 Y82.496 Z12.800 F350.000
G1 X36.387 Y80.471 Z12.800 F350.000
G1 X36.387 Y81.144 Z12.800 F350.000
G1 X38.413 Y83.169 Z12.800 F350.000
G1 X38.413 Y83.843 Z12.800 F350.000
G1 X36.387 Y81.818 Z12.800 F350.000
G1 X36.387 Y82.491 Z12.800 F350.000
G1 X38.413 Y84.516 Z12.800 F350.000
G1 X38.413 Y85.190 Z12.800 F350.000
G1 X36.387 Y83.165 Z12.800 F350.000
G1 X36.387 Y83.838 Z12.800 F350.000
G1 X38.413 Y85.863 Z12.800 F350.000
G1 X38.413 Y86.537 Z12.800 F350.000
G1 X36.387 Y84.512 Z12.800 F350.000
G1 X36.387 Y85.185 Z12.800 F350.000
G1 X38.413 Y87.210 Z12.800 F350.000
G1 X38.413 Y87.884 Z12.800 F350.000
G1 X36.387 Y85.859 Z12.800 F350.000
G1 X36.387 Y86.533 Z12.800 F350.000
G1 X38.413 Y88.558 Z12.800 F350.000
G1 X38.413 Y89.231 Z12.800 F350.000
G1 X36.387 Y87.206 Z12.800 F350.000
G1 X36.387 Y87.880 Z12.800 F350.000
G1 X38.413 Y89.905 Z12.800 F350.000
G1 X38.413 Y90.578 Z12.800 F350.000
G1 X36.387 Y88.553 Z12.800 F350.000
G1 X36.387 Y89.227 Z12.800 F350.000
G1 X38.413 Y91.252 Z12.800 F350.000
G1 X38.413 Y91.925 Z12.800 F350.000
G1 X36.387 Y89.900 Z12.800 F350.000
G1 X36.387 Y90.574 Z12.800 F350.000
G1 X38.413 Y92.599 Z12.800 F350.000
G1 X38.413 Y93.272 Z12.800 F350.000
G1 X36.387 Y91.247 Z12.800 F350.000
G1 X36.387 Y91.921 Z12.800 F350.000
G1 X38.413 Y93.946 Z12.800 F350.000
G1 X38.413 Y94.619 Z12.800 F350.000
G1 X36.387 Y92.594 Z12.800 F350.000
G1 X36.387 Y93.268 Z12.800 F350.000
G1 X38.413 Y95.293 Z12.800 F350.000
G1 X38.413 Y95.966 Z12.800 F350.000
G1 X36.387 Y93.941 Z12.800 F350.000
G1 X36.387 Y94.615 Z12.800 F350.000
G1 X38.413 Y96.640 Z12.800 F350.000
G1 X38.413 Y97.313 Z12.800 F350.000
G1 X36.387 Y95.288 Z12.800 F350.000
G1 X36.387 Y95.962 Z12.800 F350.000
G1 X38.413 Y97.987 Z12.800 F350.000
G1 X38.413 Y98.660 Z12.800 F350.000
G1 X36.387 Y96.635 Z12.800 F350.000
G1 X36.387 Y97.309 Z12.800 F350.000
G1 X38.413 Y99.334 Z12.800 F350.000
G1 X38.413 Y100.007 Z12.800 F350.000
G1 X36.387 Y97.982 Z12.800 F350.000
G1 X36.387 Y98.656 Z12.800 F350.000
G1 X38.413 Y100.681 Z12.800 F350.000
G1 X38.413 Y101.012 Z12.800 F350.000
G1 X38.071 Y101.012 Z12.800 F350.000
G1 X36.387 Y99.329 Z12.800 F350.000
G1 X36.387 Y100.003 Z12.800 F350.000
G1 X37.397 Y101.012 Z12.800 F350.000
G1 X36.724 Y101.012 Z12.800 F350.000
G1 X36.387 Y100.676 Z12.800 F350.000
G1 X36.387 Y101.012 Z12.800 F350.000
G1 X36.724 Y101.012 Z12.800 F350.000
G0 Z24.000
G0 Z24.000
(finish operation: Pocket_Shape019)
(begin operation: Profile002)
(machine: not set, mm/min)
(Profile002)
(Compensated Tool Path. Diameter: 3.175)
G0 Z24.000
G0 X101.123 Y103.723
G0 Z22.000
G1 X101.123 Y103.723 Z14.000 F170.000
G2 X101.588 Y102.600 Z14.000 I-1.123 J-1.123 F350.000
G1 X101.588 Y0.000 Z14.000 F350.000
G2 X100.000 Y-1.587 Z14.000 I-1.587 J-0.000 F350.000
G1 X78.400 Y-1.587 Z14.000 F350.000
G2 X76.812 Y0.000 Z14.000 I-0.000 J1.587 F350.000
G1 X76.812 Y12.600 Z14.000 F350.000
G2 X78.400 Y14.188 Z14.000 I1.587 J0.000 F350.000
G1 X84.012 Y14.188 Z14.000 F350.000
G1 X84.013 Y31.013 Z14.000 F350.000
G1 X50.000 Y31.013 Z14.000 F350.000
G2 X48.413 Y32.600 Z14.000 I-0.000 J1.587 F350.000
G1 X48.413 Y49.013 Z14.000 F350.000
G1 X-48.413 Y49.013 Z14.000 F350.000
G1 X-48.413 Y32.600 Z14.000 F350.000
G2 X-50.000 Y31.013 Z14.000 I-1.587 J-0.000 F350.000
G1 X-84.012 Y31.013 Z14.000 F350.000
G1 X-84.013 Y14.188 Z14.000 F350.000
G1 X-78.400 Y14.188 Z14.000 F350.000
G2 X-76.812 Y12.600 Z14.000 I0.000 J-1.587 F350.000
G1 X-76.812 Y0.000 Z14.000 F350.000
G2 X-78.400 Y-1.587 Z14.000 I-1.587 J-0.000 F350.000
G1 X-100.000 Y-1.587 Z14.000 F350.000
G2 X-101.588 Y0.000 Z14.000 I-0.000 J1.587 F350.000
G1 X-101.588 Y102.600 Z14.000 F350.000
G2 X-100.000 Y104.188 Z14.000 I1.587 J0.000 F350.000
G1 X100.000 Y104.188 Z14.000 F350.000
G2 X101.123 Y103.723 Z14.000 I0.000 J-1.587 F350.000
G1 X101.123 Y103.723 Z9.000 F170.000
G2 X101.588 Y102.600 Z9.000 I-1.123 J-1.123 F350.000
G1 X101.588 Y0.000 Z9.000 F350.000
G2 X100.000 Y-1.587 Z9.000 I-1.587 J-0.000 F350.000
G1 X78.400 Y-1.587 Z9.000 F350.000
G2 X76.812 Y0.000 Z9.000 I-0.000 J1.587 F350.000
G1 X76.812 Y12.600 Z9.000 F350.000
G2 X78.400 Y14.188 Z9.000 I1.587 J0.000 F350.000
G1 X84.012 Y14.188 Z9.000 F350.000
G1 X84.013 Y31.013 Z9.000 F350.000
G1 X50.000 Y31.013 Z9.000 F350.000
G2 X48.413 Y32.600 Z9.000 I-0.000 J1.587 F350.000
G1 X48.413 Y49.013 Z9.000 F350.000
G1 X-48.413 Y49.013 Z9.000 F350.000
G1 X-48.413 Y32.600 Z9.000 F350.000
G2 X-50.000 Y31.013 Z9.000 I-1.587 J-0.000 F350.000
G1 X-84.012 Y31.013 Z9.000 F350.000
G1 X-84.013 Y14.188 Z9.000 F350.000
G1 X-78.400 Y14.188 Z9.000 F350.000
G2 X-76.812 Y12.600 Z9.000 I0.000 J-1.587 F350.000
G1 X-76.812 Y0.000 Z9.000 F350.000
G2 X-78.400 Y-1.587 Z9.000 I-1.587 J-0.000 F350.000
G1 X-100.000 Y-1.587 Z9.000 F350.000
G2 X-101.588 Y0.000 Z9.000 I-0.000 J1.587 F350.000
G1 X-101.588 Y102.600 Z9.000 F350.000
G2 X-100.000 Y104.188 Z9.000 I1.587 J0.000 F350.000
G1 X100.000 Y104.188 Z9.000 F350.000
G2 X101.123 Y103.723 Z9.000 I0.000 J-1.587 F350.000
G1 X101.123 Y103.723 Z4.000 F170.000
G2 X101.588 Y102.600 Z4.000 I-1.123 J-1.123 F350.000
G1 X101.588 Y0.000 Z4.000 F350.000
G2 X100.000 Y-1.587 Z4.000 I-1.587 J-0.000 F350.000
G1 X78.400 Y-1.587 Z4.000 F350.000
G2 X76.812 Y0.000 Z4.000 I-0.000 J1.587 F350.000
G1 X76.812 Y12.600 Z4.000 F350.000
G2 X78.400 Y14.188 Z4.000 I1.587 J0.000 F350.000
G1 X84.012 Y14.188 Z4.000 F350.000
G1 X84.013 Y31.013 Z4.000 F350.000
G1 X50.000 Y31.013 Z4.000 F350.000
G2 X48.413 Y32.600 Z4.000 I-0.000 J1.587 F350.000
G1 X48.413 Y49.013 Z4.000 F350.000
G1 X-48.413 Y49.013 Z4.000 F350.000
G1 X-48.413 Y32.600 Z4.000 F350.000
G2 X-50.000 Y31.013 Z4.000 I-1.587 J-0.000 F350.000
G1 X-84.012 Y31.013 Z4.000 F350.000
G1 X-84.013 Y14.188 Z4.000 F350.000
G1 X-78.400 Y14.188 Z4.000 F350.000
G2 X-76.812 Y12.600 Z4.000 I0.000 J-1.587 F350.000
G1 X-76.812 Y0.000 Z4.000 F350.000
G2 X-78.400 Y-1.587 Z4.000 I-1.587 J-0.000 F350.000
G1 X-100.000 Y-1.587 Z4.000 F350.000
G2 X-101.588 Y0.000 Z4.000 I-0.000 J1.587 F350.000
G1 X-101.588 Y102.600 Z4.000 F350.000
G2 X-100.000 Y104.188 Z4.000 I1.587 J0.000 F350.000
G1 X100.000 Y104.188 Z4.000 F350.000
G2 X101.123 Y103.723 Z4.000 I0.000 J-1.587 F350.000
G1 X101.123 Y103.723 Z0.000 F170.000
G2 X101.588 Y102.600 Z0.000 I-1.123 J-1.123 F350.000
G1 X101.588 Y0.000 Z0.000 F350.000
G2 X100.000 Y-1.587 Z0.000 I-1.587 J-0.000 F350.000
G1 X78.400 Y-1.587 Z0.000 F350.000
G2 X76.812 Y0.000 Z0.000 I-0.000 J1.587 F350.000
G1 X76.812 Y12.600 Z0.000 F350.000
G2 X78.400 Y14.188 Z0.000 I1.587 J0.000 F350.000
G1 X84.012 Y14.188 Z0.000 F350.000
G1 X84.013 Y31.013 Z0.000 F350.000
G1 X50.000 Y31.013 Z0.000 F350.000
G2 X48.413 Y32.600 Z0.000 I-0.000 J1.587 F350.000
G1 X48.413 Y49.013 Z0.000 F350.000
G1 X-48.413 Y49.013 Z0.000 F350.000
G1 X-48.413 Y32.600 Z0.000 F350.000
G2 X-50.000 Y31.013 Z0.000 I-1.587 J-0.000 F350.000
G1 X-84.012 Y31.013 Z0.000 F350.000
G1 X-84.013 Y14.188 Z0.000 F350.000
G1 X-78.400 Y14.188 Z0.000 F350.000
G2 X-76.812 Y12.600 Z0.000 I0.000 J-1.587 F350.000
G1 X-76.812 Y0.000 Z0.000 F350.000
G2 X-78.400 Y-1.587 Z0.000 I-1.587 J-0.000 F350.000
G1 X-100.000 Y-1.587 Z0.000 F350.000
G2 X-101.588 Y0.000 Z0.000 I-0.000 J1.587 F350.000
G1 X-101.588 Y102.600 Z0.000 F350.000
G2 X-100.000 Y104.188 Z0.000 I1.587 J0.000 F350.000
G1 X100.000 Y104.188 Z0.000 F350.000
G2 X101.123 Y103.723 Z0.000 I0.000 J-1.587 F350.000
G0 Z24.000
G0 Z24.000
(finish operation: Profile002)
(begin postamble)
M05 M09
G17 G90 G80 G40
M30
