(Exported by FreeCAD)
(Post Processor: KineticNCBeamicon2_post)
(Output Time:2024-03-23 14:33:27.977778)
(begin preamble)
%
G17 G21 G40 G49 G80 G90
M08
G21
(begin operation: Fixture)
(machine: not set, mm/min)
G54
(finish operation: Fixture)
(begin operation: TC: Default Tool003)
(machine: not set, mm/min)
(TC: Default Tool003)
M05
M09M6 T1
M3 S10000
(finish operation: TC: Default Tool003)
(begin operation: Pocket_Shape020)
(machine: not set, mm/min)
(Pocket_Shape020)
G0 Z24.000
G0 X-18.572 Y66.312
G0 Z22.000
G1 X-18.572 Y66.312 Z15.825 F170.000
G2 X-19.930 Y64.829 Z15.825 I-0.712 J-0.712 F350.000
G2 X-18.636 Y66.371 Z15.825 I0.647 J0.771 F350.000
G2 X-18.572 Y66.312 Z15.825 I-0.647 J-0.771 F350.000
G1 X-18.572 Y66.312 Z12.650 F170.000
G2 X-19.930 Y64.829 Z12.650 I-0.712 J-0.712 F350.000
G2 X-18.636 Y66.371 Z12.650 I0.647 J0.771 F350.000
G2 X-18.572 Y66.312 Z12.650 I-0.647 J-0.771 F350.000
G1 X-18.572 Y66.312 Z9.475 F170.000
G2 X-19.930 Y64.829 Z9.475 I-0.712 J-0.712 F350.000
G2 X-18.636 Y66.371 Z9.475 I0.647 J0.771 F350.000
G2 X-18.572 Y66.312 Z9.475 I-0.647 J-0.771 F350.000
G1 X-18.572 Y66.312 Z6.300 F170.000
G2 X-19.930 Y64.829 Z6.300 I-0.712 J-0.712 F350.000
G2 X-18.636 Y66.371 Z6.300 I0.647 J0.771 F350.000
G2 X-18.572 Y66.312 Z6.300 I-0.647 J-0.771 F350.000
G1 X-18.572 Y66.312 Z3.125 F170.000
G2 X-19.930 Y64.829 Z3.125 I-0.712 J-0.712 F350.000
G2 X-18.636 Y66.371 Z3.125 I0.647 J0.771 F350.000
G2 X-18.572 Y66.312 Z3.125 I-0.647 J-0.771 F350.000
G1 X-18.572 Y66.312 Z-0.000 F170.000
G2 X-19.930 Y64.829 Z0.000 I-0.712 J-0.712 F350.000
G2 X-18.636 Y66.371 Z-0.000 I0.647 J0.771 F350.000
G2 X-18.572 Y66.312 Z-0.000 I-0.647 J-0.771 F350.000
G0 Z24.000
G0 Z24.000
G0 X-18.572 Y66.312
G0 X18.277 Y65.619
G0 X18.277 Y65.619 Z22.000
G1 X18.277 Y65.619 Z15.825 F170.000
G2 X18.512 Y66.247 Z15.825 I1.006 J-0.019 F350.000
G2 X20.054 Y64.953 Z15.825 I0.771 J-0.647 F350.000
G2 X18.277 Y65.619 Z15.825 I-0.771 J0.647 F350.000
G1 X18.277 Y65.619 Z12.650 F170.000
G2 X18.512 Y66.247 Z12.650 I1.006 J-0.019 F350.000
G2 X20.054 Y64.953 Z12.650 I0.771 J-0.647 F350.000
G2 X18.277 Y65.619 Z12.650 I-0.771 J0.647 F350.000
G1 X18.277 Y65.619 Z9.475 F170.000
G2 X18.512 Y66.247 Z9.475 I1.006 J-0.019 F350.000
G2 X20.054 Y64.953 Z9.475 I0.771 J-0.647 F350.000
G2 X18.277 Y65.619 Z9.475 I-0.771 J0.647 F350.000
G1 X18.277 Y65.619 Z6.300 F170.000
G2 X18.512 Y66.247 Z6.300 I1.006 J-0.019 F350.000
G2 X20.054 Y64.953 Z6.300 I0.771 J-0.647 F350.000
G2 X18.277 Y65.619 Z6.300 I-0.771 J0.647 F350.000
G1 X18.277 Y65.619 Z3.125 F170.000
G2 X18.512 Y66.247 Z3.125 I1.006 J-0.019 F350.000
G2 X20.054 Y64.953 Z3.125 I0.771 J-0.647 F350.000
G2 X18.277 Y65.619 Z3.125 I-0.771 J0.647 F350.000
G1 X18.277 Y65.619 Z-0.000 F170.000
G2 X18.512 Y66.247 Z-0.000 I1.006 J-0.019 F350.000
G2 X20.054 Y64.953 Z0.000 I0.771 J-0.647 F350.000
G2 X18.277 Y65.619 Z-0.000 I-0.771 J0.647 F350.000
G0 Z24.000
G0 Z24.000
G0 X18.277 Y65.619
G0 X56.844 Y65.600
G0 X56.844 Y65.600 Z22.000
G1 X56.844 Y65.600 Z15.825 F170.000
G2 X57.079 Y66.247 Z15.825 I1.006 J-0.000 F350.000
G2 X58.497 Y66.371 Z15.825 I0.771 J-0.647 F350.000
G2 X58.621 Y64.953 Z15.825 I-0.647 J-0.771 F350.000
G2 X56.844 Y65.600 Z15.825 I-0.771 J0.647 F350.000
G1 X56.844 Y65.600 Z12.650 F170.000
G2 X57.079 Y66.247 Z12.650 I1.006 J-0.000 F350.000
G2 X58.497 Y66.371 Z12.650 I0.771 J-0.647 F350.000
G2 X58.621 Y64.953 Z12.650 I-0.647 J-0.771 F350.000
G2 X56.844 Y65.600 Z12.650 I-0.771 J0.647 F350.000
G1 X56.844 Y65.600 Z9.475 F170.000
G2 X57.079 Y66.247 Z9.475 I1.006 J-0.000 F350.000
G2 X58.497 Y66.371 Z9.475 I0.771 J-0.647 F350.000
G2 X58.621 Y64.953 Z9.475 I-0.647 J-0.771 F350.000
G2 X56.844 Y65.600 Z9.475 I-0.771 J0.647 F350.000
G1 X56.844 Y65.600 Z6.300 F170.000
G2 X57.079 Y66.247 Z6.300 I1.006 J-0.000 F350.000
G2 X58.497 Y66.371 Z6.300 I0.771 J-0.647 F350.000
G2 X58.621 Y64.953 Z6.300 I-0.647 J-0.771 F350.000
G2 X56.844 Y65.600 Z6.300 I-0.771 J0.647 F350.000
G1 X56.844 Y65.600 Z3.125 F170.000
G2 X57.079 Y66.247 Z3.125 I1.006 J-0.000 F350.000
G2 X58.497 Y66.371 Z3.125 I0.771 J-0.647 F350.000
G2 X58.621 Y64.953 Z3.125 I-0.647 J-0.771 F350.000
G2 X56.844 Y65.600 Z3.125 I-0.771 J0.647 F350.000
G1 X56.844 Y65.600 Z0.000 F170.000
G2 X57.079 Y66.247 Z0.000 I1.006 J-0.000 F350.000
G2 X58.497 Y66.371 Z0.000 I0.771 J-0.647 F350.000
G2 X58.621 Y64.953 Z0.000 I-0.647 J-0.771 F350.000
G2 X56.844 Y65.600 Z0.000 I-0.771 J0.647 F350.000
G0 Z24.000
G0 Z24.000
G0 X56.844 Y65.600
G0 X63.226 Y88.132
G0 X63.226 Y88.132 Z22.000
G1 X63.226 Y88.132 Z15.825 F170.000
G2 X62.729 Y89.747 Z15.825 I0.274 J0.968 F350.000
G2 X64.147 Y89.871 Z15.825 I0.771 J-0.647 F350.000
G2 X64.271 Y88.453 Z15.825 I-0.647 J-0.771 F350.000
G2 X63.226 Y88.132 Z15.825 I-0.771 J0.647 F350.000
G1 X63.226 Y88.132 Z12.650 F170.000
G2 X62.729 Y89.747 Z12.650 I0.274 J0.968 F350.000
G2 X64.147 Y89.871 Z12.650 I0.771 J-0.647 F350.000
G2 X64.271 Y88.453 Z12.650 I-0.647 J-0.771 F350.000
G2 X63.226 Y88.132 Z12.650 I-0.771 J0.647 F350.000
G1 X63.226 Y88.132 Z9.475 F170.000
G2 X62.729 Y89.747 Z9.475 I0.274 J0.968 F350.000
G2 X64.147 Y89.871 Z9.475 I0.771 J-0.647 F350.000
G2 X64.271 Y88.453 Z9.475 I-0.647 J-0.771 F350.000
G2 X63.226 Y88.132 Z9.475 I-0.771 J0.647 F350.000
G1 X63.226 Y88.132 Z6.300 F170.000
G2 X62.729 Y89.747 Z6.300 I0.274 J0.968 F350.000
G2 X64.147 Y89.871 Z6.300 I0.771 J-0.647 F350.000
G2 X64.271 Y88.453 Z6.300 I-0.647 J-0.771 F350.000
G2 X63.226 Y88.132 Z6.300 I-0.771 J0.647 F350.000
G1 X63.226 Y88.132 Z3.125 F170.000
G2 X62.729 Y89.747 Z3.125 I0.274 J0.968 F350.000
G2 X64.147 Y89.871 Z3.125 I0.771 J-0.647 F350.000
G2 X64.271 Y88.453 Z3.125 I-0.647 J-0.771 F350.000
G2 X63.226 Y88.132 Z3.125 I-0.771 J0.647 F350.000
G1 X63.226 Y88.132 Z0.000 F170.000
G2 X62.729 Y89.747 Z0.000 I0.274 J0.968 F350.000
G2 X64.147 Y89.871 Z-0.000 I0.771 J-0.647 F350.000
G2 X64.271 Y88.453 Z-0.000 I-0.647 J-0.771 F350.000
G2 X63.226 Y88.132 Z0.000 I-0.771 J0.647 F350.000
G0 Z24.000
G0 Z24.000
G0 X63.226 Y88.132
G0 X-56.861 Y65.784
G0 X-56.861 Y65.784 Z22.000
G1 X-56.861 Y65.784 Z15.825 F170.000
G2 X-57.079 Y64.953 Z15.825 I-0.989 J-0.184 F350.000
G2 X-58.621 Y66.247 Z15.825 I-0.771 J0.647 F350.000
G2 X-56.861 Y65.784 Z15.825 I0.771 J-0.647 F350.000
G1 X-56.861 Y65.784 Z12.650 F170.000
G2 X-57.079 Y64.953 Z12.650 I-0.989 J-0.184 F350.000
G2 X-58.621 Y66.247 Z12.650 I-0.771 J0.647 F350.000
G2 X-56.861 Y65.784 Z12.650 I0.771 J-0.647 F350.000
G1 X-56.861 Y65.784 Z9.475 F170.000
G2 X-57.079 Y64.953 Z9.475 I-0.989 J-0.184 F350.000
G2 X-58.621 Y66.247 Z9.475 I-0.771 J0.647 F350.000
G2 X-56.861 Y65.784 Z9.475 I0.771 J-0.647 F350.000
G1 X-56.861 Y65.784 Z6.300 F170.000
G2 X-57.079 Y64.953 Z6.300 I-0.989 J-0.184 F350.000
G2 X-58.621 Y66.247 Z6.300 I-0.771 J0.647 F350.000
G2 X-56.861 Y65.784 Z6.300 I0.771 J-0.647 F350.000
G1 X-56.861 Y65.784 Z3.125 F170.000
G2 X-57.079 Y64.953 Z3.125 I-0.989 J-0.184 F350.000
G2 X-58.621 Y66.247 Z3.125 I-0.771 J0.647 F350.000
G2 X-56.861 Y65.784 Z3.125 I0.771 J-0.647 F350.000
G1 X-56.861 Y65.784 Z-0.000 F170.000
G2 X-57.079 Y64.953 Z-0.000 I-0.989 J-0.184 F350.000
G2 X-58.621 Y66.247 Z0.000 I-0.771 J0.647 F350.000
G2 X-56.861 Y65.784 Z-0.000 I0.771 J-0.647 F350.000
G0 Z24.000
G0 Z24.000
G0 X-56.861 Y65.784
G0 X-63.224 Y88.132
G0 X-63.224 Y88.132 Z22.000
G1 X-63.224 Y88.132 Z15.825 F170.000
G2 X-64.271 Y89.747 Z15.825 I-0.276 J0.968 F350.000
G2 X-62.853 Y89.871 Z15.825 I0.771 J-0.647 F350.000
G2 X-62.729 Y88.453 Z15.825 I-0.647 J-0.771 F350.000
G2 X-63.224 Y88.132 Z15.825 I-0.771 J0.647 F350.000
G1 X-63.224 Y88.132 Z12.650 F170.000
G2 X-64.271 Y89.747 Z12.650 I-0.276 J0.968 F350.000
G2 X-62.853 Y89.871 Z12.650 I0.771 J-0.647 F350.000
G2 X-62.729 Y88.453 Z12.650 I-0.647 J-0.771 F350.000
G2 X-63.224 Y88.132 Z12.650 I-0.771 J0.647 F350.000
G1 X-63.224 Y88.132 Z9.475 F170.000
G2 X-64.271 Y89.747 Z9.475 I-0.276 J0.968 F350.000
G2 X-62.853 Y89.871 Z9.475 I0.771 J-0.647 F350.000
G2 X-62.729 Y88.453 Z9.475 I-0.647 J-0.771 F350.000
G2 X-63.224 Y88.132 Z9.475 I-0.771 J0.647 F350.000
G1 X-63.224 Y88.132 Z6.300 F170.000
G2 X-64.271 Y89.747 Z6.300 I-0.276 J0.968 F350.000
G2 X-62.853 Y89.871 Z6.300 I0.771 J-0.647 F350.000
G2 X-62.729 Y88.453 Z6.300 I-0.647 J-0.771 F350.000
G2 X-63.224 Y88.132 Z6.300 I-0.771 J0.647 F350.000
G1 X-63.224 Y88.132 Z3.125 F170.000
G2 X-64.271 Y89.747 Z3.125 I-0.276 J0.968 F350.000
G2 X-62.853 Y89.871 Z3.125 I0.771 J-0.647 F350.000
G2 X-62.729 Y88.453 Z3.125 I-0.647 J-0.771 F350.000
G2 X-63.224 Y88.132 Z3.125 I-0.771 J0.647 F350.000
G1 X-63.224 Y88.132 Z0.000 F170.000
G2 X-64.271 Y89.747 Z0.000 I-0.276 J0.968 F350.000
G2 X-62.853 Y89.871 Z0.000 I0.771 J-0.647 F350.000
G2 X-62.729 Y88.453 Z0.000 I-0.647 J-0.771 F350.000
G2 X-63.224 Y88.132 Z0.000 I-0.771 J0.647 F350.000
G0 Z24.000
G0 Z24.000
(finish operation: Pocket_Shape020)
(begin operation: Profile003)
(machine: not set, mm/min)
(Profile003)
(Compensated Tool Path. Diameter: 3.175)
G0 Z24.000
G0 X101.123 Y103.723
G0 Z22.000
G1 X101.123 Y103.723 Z14.000 F170.000
G2 X101.588 Y102.600 Z14.000 I-1.123 J-1.123 F350.000
G1 X101.588 Y0.000 Z14.000 F350.000
G2 X100.000 Y-1.587 Z14.000 I-1.587 J-0.000 F350.000
G1 X78.400 Y-1.587 Z14.000 F350.000
G2 X76.812 Y0.000 Z14.000 I-0.000 J1.587 F350.000
G1 X76.812 Y12.600 Z14.000 F350.000
G2 X78.400 Y14.188 Z14.000 I1.587 J0.000 F350.000
G1 X84.012 Y14.188 Z14.000 F350.000
G1 X84.013 Y31.013 Z14.000 F350.000
G1 X50.000 Y31.013 Z14.000 F350.000
G2 X48.413 Y32.600 Z14.000 I-0.000 J1.587 F350.000
G1 X48.413 Y49.013 Z14.000 F350.000
G1 X-48.413 Y49.013 Z14.000 F350.000
G1 X-48.413 Y32.600 Z14.000 F350.000
G2 X-50.000 Y31.013 Z14.000 I-1.587 J-0.000 F350.000
G1 X-84.012 Y31.013 Z14.000 F350.000
G1 X-84.013 Y14.188 Z14.000 F350.000
G1 X-78.400 Y14.188 Z14.000 F350.000
G2 X-76.812 Y12.600 Z14.000 I0.000 J-1.587 F350.000
G1 X-76.812 Y0.000 Z14.000 F350.000
G2 X-78.400 Y-1.587 Z14.000 I-1.587 J-0.000 F350.000
G1 X-100.000 Y-1.587 Z14.000 F350.000
G2 X-101.588 Y0.000 Z14.000 I-0.000 J1.587 F350.000
G1 X-101.588 Y102.600 Z14.000 F350.000
G2 X-100.000 Y104.188 Z14.000 I1.587 J0.000 F350.000
G1 X100.000 Y104.188 Z14.000 F350.000
G2 X101.123 Y103.723 Z14.000 I0.000 J-1.587 F350.000
G1 X101.123 Y103.723 Z9.000 F170.000
G2 X101.588 Y102.600 Z9.000 I-1.123 J-1.123 F350.000
G1 X101.588 Y0.000 Z9.000 F350.000
G2 X100.000 Y-1.587 Z9.000 I-1.587 J-0.000 F350.000
G1 X78.400 Y-1.587 Z9.000 F350.000
G2 X76.812 Y0.000 Z9.000 I-0.000 J1.587 F350.000
G1 X76.812 Y12.600 Z9.000 F350.000
G2 X78.400 Y14.188 Z9.000 I1.587 J0.000 F350.000
G1 X84.012 Y14.188 Z9.000 F350.000
G1 X84.013 Y31.013 Z9.000 F350.000
G1 X50.000 Y31.013 Z9.000 F350.000
G2 X48.413 Y32.600 Z9.000 I-0.000 J1.587 F350.000
G1 X48.413 Y49.013 Z9.000 F350.000
G1 X-48.413 Y49.013 Z9.000 F350.000
G1 X-48.413 Y32.600 Z9.000 F350.000
G2 X-50.000 Y31.013 Z9.000 I-1.587 J-0.000 F350.000
G1 X-84.012 Y31.013 Z9.000 F350.000
G1 X-84.013 Y14.188 Z9.000 F350.000
G1 X-78.400 Y14.188 Z9.000 F350.000
G2 X-76.812 Y12.600 Z9.000 I0.000 J-1.587 F350.000
G1 X-76.812 Y0.000 Z9.000 F350.000
G2 X-78.400 Y-1.587 Z9.000 I-1.587 J-0.000 F350.000
G1 X-100.000 Y-1.587 Z9.000 F350.000
G2 X-101.588 Y0.000 Z9.000 I-0.000 J1.587 F350.000
G1 X-101.588 Y102.600 Z9.000 F350.000
G2 X-100.000 Y104.188 Z9.000 I1.587 J0.000 F350.000
G1 X100.000 Y104.188 Z9.000 F350.000
G2 X101.123 Y103.723 Z9.000 I0.000 J-1.587 F350.000
G1 X101.123 Y103.723 Z4.000 F170.000
G2 X101.588 Y102.600 Z4.000 I-1.123 J-1.123 F350.000
G1 X101.588 Y0.000 Z4.000 F350.000
G2 X100.000 Y-1.587 Z4.000 I-1.587 J-0.000 F350.000
G1 X78.400 Y-1.587 Z4.000 F350.000
G2 X76.812 Y0.000 Z4.000 I-0.000 J1.587 F350.000
G1 X76.812 Y12.600 Z4.000 F350.000
G2 X78.400 Y14.188 Z4.000 I1.587 J0.000 F350.000
G1 X84.012 Y14.188 Z4.000 F350.000
G1 X84.013 Y31.013 Z4.000 F350.000
G1 X50.000 Y31.013 Z4.000 F350.000
G2 X48.413 Y32.600 Z4.000 I-0.000 J1.587 F350.000
G1 X48.413 Y49.013 Z4.000 F350.000
G1 X-48.413 Y49.013 Z4.000 F350.000
G1 X-48.413 Y32.600 Z4.000 F350.000
G2 X-50.000 Y31.013 Z4.000 I-1.587 J-0.000 F350.000
G1 X-84.012 Y31.013 Z4.000 F350.000
G1 X-84.013 Y14.188 Z4.000 F350.000
G1 X-78.400 Y14.188 Z4.000 F350.000
G2 X-76.812 Y12.600 Z4.000 I0.000 J-1.587 F350.000
G1 X-76.812 Y0.000 Z4.000 F350.000
G2 X-78.400 Y-1.587 Z4.000 I-1.587 J-0.000 F350.000
G1 X-100.000 Y-1.587 Z4.000 F350.000
G2 X-101.588 Y0.000 Z4.000 I-0.000 J1.587 F350.000
G1 X-101.588 Y102.600 Z4.000 F350.000
G2 X-100.000 Y104.188 Z4.000 I1.587 J0.000 F350.000
G1 X100.000 Y104.188 Z4.000 F350.000
G2 X101.123 Y103.723 Z4.000 I0.000 J-1.587 F350.000
G1 X101.123 Y103.723 Z0.000 F170.000
G2 X101.588 Y102.600 Z0.000 I-1.123 J-1.123 F350.000
G1 X101.588 Y0.000 Z0.000 F350.000
G2 X100.000 Y-1.587 Z0.000 I-1.587 J-0.000 F350.000
G1 X78.400 Y-1.587 Z0.000 F350.000
G2 X76.812 Y0.000 Z0.000 I-0.000 J1.587 F350.000
G1 X76.812 Y12.600 Z0.000 F350.000
G2 X78.400 Y14.188 Z0.000 I1.587 J0.000 F350.000
G1 X84.012 Y14.188 Z0.000 F350.000
G1 X84.013 Y31.013 Z0.000 F350.000
G1 X50.000 Y31.013 Z0.000 F350.000
G2 X48.413 Y32.600 Z0.000 I-0.000 J1.587 F350.000
G1 X48.413 Y49.013 Z0.000 F350.000
G1 X-48.413 Y49.013 Z0.000 F350.000
G1 X-48.413 Y32.600 Z0.000 F350.000
G2 X-50.000 Y31.013 Z0.000 I-1.587 J-0.000 F350.000
G1 X-84.012 Y31.013 Z0.000 F350.000
G1 X-84.013 Y14.188 Z0.000 F350.000
G1 X-78.400 Y14.188 Z0.000 F350.000
G2 X-76.812 Y12.600 Z0.000 I0.000 J-1.587 F350.000
G1 X-76.812 Y0.000 Z0.000 F350.000
G2 X-78.400 Y-1.587 Z0.000 I-1.587 J-0.000 F350.000
G1 X-100.000 Y-1.587 Z0.000 F350.000
G2 X-101.588 Y0.000 Z0.000 I-0.000 J1.587 F350.000
G1 X-101.588 Y102.600 Z0.000 F350.000
G2 X-100.000 Y104.188 Z0.000 I1.587 J0.000 F350.000
G1 X100.000 Y104.188 Z0.000 F350.000
G2 X101.123 Y103.723 Z0.000 I0.000 J-1.587 F350.000
G0 Z24.000
G0 Z24.000
(finish operation: Profile003)
(begin postamble)
M05 M09
G17 G90 G80 G40
M30
