(Exported by FreeCAD)
(Post Processor: KineticNCBeamicon2_post)
(Output Time:2024-10-29 18:06:50.803765)
(begin preamble)
%
G17 G21 G40 G49 G80 G90
M08
G21
(begin operation: Fixture)
(machine: not set, mm/min)
G54
(finish operation: Fixture)
(begin operation: 22mm up/down endmill001)
(machine: not set, mm/min)
(22mm up/down endmill001)
M05
M09M6 T2
M3 S10000
(finish operation: 22mm up/down endmill001)
(begin operation: Profile009)
(machine: not set, mm/min)
(Profile009)
(Compensated Tool Path. Diameter: 3.17)
G0 Z24.000
G0 X155.121 Y164.121
G0 Z22.000
G1 X155.121 Y164.121 Z14.000 F170.000
G2 X155.585 Y163.000 Z14.000 I-1.121 J-1.121 F350.000
G1 X155.585 Y118.000 Z14.000 F350.000
G2 X154.000 Y116.415 Z14.000 I-1.585 J0.000 F350.000
G1 X85.585 Y116.415 Z14.000 F350.000
G1 X85.585 Y0.000 Z14.000 F350.000
G2 X84.000 Y-1.585 Z14.000 I-1.585 J0.000 F350.000
G1 X-84.000 Y-1.585 Z14.000 F350.000
G2 X-85.585 Y0.000 Z14.000 I0.000 J1.585 F350.000
G1 X-85.585 Y116.415 Z14.000 F350.000
G1 X-154.000 Y116.415 Z14.000 F350.000
G2 X-155.585 Y118.000 Z14.000 I0.000 J1.585 F350.000
G1 X-155.585 Y163.000 Z14.000 F350.000
G2 X-154.000 Y164.585 Z14.000 I1.585 J-0.000 F350.000
G1 X-144.000 Y164.585 Z14.000 F350.000
G2 X-142.415 Y163.000 Z14.000 I-0.000 J-1.585 F350.000
G1 X-142.415 Y159.585 Z14.000 F350.000
G1 X-125.585 Y159.585 Z14.000 F350.000
G1 X-125.585 Y163.000 Z14.000 F350.000
G2 X-124.000 Y164.585 Z14.000 I1.585 J-0.000 F350.000
G1 X-114.000 Y164.585 Z14.000 F350.000
G2 X-112.415 Y163.000 Z14.000 I-0.000 J-1.585 F350.000
G1 X-112.415 Y159.585 Z14.000 F350.000
G1 X112.415 Y159.585 Z14.000 F350.000
G1 X112.415 Y163.000 Z14.000 F350.000
G2 X114.000 Y164.585 Z14.000 I1.585 J-0.000 F350.000
G1 X124.000 Y164.585 Z14.000 F350.000
G2 X125.585 Y163.000 Z14.000 I-0.000 J-1.585 F350.000
G1 X125.585 Y159.585 Z14.000 F350.000
G1 X142.415 Y159.585 Z14.000 F350.000
G1 X142.415 Y163.000 Z14.000 F350.000
G2 X144.000 Y164.585 Z14.000 I1.585 J-0.000 F350.000
G1 X154.000 Y164.585 Z14.000 F350.000
G2 X155.121 Y164.121 Z14.000 I-0.000 J-1.585 F350.000
G1 X155.121 Y164.121 Z9.000 F170.000
G2 X155.585 Y163.000 Z9.000 I-1.121 J-1.121 F350.000
G1 X155.585 Y118.000 Z9.000 F350.000
G2 X154.000 Y116.415 Z9.000 I-1.585 J0.000 F350.000
G1 X85.585 Y116.415 Z9.000 F350.000
G1 X85.585 Y0.000 Z9.000 F350.000
G2 X84.000 Y-1.585 Z9.000 I-1.585 J0.000 F350.000
G1 X-84.000 Y-1.585 Z9.000 F350.000
G2 X-85.585 Y0.000 Z9.000 I0.000 J1.585 F350.000
G1 X-85.585 Y116.415 Z9.000 F350.000
G1 X-154.000 Y116.415 Z9.000 F350.000
G2 X-155.585 Y118.000 Z9.000 I0.000 J1.585 F350.000
G1 X-155.585 Y163.000 Z9.000 F350.000
G2 X-154.000 Y164.585 Z9.000 I1.585 J-0.000 F350.000
G1 X-144.000 Y164.585 Z9.000 F350.000
G2 X-142.415 Y163.000 Z9.000 I-0.000 J-1.585 F350.000
G1 X-142.415 Y159.585 Z9.000 F350.000
G1 X-125.585 Y159.585 Z9.000 F350.000
G1 X-125.585 Y163.000 Z9.000 F350.000
G2 X-124.000 Y164.585 Z9.000 I1.585 J-0.000 F350.000
G1 X-114.000 Y164.585 Z9.000 F350.000
G2 X-112.415 Y163.000 Z9.000 I-0.000 J-1.585 F350.000
G1 X-112.415 Y159.585 Z9.000 F350.000
G1 X112.415 Y159.585 Z9.000 F350.000
G1 X112.415 Y163.000 Z9.000 F350.000
G2 X114.000 Y164.585 Z9.000 I1.585 J-0.000 F350.000
G1 X124.000 Y164.585 Z9.000 F350.000
G2 X125.585 Y163.000 Z9.000 I-0.000 J-1.585 F350.000
G1 X125.585 Y159.585 Z9.000 F350.000
G1 X142.415 Y159.585 Z9.000 F350.000
G1 X142.415 Y163.000 Z9.000 F350.000
G2 X144.000 Y164.585 Z9.000 I1.585 J-0.000 F350.000
G1 X154.000 Y164.585 Z9.000 F350.000
G2 X155.121 Y164.121 Z9.000 I-0.000 J-1.585 F350.000
G1 X155.121 Y164.121 Z4.000 F170.000
G2 X155.585 Y163.000 Z4.000 I-1.121 J-1.121 F350.000
G1 X155.585 Y118.000 Z4.000 F350.000
G2 X154.000 Y116.415 Z4.000 I-1.585 J0.000 F350.000
G1 X85.585 Y116.415 Z4.000 F350.000
G1 X85.585 Y0.000 Z4.000 F350.000
G2 X84.000 Y-1.585 Z4.000 I-1.585 J0.000 F350.000
G1 X-84.000 Y-1.585 Z4.000 F350.000
G2 X-85.585 Y0.000 Z4.000 I0.000 J1.585 F350.000
G1 X-85.585 Y116.415 Z4.000 F350.000
G1 X-154.000 Y116.415 Z4.000 F350.000
G2 X-155.585 Y118.000 Z4.000 I0.000 J1.585 F350.000
G1 X-155.585 Y163.000 Z4.000 F350.000
G2 X-154.000 Y164.585 Z4.000 I1.585 J-0.000 F350.000
G1 X-144.000 Y164.585 Z4.000 F350.000
G2 X-142.415 Y163.000 Z4.000 I-0.000 J-1.585 F350.000
G1 X-142.415 Y159.585 Z4.000 F350.000
G1 X-125.585 Y159.585 Z4.000 F350.000
G1 X-125.585 Y163.000 Z4.000 F350.000
G2 X-124.000 Y164.585 Z4.000 I1.585 J-0.000 F350.000
G1 X-114.000 Y164.585 Z4.000 F350.000
G2 X-112.415 Y163.000 Z4.000 I-0.000 J-1.585 F350.000
G1 X-112.415 Y159.585 Z4.000 F350.000
G1 X112.415 Y159.585 Z4.000 F350.000
G1 X112.415 Y163.000 Z4.000 F350.000
G2 X114.000 Y164.585 Z4.000 I1.585 J-0.000 F350.000
G1 X124.000 Y164.585 Z4.000 F350.000
G2 X125.585 Y163.000 Z4.000 I-0.000 J-1.585 F350.000
G1 X125.585 Y159.585 Z4.000 F350.000
G1 X142.415 Y159.585 Z4.000 F350.000
G1 X142.415 Y163.000 Z4.000 F350.000
G2 X144.000 Y164.585 Z4.000 I1.585 J-0.000 F350.000
G1 X154.000 Y164.585 Z4.000 F350.000
G2 X155.121 Y164.121 Z4.000 I-0.000 J-1.585 F350.000
G1 X155.121 Y164.121 Z0.000 F170.000
G2 X155.585 Y163.000 Z0.000 I-1.121 J-1.121 F350.000
G1 X155.585 Y118.000 Z0.000 F350.000
G2 X154.000 Y116.415 Z0.000 I-1.585 J0.000 F350.000
G1 X85.585 Y116.415 Z0.000 F350.000
G1 X85.585 Y0.000 Z0.000 F350.000
G2 X84.000 Y-1.585 Z0.000 I-1.585 J0.000 F350.000
G1 X-84.000 Y-1.585 Z0.000 F350.000
G2 X-85.585 Y0.000 Z0.000 I0.000 J1.585 F350.000
G1 X-85.585 Y116.415 Z0.000 F350.000
G1 X-154.000 Y116.415 Z0.000 F350.000
G2 X-155.585 Y118.000 Z0.000 I0.000 J1.585 F350.000
G1 X-155.585 Y163.000 Z0.000 F350.000
G2 X-154.000 Y164.585 Z0.000 I1.585 J-0.000 F350.000
G1 X-144.000 Y164.585 Z0.000 F350.000
G2 X-142.415 Y163.000 Z0.000 I-0.000 J-1.585 F350.000
G1 X-142.415 Y159.585 Z0.000 F350.000
G1 X-125.585 Y159.585 Z0.000 F350.000
G1 X-125.585 Y163.000 Z0.000 F350.000
G2 X-124.000 Y164.585 Z0.000 I1.585 J-0.000 F350.000
G1 X-114.000 Y164.585 Z0.000 F350.000
G2 X-112.415 Y163.000 Z0.000 I-0.000 J-1.585 F350.000
G1 X-112.415 Y159.585 Z0.000 F350.000
G1 X112.415 Y159.585 Z0.000 F350.000
G1 X112.415 Y163.000 Z0.000 F350.000
G2 X114.000 Y164.585 Z0.000 I1.585 J-0.000 F350.000
G1 X124.000 Y164.585 Z0.000 F350.000
G2 X125.585 Y163.000 Z0.000 I-0.000 J-1.585 F350.000
G1 X125.585 Y159.585 Z0.000 F350.000
G1 X142.415 Y159.585 Z0.000 F350.000
G1 X142.415 Y163.000 Z0.000 F350.000
G2 X144.000 Y164.585 Z0.000 I1.585 J-0.000 F350.000
G1 X154.000 Y164.585 Z0.000 F350.000
G2 X155.121 Y164.121 Z0.000 I-0.000 J-1.585 F350.000
G0 Z24.000
G0 Z24.000
(finish operation: Profile009)
(begin postamble)
M05 M09
G17 G90 G80 G40
M30
